luts/gamut 709.cube
TITLE "Gamut V-Log Conversion LUT"
# Version 1.1 - 01/26/2021 - Copyright 2021 Gamut, LLC
# 
LUT_3D_SIZE 33
0.0000000000 0.0007000000 0.0008000000
0.0016000000 0.0014000000 0.0016000000
0.0032000000 0.0022000000 0.0024000000
0.0064000000 0.0029000000 0.0032000000
0.0144000000 0.0036000000 0.0040000000
0.0288000000 0.0051000000 0.0041000000
0.0430000000 0.0058000000 0.0049000000
0.0611000000 0.0066000000 0.0049000000
0.0836000000 0.0051000000 0.0041000000
0.1084000000 0.0080000000 0.0027000000
0.1377000000 0.0125000000 0.0005000000
0.1733000000 0.0095000000 0.0004000000
0.2170000000 0.0140000000 0.0014000000
0.2617000000 0.0207000000 0.0016000000
0.3108000000 0.0230000000 0.0048000000
0.3583000000 0.0260000000 0.0088000000
0.4096000000 0.0223000000 0.0094000000
0.4644000000 0.0275000000 0.0119000000
0.5247000000 0.0200000000 0.0124000000
0.5860000000 0.0275000000 0.0112000000
0.6441000000 0.0170000000 0.0115000000
0.6922000000 0.0336000000 0.0130000000
0.7349000000 0.0541000000 0.0176000000
0.7739000000 0.0632000000 0.0226000000
0.8088000000 0.0695000000 0.0290000000
0.8409000000 0.0813000000 0.0363000000
0.8715000000 0.0938000000 0.0459000000
0.9011000000 0.1068000000 0.0577000000
0.9282000000 0.1201000000 0.0712000000
0.9507000000 0.1316000000 0.0856000000
0.9640000000 0.1435000000 0.1018000000
0.9703000000 0.1572000000 0.1196000000
0.9730000000 0.1727000000 0.1385000000
0.0016000000 0.0044000000 0.0016000000
0.0024000000 0.0044000000 0.0016000000
0.0048000000 0.0044000000 0.0024000000
0.0073000000 0.0051000000 0.0034000000
0.0152000000 0.0058000000 0.0041000000
0.0304000000 0.0066000000 0.0049000000
0.0445000000 0.0081000000 0.0050000000
0.0605000000 0.0081000000 0.0050000000
0.0818000000 0.0066000000 0.0041000000
0.1070000000 0.0088000000 0.0027000000
0.1362000000 0.0132000000 0.0013000000
0.1722000000 0.0117000000 0.0005000000
0.2141000000 0.0170000000 0.0015000000
0.2598000000 0.0230000000 0.0025000000
0.3087000000 0.0245000000 0.0057000000
0.3562000000 0.0275000000 0.0096000000
0.4077000000 0.0238000000 0.0102000000
0.4620000000 0.0283000000 0.0127000000
0.5227000000 0.0208000000 0.0132000000
0.5839000000 0.0291000000 0.0120000000
0.6423000000 0.0193000000 0.0116000000
0.6907000000 0.0351000000 0.0131000000
0.7336000000 0.0559000000 0.0177000000
0.7728000000 0.0648000000 0.0234000000
0.8078000000 0.0729000000 0.0299000000
0.8399000000 0.0847000000 0.0372000000
0.8706000000 0.0976000000 0.0475000000
0.9000000000 0.1116000000 0.0591000000
0.9273000000 0.1253000000 0.0719000000
0.9499000000 0.1372000000 0.0868000000
0.9633000000 0.1495000000 0.1028000000
0.9696000000 0.1638000000 0.1205000000
0.9723000000 0.1796000000 0.1393000000
0.0024000000 0.0096000000 0.0032000000
0.0040000000 0.0088000000 0.0032000000
0.0064000000 0.0081000000 0.0032000000
0.0096000000 0.0081000000 0.0040000000
0.0161000000 0.0080000000 0.0051000000
0.0296000000 0.0088000000 0.0057000000
0.0430000000 0.0095000000 0.0058000000
0.0593000000 0.0088000000 0.0058000000
0.0808000000 0.0073000000 0.0049000000
0.1055000000 0.0095000000 0.0035000000
0.1338000000 0.0155000000 0.0022000000
0.1690000000 0.0162000000 0.0007000000
0.2110000000 0.0192000000 0.0024000000
0.2564000000 0.0245000000 0.0033000000
0.3058000000 0.0268000000 0.0065000000
0.3535000000 0.0290000000 0.0104000000
0.4051000000 0.0253000000 0.0111000000
0.4593000000 0.0291000000 0.0135000000
0.5197000000 0.0223000000 0.0133000000
0.5809000000 0.0306000000 0.0129000000
0.6395000000 0.0215000000 0.0125000000
0.6885000000 0.0366000000 0.0139000000
0.7317000000 0.0577000000 0.0185000000
0.7712000000 0.0674000000 0.0243000000
0.8063000000 0.0762000000 0.0300000000
0.8386000000 0.0889000000 0.0381000000
0.8693000000 0.1028000000 0.0483000000
0.8988000000 0.1175000000 0.0599000000
0.9262000000 0.1312000000 0.0737000000
0.9490000000 0.1437000000 0.0879000000
0.9626000000 0.1564000000 0.1042000000
0.9689000000 0.1711000000 0.1218000000
0.9717000000 0.1874000000 0.1407000000
0.0048000000 0.0133000000 0.0048000000
0.0064000000 0.0133000000 0.0048000000
0.0088000000 0.0126000000 0.0040000000
0.0128000000 0.0126000000 0.0056000000
0.0196000000 0.0117000000 0.0061000000
0.0313000000 0.0125000000 0.0067000000
0.0446000000 0.0125000000 0.0067000000
0.0599000000 0.0118000000 0.0066000000
0.0794000000 0.0095000000 0.0050000000
0.1028000000 0.0110000000 0.0035000000
0.1299000000 0.0192000000 0.0031000000
0.1650000000 0.0207000000 0.0016000000
0.2075000000 0.0222000000 0.0040000000
0.2532000000 0.0267000000 0.0042000000
0.3028000000 0.0290000000 0.0074000000
0.3503000000 0.0306000000 0.0113000000
0.4018000000 0.0275000000 0.0119000000
0.4556000000 0.0306000000 0.0144000000
0.5163000000 0.0246000000 0.0141000000
0.5775000000 0.0328000000 0.0129000000
0.6367000000 0.0245000000 0.0134000000
0.6859000000 0.0389000000 0.0147000000
0.7297000000 0.0594000000 0.0194000000
0.7693000000 0.0704000000 0.0252000000
0.8047000000 0.0803000000 0.0317000000
0.8371000000 0.0937000000 0.0399000000
0.8678000000 0.1091000000 0.0500000000
0.8974000000 0.1243000000 0.0620000000
0.9248000000 0.1387000000 0.0755000000
0.9478000000 0.1514000000 0.0899000000
0.9618000000 0.1644000000 0.1060000000
0.9685000000 0.1795000000 0.1237000000
0.9713000000 0.1964000000 0.1425000000
0.0064000000 0.0239000000 0.0065000000
0.0072000000 0.0239000000 0.0057000000
0.0104000000 0.0224000000 0.0057000000
0.0136000000 0.0216000000 0.0056000000
0.0199000000 0.0209000000 0.0072000000
0.0339000000 0.0215000000 0.0068000000
0.0468000000 0.0212000000 0.0095000000
0.0590000000 0.0214000000 0.0088000000
0.0761000000 0.0200000000 0.0077000000
0.0994000000 0.0215000000 0.0062000000
0.1259000000 0.0260000000 0.0057000000
0.1608000000 0.0267000000 0.0042000000
0.2039000000 0.0267000000 0.0050000000
0.2491000000 0.0298000000 0.0059000000
0.2990000000 0.0320000000 0.0090000000
0.3468000000 0.0336000000 0.0122000000
0.3982000000 0.0298000000 0.0128000000
0.4516000000 0.0336000000 0.0152000000
0.5125000000 0.0276000000 0.0150000000
0.5734000000 0.0359000000 0.0138000000
0.6331000000 0.0268000000 0.0142000000
0.6830000000 0.0418000000 0.0156000000
0.7272000000 0.0627000000 0.0203000000
0.7672000000 0.0743000000 0.0261000000
0.8026000000 0.0855000000 0.0327000000
0.8351000000 0.1006000000 0.0409000000
0.8660000000 0.1167000000 0.0516000000
0.8955000000 0.1328000000 0.0640000000
0.9231000000 0.1475000000 0.0774000000
0.9463000000 0.1603000000 0.0920000000
0.9609000000 0.1736000000 0.1078000000
0.9679000000 0.1893000000 0.1257000000
0.9708000000 0.2064000000 0.1445000000
0.0071000000 0.0376000000 0.0073000000
0.0079000000 0.0383000000 0.0065000000
0.0095000000 0.0368000000 0.0065000000
0.0135000000 0.0353000000 0.0065000000
0.0207000000 0.0345000000 0.0065000000
0.0342000000 0.0345000000 0.0080000000
0.0494000000 0.0353000000 0.0047000000
0.0630000000 0.0339000000 0.0088000000
0.0785000000 0.0338000000 0.0116000000
0.0981000000 0.0340000000 0.0108000000
0.1239000000 0.0365000000 0.0092000000
0.1577000000 0.0365000000 0.0084000000
0.1996000000 0.0335000000 0.0075000000
0.2453000000 0.0343000000 0.0076000000
0.2950000000 0.0351000000 0.0099000000
0.3430000000 0.0359000000 0.0138000000
0.3943000000 0.0328000000 0.0137000000
0.4467000000 0.0374000000 0.0162000000
0.5079000000 0.0321000000 0.0160000000
0.5688000000 0.0396000000 0.0147000000
0.6295000000 0.0298000000 0.0151000000
0.6797000000 0.0459000000 0.0165000000
0.7243000000 0.0674000000 0.0220000000
0.7646000000 0.0794000000 0.0278000000
0.8004000000 0.0921000000 0.0337000000
0.8329000000 0.1084000000 0.0427000000
0.8637000000 0.1257000000 0.0540000000
0.8933000000 0.1430000000 0.0661000000
0.9210000000 0.1579000000 0.0802000000
0.9444000000 0.1706000000 0.0945000000
0.9595000000 0.1841000000 0.1104000000
0.9669000000 0.2001000000 0.1280000000
0.9700000000 0.2179000000 0.1471000000
0.0079000000 0.0520000000 0.0082000000
0.0095000000 0.0532000000 0.0074000000
0.0103000000 0.0520000000 0.0066000000
0.0135000000 0.0501000000 0.0066000000
0.0207000000 0.0495000000 0.0073000000
0.0342000000 0.0488000000 0.0057000000
0.0486000000 0.0482000000 0.0080000000
0.0638000000 0.0482000000 0.0031000000
0.0813000000 0.0478000000 0.0073000000
0.1017000000 0.0477000000 0.0124000000
0.1255000000 0.0484000000 0.0145000000
0.1565000000 0.0490000000 0.0146000000
0.1966000000 0.0438000000 0.0117000000
0.2424000000 0.0424000000 0.0109000000
0.2916000000 0.0403000000 0.0124000000
0.3391000000 0.0411000000 0.0155000000
0.3900000000 0.0381000000 0.0154000000
0.4421000000 0.0425000000 0.0179000000
0.5027000000 0.0374000000 0.0169000000
0.5638000000 0.0446000000 0.0165000000
0.6251000000 0.0351000000 0.0161000000
0.6755000000 0.0517000000 0.0183000000
0.7211000000 0.0733000000 0.0230000000
0.7620000000 0.0855000000 0.0288000000
0.7976000000 0.1009000000 0.0356000000
0.8302000000 0.1183000000 0.0454000000
0.8610000000 0.1367000000 0.0563000000
0.8906000000 0.1544000000 0.0693000000
0.9185000000 0.1692000000 0.0825000000
0.9423000000 0.1819000000 0.0970000000
0.9580000000 0.1960000000 0.1130000000
0.9659000000 0.2124000000 0.1309000000
0.9690000000 0.2306000000 0.1503000000
0.0110000000 0.0662000000 0.0066000000
0.0118000000 0.0668000000 0.0066000000
0.0126000000 0.0668000000 0.0058000000
0.0142000000 0.0646000000 0.0066000000
0.0214000000 0.0636000000 0.0066000000
0.0341000000 0.0625000000 0.0057000000
0.0479000000 0.0614000000 0.0065000000
0.0632000000 0.0614000000 0.0072000000
0.0805000000 0.0609000000 0.0023000000
0.1016000000 0.0605000000 0.0063000000
0.1275000000 0.0599000000 0.0166000000
0.1586000000 0.0607000000 0.0205000000
0.1950000000 0.0587000000 0.0184000000
0.2396000000 0.0565000000 0.0176000000
0.2885000000 0.0541000000 0.0191000000
0.3363000000 0.0523000000 0.0198000000
0.3864000000 0.0485000000 0.0189000000
0.4377000000 0.0505000000 0.0205000000
0.4972000000 0.0453000000 0.0188000000
0.5586000000 0.0505000000 0.0182000000
0.6198000000 0.0452000000 0.0173000000
0.6715000000 0.0605000000 0.0202000000
0.7173000000 0.0807000000 0.0248000000
0.7583000000 0.0948000000 0.0307000000
0.7942000000 0.1114000000 0.0382000000
0.8268000000 0.1298000000 0.0480000000
0.8578000000 0.1493000000 0.0593000000
0.8875000000 0.1671000000 0.0725000000
0.9156000000 0.1816000000 0.0858000000
0.9397000000 0.1947000000 0.0999000000
0.9560000000 0.2091000000 0.1163000000
0.9644000000 0.2259000000 0.1345000000
0.9678000000 0.2447000000 0.1540000000
0.0134000000 0.0843000000 0.0051000000
0.0142000000 0.0856000000 0.0051000000
0.0150000000 0.0860000000 0.0051000000
0.0158000000 0.0839000000 0.0043000000
0.0221000000 0.0817000000 0.0050000000
0.0333000000 0.0790000000 0.0050000000
0.0464000000 0.0790000000 0.0033000000
0.0614000000 0.0781000000 0.0057000000
0.0780000000 0.0776000000 0.0072000000
0.1015000000 0.0777000000 0.0022000000
0.1284000000 0.0771000000 0.0115000000
0.1624000000 0.0772000000 0.0242000000
0.1976000000 0.0775000000 0.0280000000
0.2377000000 0.0766000000 0.0268000000
0.2848000000 0.0748000000 0.0267000000
0.3321000000 0.0714000000 0.0259000000
0.3827000000 0.0674000000 0.0250000000
0.4336000000 0.0674000000 0.0242000000
0.4926000000 0.0610000000 0.0225000000
0.5533000000 0.0643000000 0.0211000000
0.6141000000 0.0588000000 0.0193000000
0.6666000000 0.0719000000 0.0222000000
0.7130000000 0.0924000000 0.0276000000
0.7542000000 0.1069000000 0.0335000000
0.7903000000 0.1238000000 0.0410000000
0.8230000000 0.1436000000 0.0513000000
0.8540000000 0.1633000000 0.0629000000
0.8837000000 0.1807000000 0.0756000000
0.9122000000 0.1952000000 0.0890000000
0.9367000000 0.2086000000 0.1036000000
0.9537000000 0.2235000000 0.1199000000
0.9625000000 0.2408000000 0.1383000000
0.9662000000 0.2598000000 0.1581000000
0.0150000000 0.1096000000 0.0187000000
0.0158000000 0.1107000000 0.0171000000
0.0165000000 0.1120000000 0.0164000000
0.0181000000 0.1100000000 0.0147000000
0.0229000000 0.1065000000 0.0139000000
0.0325000000 0.1033000000 0.0139000000
0.0435000000 0.1011000000 0.0138000000
0.0558000000 0.1004000000 0.0122000000
0.0740000000 0.1004000000 0.0129000000
0.0980000000 0.0993000000 0.0207000000
0.1283000000 0.1001000000 0.0134000000
0.1635000000 0.0991000000 0.0234000000
0.2023000000 0.0989000000 0.0341000000
0.2421000000 0.0995000000 0.0376000000
0.2845000000 0.1002000000 0.0367000000
0.3281000000 0.0997000000 0.0345000000
0.3772000000 0.0975000000 0.0337000000
0.4278000000 0.0963000000 0.0314000000
0.4871000000 0.0912000000 0.0282000000
0.5477000000 0.0900000000 0.0267000000
0.6088000000 0.0833000000 0.0241000000
0.6610000000 0.0936000000 0.0268000000
0.7077000000 0.1093000000 0.0320000000
0.7492000000 0.1223000000 0.0364000000
0.7855000000 0.1398000000 0.0447000000
0.8185000000 0.1595000000 0.0553000000
0.8496000000 0.1790000000 0.0669000000
0.8796000000 0.1957000000 0.0797000000
0.9084000000 0.2101000000 0.0930000000
0.9335000000 0.2239000000 0.1075000000
0.9511000000 0.2391000000 0.1244000000
0.9605000000 0.2567000000 0.1428000000
0.9644000000 0.2758000000 0.1627000000
0.0117000000 0.1431000000 0.0244000000
0.0125000000 0.1447000000 0.0229000000
0.0149000000 0.1468000000 0.0213000000
0.0165000000 0.1455000000 0.0197000000
0.0189000000 0.1412000000 0.0188000000
0.0252000000 0.1365000000 0.0188000000
0.0348000000 0.1331000000 0.0196000000
0.0471000000 0.1305000000 0.0211000000
0.0659000000 0.1297000000 0.0226000000
0.0900000000 0.1303000000 0.0201000000
0.1239000000 0.1294000000 0.0295000000
0.1637000000 0.1298000000 0.0181000000
0.2049000000 0.1294000000 0.0266000000
0.2497000000 0.1291000000 0.0395000000
0.2925000000 0.1304000000 0.0455000000
0.3338000000 0.1314000000 0.0458000000
0.3779000000 0.1318000000 0.0441000000
0.4247000000 0.1334000000 0.0406000000
0.4809000000 0.1325000000 0.0381000000
0.5414000000 0.1302000000 0.0358000000
0.6016000000 0.1270000000 0.0342000000
0.6540000000 0.1328000000 0.0360000000
0.7014000000 0.1384000000 0.0385000000
0.7435000000 0.1461000000 0.0426000000
0.7802000000 0.1614000000 0.0506000000
0.8135000000 0.1795000000 0.0604000000
0.8451000000 0.1967000000 0.0715000000
0.8755000000 0.2119000000 0.0836000000
0.9046000000 0.2261000000 0.0974000000
0.9300000000 0.2401000000 0.1125000000
0.9485000000 0.2558000000 0.1292000000
0.9585000000 0.2734000000 0.1476000000
0.9626000000 0.2920000000 0.1674000000
0.0228000000 0.1850000000 0.0285000000
0.0235000000 0.1866000000 0.0278000000
0.0243000000 0.1890000000 0.0262000000
0.0251000000 0.1892000000 0.0246000000
0.0275000000 0.1854000000 0.0230000000
0.0291000000 0.1798000000 0.0221000000
0.0315000000 0.1753000000 0.0221000000
0.0379000000 0.1720000000 0.0237000000
0.0511000000 0.1695000000 0.0252000000
0.0739000000 0.1684000000 0.0275000000
0.1082000000 0.1696000000 0.0234000000
0.1574000000 0.1682000000 0.0327000000
0.2050000000 0.1695000000 0.0189000000
0.2507000000 0.1697000000 0.0218000000
0.2995000000 0.1681000000 0.0360000000
0.3444000000 0.1680000000 0.0459000000
0.3891000000 0.1691000000 0.0503000000
0.4351000000 0.1715000000 0.0513000000
0.4868000000 0.1727000000 0.0508000000
0.5424000000 0.1742000000 0.0476000000
0.5980000000 0.1762000000 0.0443000000
0.6497000000 0.1791000000 0.0452000000
0.6968000000 0.1810000000 0.0476000000
0.7387000000 0.1866000000 0.0522000000
0.7756000000 0.1962000000 0.0591000000
0.8092000000 0.2075000000 0.0674000000
0.8411000000 0.2194000000 0.0775000000
0.8719000000 0.2318000000 0.0890000000
0.9010000000 0.2444000000 0.1025000000
0.9269000000 0.2581000000 0.1178000000
0.9462000000 0.2735000000 0.1344000000
0.9567000000 0.2904000000 0.1525000000
0.9612000000 0.3082000000 0.1717000000
0.0099000000 0.2329000000 0.0288000000
0.0091000000 0.2348000000 0.0264000000
0.0083000000 0.2369000000 0.0248000000
0.0082000000 0.2388000000 0.0224000000
0.0098000000 0.2358000000 0.0216000000
0.0146000000 0.2302000000 0.0224000000
0.0202000000 0.2243000000 0.0231000000
0.0290000000 0.2199000000 0.0247000000
0.0432000000 0.2163000000 0.0262000000
0.0652000000 0.2138000000 0.0285000000
0.0969000000 0.2132000000 0.0300000000
0.1440000000 0.2141000000 0.0226000000
0.1995000000 0.2120000000 0.0327000000
0.2511000000 0.2126000000 0.0157000000
0.3000000000 0.2129000000 0.0146000000
0.3466000000 0.2130000000 0.0220000000
0.3977000000 0.2116000000 0.0353000000
0.4475000000 0.2123000000 0.0456000000
0.5002000000 0.2134000000 0.0533000000
0.5549000000 0.2155000000 0.0563000000
0.6083000000 0.2184000000 0.0586000000
0.6567000000 0.2220000000 0.0599000000
0.7004000000 0.2258000000 0.0619000000
0.7399000000 0.2310000000 0.0642000000
0.7751000000 0.2372000000 0.0688000000
0.8079000000 0.2436000000 0.0757000000
0.8393000000 0.2503000000 0.0855000000
0.8695000000 0.2585000000 0.0965000000
0.8985000000 0.2681000000 0.1099000000
0.9245000000 0.2794000000 0.1242000000
0.9442000000 0.2928000000 0.1402000000
0.9554000000 0.3081000000 0.1576000000
0.9601000000 0.3244000000 0.1762000000
0.0201000000 0.2818000000 0.0249000000
0.0193000000 0.2836000000 0.0242000000
0.0185000000 0.2856000000 0.0218000000
0.0169000000 0.2877000000 0.0202000000
0.0185000000 0.2864000000 0.0194000000
0.0233000000 0.2813000000 0.0202000000
0.0296000000 0.2754000000 0.0225000000
0.0336000000 0.2699000000 0.0233000000
0.0400000000 0.2660000000 0.0240000000
0.0542000000 0.2627000000 0.0255000000
0.0820000000 0.2603000000 0.0270000000
0.1261000000 0.2601000000 0.0245000000
0.1824000000 0.2602000000 0.0171000000
0.2444000000 0.2579000000 0.0231000000
0.2981000000 0.2582000000 0.0061000000
0.3491000000 0.2587000000 0.0002000000
0.3972000000 0.2594000000 0.0055000000
0.4516000000 0.2582000000 0.0199000000
0.5099000000 0.2568000000 0.0378000000
0.5681000000 0.2575000000 0.0519000000
0.6220000000 0.2598000000 0.0613000000
0.6704000000 0.2631000000 0.0665000000
0.7129000000 0.2670000000 0.0720000000
0.7505000000 0.2718000000 0.0786000000
0.7840000000 0.2770000000 0.0855000000
0.8147000000 0.2820000000 0.0922000000
0.8435000000 0.2870000000 0.0999000000
0.8711000000 0.2927000000 0.1082000000
0.8982000000 0.2993000000 0.1185000000
0.9236000000 0.3068000000 0.1322000000
0.9434000000 0.3164000000 0.1469000000
0.9548000000 0.3285000000 0.1636000000
0.9596000000 0.3424000000 0.1815000000
0.0191000000 0.3318000000 0.0228000000
0.0207000000 0.3335000000 0.0220000000
0.0215000000 0.3354000000 0.0212000000
0.0239000000 0.3377000000 0.0204000000
0.0247000000 0.3378000000 0.0196000000
0.0231000000 0.3339000000 0.0188000000
0.0207000000 0.3280000000 0.0180000000
0.0192000000 0.3221000000 0.0171000000
0.0200000000 0.3171000000 0.0171000000
0.0319000000 0.3133000000 0.0179000000
0.0626000000 0.3090000000 0.0193000000
0.1136000000 0.3069000000 0.0199000000
0.1747000000 0.3073000000 0.0109000000
0.2351000000 0.3050000000 0.0146000000
0.2921000000 0.3042000000 0.0143000000
0.3473000000 0.3045000000 0.0004000000
0.4002000000 0.3049000000 -0.0007000000
0.4524000000 0.3057000000 -0.0010000000
0.5098000000 0.3052000000 0.0088000000
0.5749000000 0.3031000000 0.0284000000
0.6335000000 0.3031000000 0.0465000000
0.6838000000 0.3050000000 0.0614000000
0.7270000000 0.3082000000 0.0731000000
0.7643000000 0.3126000000 0.0849000000
0.7972000000 0.3172000000 0.0956000000
0.8269000000 0.3218000000 0.1060000000
0.8544000000 0.3262000000 0.1160000000
0.8803000000 0.3306000000 0.1256000000
0.9051000000 0.3355000000 0.1356000000
0.9278000000 0.3406000000 0.1460000000
0.9459000000 0.3471000000 0.1573000000
0.9561000000 0.3556000000 0.1714000000
0.9606000000 0.3657000000 0.1882000000
0.0182000000 0.3819000000 0.0150000000
0.0174000000 0.3837000000 0.0134000000
0.0166000000 0.3857000000 0.0118000000
0.0150000000 0.3878000000 0.0102000000
0.0142000000 0.3892000000 0.0094000000
0.0174000000 0.3864000000 0.0086000000
0.0221000000 0.3807000000 0.0094000000
0.0269000000 0.3742000000 0.0093000000
0.0301000000 0.3685000000 0.0109000000
0.0389000000 0.3644000000 0.0125000000
0.0576000000 0.3603000000 0.0140000000
0.0952000000 0.3566000000 0.0146000000
0.1501000000 0.3552000000 0.0112000000
0.2138000000 0.3554000000 0.0005000000
0.2827000000 0.3527000000 0.0074000000
0.3399000000 0.3517000000 0.0031000000
0.3971000000 0.3519000000 -0.0004000000
0.4547000000 0.3522000000 -0.0007000000
0.5133000000 0.3524000000 -0.0011000000
0.5725000000 0.3531000000 -0.0007000000
0.6371000000 0.3512000000 0.0208000000
0.6921000000 0.3512000000 0.0414000000
0.7384000000 0.3530000000 0.0607000000
0.7779000000 0.3559000000 0.0785000000
0.8117000000 0.3599000000 0.0955000000
0.8414000000 0.3641000000 0.1120000000
0.8685000000 0.3684000000 0.1269000000
0.8937000000 0.3725000000 0.1403000000
0.9173000000 0.3766000000 0.1531000000
0.9389000000 0.3806000000 0.1646000000
0.9557000000 0.3850000000 0.1759000000
0.9647000000 0.3907000000 0.1887000000
0.9676000000 0.3974000000 0.2028000000
0.0292000000 0.4367000000 0.0199000000
0.0308000000 0.4385000000 0.0183000000
0.0315000000 0.4405000000 0.0168000000
0.0315000000 0.4430000000 0.0144000000
0.0315000000 0.4450000000 0.0128000000
0.0331000000 0.4435000000 0.0120000000
0.0355000000 0.4383000000 0.0119000000
0.0323000000 0.4314000000 0.0111000000
0.0316000000 0.4246000000 0.0103000000
0.0379000000 0.4188000000 0.0103000000
0.0575000000 0.4141000000 0.0110000000
0.0934000000 0.4096000000 0.0116000000
0.1431000000 0.4068000000 0.0098000000
0.2016000000 0.4063000000 0.0024000000
0.2622000000 0.4057000000 0.0005000000
0.3264000000 0.4036000000 0.0042000000
0.3891000000 0.4028000000 -0.0001000000
0.4511000000 0.4030000000 -0.0005000000
0.5143000000 0.4033000000 -0.0008000000
0.5770000000 0.4040000000 -0.0012000000
0.6344000000 0.4054000000 -0.0015000000
0.6917000000 0.4050000000 0.0119000000
0.7431000000 0.4046000000 0.0371000000
0.7862000000 0.4061000000 0.0617000000
0.8228000000 0.4085000000 0.0869000000
0.8547000000 0.4118000000 0.1106000000
0.8832000000 0.4152000000 0.1316000000
0.9092000000 0.4189000000 0.1495000000
0.9331000000 0.4226000000 0.1654000000
0.9546000000 0.4263000000 0.1799000000
0.9710000000 0.4300000000 0.1932000000
0.9793000000 0.4345000000 0.2069000000
0.9812000000 0.4394000000 0.2212000000
0.0163000000 0.4984000000 0.0130000000
0.0147000000 0.5005000000 0.0115000000
0.0138000000 0.5027000000 0.0091000000
0.0146000000 0.5053000000 0.0075000000
0.0178000000 0.5077000000 0.0059000000
0.0186000000 0.5073000000 0.0043000000
0.0170000000 0.5032000000 0.0027000000
0.0210000000 0.4963000000 0.0034000000
0.0282000000 0.4885000000 0.0050000000
0.0393000000 0.4812000000 0.0065000000
0.0548000000 0.4756000000 0.0088000000
0.0794000000 0.4707000000 0.0103000000
0.1229000000 0.4664000000 0.0101000000
0.1816000000 0.4637000000 0.0059000000
0.2469000000 0.4631000000 0.0008000000
0.3165000000 0.4618000000 0.0005000000
0.3816000000 0.4600000000 0.0002000000
0.4449000000 0.4594000000 -0.0001000000
0.5112000000 0.4594000000 -0.0005000000
0.5774000000 0.4599000000 -0.0009000000
0.6388000000 0.4608000000 -0.0012000000
0.6920000000 0.4624000000 -0.0015000000
0.7378000000 0.4645000000 0.0154000000
0.7859000000 0.4641000000 0.0434000000
0.8271000000 0.4649000000 0.0725000000
0.8629000000 0.4665000000 0.1006000000
0.8950000000 0.4684000000 0.1260000000
0.9238000000 0.4709000000 0.1483000000
0.9496000000 0.4737000000 0.1687000000
0.9722000000 0.4768000000 0.1872000000
0.9891000000 0.4802000000 0.2035000000
0.9972000000 0.4841000000 0.2195000000
0.9987000000 0.4885000000 0.2353000000
0.0764000000 0.5603000000 0.0361000000
0.0783000000 0.5621000000 0.0346000000
0.0802000000 0.5642000000 0.0330000000
0.0821000000 0.5665000000 0.0306000000
0.0844000000 0.5688000000 0.0290000000
0.0857000000 0.5695000000 0.0266000000
0.0857000000 0.5667000000 0.0250000000
0.0844000000 0.5607000000 0.0234000000
0.0835000000 0.5533000000 0.0218000000
0.0848000000 0.5458000000 0.0194000000
0.0935000000 0.5392000000 0.0185000000
0.1154000000 0.5337000000 0.0184000000
0.1507000000 0.5289000000 0.0174000000
0.1978000000 0.5255000000 0.0133000000
0.2527000000 0.5241000000 0.0050000000
0.3112000000 0.5235000000 0.0008000000
0.3728000000 0.5221000000 0.0037000000
0.4377000000 0.5203000000 0.0082000000
