luts/gamut 709.cube
TITLE "Gamut V-Log Conversion LUT"
# Version 1.1 - 01/26/2021 - Copyright 2021 Gamut, LLC
# 
LUT_3D_SIZE 5
0.0000000000 0.0007000000 0.0008000000
0.0836000000 0.0051000000 0.0041000000
0.4096000000 0.0223000000 0.0094000000
0.8088000000 0.0695000000 0.0290000000
0.9730000000 0.1727000000 0.1385000000
0.0134000000 0.0843000000 0.0051000000
0.0780000000 0.0776000000 0.0072000000
0.3827000000 0.0674000000 0.0250000000
0.7903000000 0.1238000000 0.0410000000
0.9662000000 0.2598000000 0.1581000000
0.0292000000 0.4367000000 0.0199000000
0.0316000000 0.4246000000 0.0103000000
0.3891000000 0.4028000000 -0.0001000000
0.8228000000 0.4085000000 0.0869000000
0.9812000000 0.4394000000 0.2212000000
0.1255000000 0.8598000000 0.1240000000
0.1544000000 0.8641000000 0.0619000000
0.3560000000 0.8282000000 0.0604000000
0.8211000000 0.8158000000 0.0967000000
0.9968000000 0.8248000000 0.1641000000
0.1238000000 1.0002000000 0.2956000000
0.1731000000 1.0003000000 0.2411000000
0.3144000000 1.0005000000 0.1781000000
0.7940000000 0.9827000000 0.3190000000
0.9827000000 0.9741000000 0.6920000000
0.0017000000 0.0088000000 0.0634000000
0.0951000000 0.0073000000 0.0627000000
0.4219000000 0.0239000000 0.0548000000
0.8234000000 0.0757000000 0.1087000000
0.9857000000 0.1859000000 0.2374000000
0.0097000000 0.0913000000 0.0932000000
0.0827000000 0.0807000000 0.0826000000
0.4368000000 0.0481000000 0.0468000000
0.8238000000 0.1212000000 0.0950000000
0.9779000000 0.2531000000 0.2245000000
0.0106000000 0.4494000000 0.1603000000
0.0255000000 0.4657000000 0.1192000000
0.4204000000 0.4365000000 0.0413000000
0.8261000000 0.3942000000 0.1683000000
0.9675000000 0.4208000000 0.2627000000
0.1183000000 0.8693000000 0.3052000000
0.1549000000 0.8756000000 0.2672000000
0.3411000000 0.8764000000 0.1934000000
0.8338000000 0.8285000000 0.1583000000
0.9971000000 0.8183000000 0.2352000000
0.0907000000 1.0000000000 0.4836000000
0.1544000000 1.0001000000 0.4354000000
0.2841000000 1.0002000000 0.3469000000
0.7974000000 0.9816000000 0.3995000000
0.9828000000 0.9743000000 0.6950000000
0.0085000000 0.0290000000 0.3083000000
0.0999000000 0.0412000000 0.3112000000
0.4567000000 0.0330000000 0.2992000000
0.8460000000 0.0851000000 0.2937000000
1.0000000000 0.2104000000 0.4015000000
0.0173000000 0.1001000000 0.3575000000
0.0325000000 0.0759000000 0.3956000000
0.4665000000 0.0461000000 0.3458000000
0.8520000000 0.1433000000 0.3067000000
0.9958000000 0.2761000000 0.3877000000
0.0003000000 0.4748000000 0.4711000000
0.0003000000 0.4722000000 0.4687000000
0.4003000000 0.4124000000 0.4110000000
0.8705000000 0.3374000000 0.3126000000
0.9851000000 0.3854000000 0.3594000000
0.0785000000 0.8981000000 0.5847000000
0.1168000000 0.8997000000 0.5557000000
0.2537000000 0.9200000000 0.4807000000
0.8644000000 0.8673000000 0.3279000000
0.9978000000 0.8008000000 0.3869000000
0.0175000000 0.9997000000 0.7526000000
0.0762000000 0.9997000000 0.7221000000
0.2151000000 0.9999000000 0.6582000000
0.7821000000 0.9805000000 0.6446000000
0.9834000000 0.9751000000 0.7085000000
0.0235000000 0.0593000000 0.7181000000
0.1006000000 0.0664000000 0.7151000000
0.5197000000 0.0555000000 0.7140000000
0.8853000000 0.1604000000 0.6887000000
1.0001000000 0.2666000000 0.6953000000
0.0219000000 0.1265000000 0.7475000000
0.0628000000 0.1153000000 0.7756000000
0.4909000000 0.1118000000 0.7721000000
0.8874000000 0.2096000000 0.7204000000
1.0001000000 0.3244000000 0.7107000000
0.0603000000 0.4804000000 0.8242000000
0.0922000000 0.4481000000 0.8265000000
0.3588000000 0.3506000000 0.8837000000
0.8936000000 0.3018000000 0.7789000000
1.0000000000 0.4196000000 0.7323000000
0.0743000000 0.9123000000 0.9085000000
0.0992000000 0.9097000000 0.9058000000
0.1561000000 0.9102000000 0.9056000000
0.8243000000 0.8314000000 0.8247000000
1.0001000000 0.7303000000 0.7201000000
0.0014000000 0.9995000000 1.0032000000
0.0617000000 0.9995000000 1.0030000000
0.2034000000 0.9996000000 0.9677000000
0.7073000000 0.9932000000 0.8943000000
0.9936000000 0.9896000000 0.8697000000
0.0517000000 0.1200000000 1.0003000000
0.1627000000 0.1262000000 1.0001000000
0.5716000000 0.1616000000 0.9995000000
0.9192000000 0.2469000000 0.9929000000
1.0004000000 0.3523000000 0.9947000000
0.0892000000 0.2205000000 1.0004000000
0.1360000000 0.2083000000 1.0003000000
0.5176000000 0.2319000000 0.9998000000
0.9104000000 0.2948000000 0.9995000000
1.0003000000 0.4003000000 0.9996000000
0.1020000000 0.4973000000 1.0011000000
0.1517000000 0.4541000000 1.0008000000
0.3878000000 0.3744000000 1.0001000000
0.8821000000 0.3777000000 0.9997000000
1.0002000000 0.4830000000 0.9997000000
0.1046000000 0.9197000000 1.0026000000
0.1605000000 0.9030000000 1.0023000000
0.2706000000 0.8670000000 1.0018000000
0.7745000000 0.7587000000 1.0000000000
1.0002000000 0.6616000000 0.9998000000
0.1575000000 0.9996000000 1.0027000000
0.2217000000 0.9996000000 1.0025000000
0.3581000000 0.9997000000 1.0021000000
0.6578000000 0.9982000000 0.9995000000
1.0000000000 1.0000000000 1.0000000000
