luts/RED_FilmBiasBleachBypass_Rec2020_N-Log_to_Rec709_BT1886.cube
# Development Color Space = REC709
# Output Gamma Curve = BT1886
# Output Tonemap = MEDIUM_CONTRAST
# Highlight Rolloff = Rolloff 3 - soft
# Resolution = 33 x 33 x 33
LUT_3D_SIZE 33
0.0157168 0.0157168 0.0157168
0.0156863 0.0157015 0.0157015
0.0154421 0.0155947 0.0155489
0.0151522 0.0153658 0.0153048
0.0155947 0.0149996 0.0150301
0.0200809 0.0149844 0.015198
0.034638 0.0126497 0.0137484
0.0558938 0.0104982 0.0150607
0.0821698 0.0130159 0.0210727
0.107546 0.0216983 0.0326543
0.135424 0.0260777 0.042359
0.167666 0.0245365 0.0521401
0.208637 0.0365301 0.0659648
0.255482 0.0461738 0.079057
0.311879 0.0466621 0.0940719
0.375219 0.0605631 0.111971
0.444541 0.070634 0.136355
0.517479 0.0834516 0.165072
0.592325 0.103899 0.201114
0.66836 0.131212 0.242908
0.737942 0.158526 0.292393
0.799542 0.201007 0.353979
0.857298 0.252354 0.419837
0.902113 0.317754 0.489754
0.927626 0.401968 0.557687
0.940002 0.483833 0.617594
0.949325 0.554437 0.669276
0.955795 0.615076 0.714992
0.960418 0.669078 0.754864
0.962692 0.717479 0.789151
0.964935 0.758724 0.8168
0.965347 0.792554 0.840238
0.965957 0.820661 0.860227
0.0156863 0.015671 0.0156863
0.0156558 0.015671 0.015671
0.0154269 0.0155642 0.0155337
0.0151522 0.0153353 0.0152895
0.0156405 0.0149996 0.0150301
0.0202029 0.0149691 0.0151675
0.0348058 0.0126345 0.0137026
0.0560922 0.0105592 0.0150454
0.0825818 0.0132448 0.0210269
0.107851 0.021912 0.0327001
0.13576 0.026154 0.0422827
0.168185 0.0245975 0.0521096
0.209171 0.0368658 0.0659495
0.256062 0.0463264 0.0790112
0.312566 0.0469673 0.0940414
0.375921 0.060853 0.111986
0.445258 0.0708171 0.136385
0.51809 0.0837415 0.165118
0.592889 0.104173 0.20116
0.668757 0.131518 0.242985
0.738277 0.158923 0.292454
0.799786 0.201297 0.35407
0.857496 0.252689 0.419928
0.902159 0.318151 0.489845
0.927657 0.402304 0.557748
0.940017 0.484062 0.617639
0.949325 0.554589 0.669306
0.955795 0.615183 0.715007
0.960433 0.669154 0.754879
0.962692 0.71754 0.789166
0.964935 0.75877 0.8168
0.965347 0.792584 0.840238
0.965957 0.820676 0.860227
0.0154574 0.0153811 0.0154269
0.0154421 0.0153658 0.0154269
0.0153048 0.0153353 0.0153658
0.0150912 0.0151522 0.0151522
0.0159915 0.0149996 0.0149996
0.0210117 0.014847 0.0149386
0.0360418 0.0124819 0.0133669
0.0586862 0.0115663 0.0149844
0.0852522 0.0147402 0.0207523
0.110109 0.0233616 0.0331121
0.138323 0.0266575 0.0417487
0.171588 0.0261845 0.0518502
0.212909 0.0388495 0.0658885
0.261372 0.0473793 0.0788434
0.317601 0.0489357 0.0938888
0.380774 0.0627909 0.112108
0.450202 0.0721752 0.136599
0.522255 0.0859236 0.165408
0.59678 0.106065 0.201541
0.67155 0.133593 0.243442
0.740581 0.161624 0.292958
0.801465 0.203326 0.354681
0.858869 0.255055 0.420493
0.902541 0.320897 0.490486
0.927855 0.404608 0.558206
0.940108 0.485649 0.618006
0.949401 0.555688 0.669551
0.95584 0.615961 0.71519
0.960433 0.669734 0.755001
0.962692 0.717952 0.789273
0.964935 0.75903 0.816876
0.965347 0.792798 0.840284
0.965957 0.820829 0.860258
0.0150301 0.0152285 0.0150301
0.0150454 0.0152438 0.0150301
0.0149844 0.0152438 0.0149996
0.0153506 0.0153201 0.0149691
0.0176242 0.0156863 0.0150301
0.0256809 0.0147707 0.0140993
0.0425422 0.0122988 0.0122835
0.0659037 0.0136721 0.0143893
0.0919509 0.0181277 0.0215152
0.116747 0.0282139 0.0349889
0.147433 0.0286107 0.0406958
0.181094 0.0311742 0.0520027
0.223575 0.0438239 0.0670787
0.274983 0.0492714 0.0792554
0.331441 0.0532998 0.0944381
0.394949 0.0689555 0.113054
0.462837 0.075639 0.137209
0.533532 0.0923629 0.166278
0.606897 0.111009 0.202594
0.679164 0.139437 0.244755
0.746563 0.168887 0.294286
0.806668 0.209293 0.35642
0.862501 0.261326 0.422034
0.903517 0.328237 0.492241
0.928389 0.410803 0.559472
0.940383 0.489906 0.618952
0.949584 0.558602 0.670237
0.955947 0.618082 0.715663
0.960433 0.671321 0.755306
0.962722 0.719036 0.789563
0.964935 0.759762 0.81706
0.965316 0.793347 0.840375
0.965942 0.821195 0.860319
0.0151827 0.0175631 0.015259
0.015198 0.0175631 0.015259
0.0152438 0.0176089 0.015259
0.0162356 0.0179446 0.0153506
0.0210117 0.0186618 0.0146792
0.0351568 0.018555 0.0125277
0.056672 0.0187686 0.0105745
0.0813916 0.0207065 0.0144198
0.105531 0.0277714 0.0246128
0.132204 0.0329137 0.0337072
0.163592 0.0349889 0.0389105
0.201831 0.0417639 0.0536812
0.244892 0.0520027 0.0694285
0.298299 0.0542306 0.080766
0.358251 0.0639963 0.0969711
0.419699 0.0762341 0.115877
0.485298 0.0861524 0.139971
0.554772 0.104219 0.169192
0.624781 0.124544 0.204547
0.694087 0.151034 0.247898
0.757458 0.182055 0.297642
0.815671 0.223102 0.359289
0.868955 0.273259 0.424903
0.905531 0.34197 0.495567
0.929397 0.422507 0.561898
0.940902 0.497978 0.620752
0.949935 0.564187 0.67155
0.956176 0.622126 0.716594
0.960449 0.674342 0.755932
0.962753 0.721096 0.790082
0.964935 0.761166 0.817395
0.965286 0.79443 0.840574
0.965942 0.821942 0.860456
0.0123903 0.0311894 0.0150454
0.0124056 0.0312047 0.0150454
0.0128634 0.0315862 0.0149844
0.0174716 0.0329442 0.0151217
0.0282597 0.0355077 0.0157015
0.0479438 0.0380713 0.0161135
0.0737774 0.0390936 0.0145266
0.100313 0.0408637 0.0206455
0.126329 0.0437934 0.0279393
0.155703 0.0474403 0.028809
0.191653 0.0517586 0.0409552
0.232685 0.0589151 0.0594339
0.282185 0.0621653 0.0685283
0.336095 0.0686046 0.0831006
0.396612 0.0796674 0.102434
0.45626 0.0886091 0.122469
0.519509 0.103838 0.146685
0.585275 0.118975 0.176928
0.652613 0.145418 0.211154
0.715526 0.168002 0.254658
0.775067 0.202304 0.304616
0.829267 0.244083 0.363882
0.878111 0.294636 0.430426
0.911406 0.362463 0.500954
0.930968 0.440406 0.565637
0.941726 0.510765 0.623652
0.9505 0.573083 0.673655
0.956512 0.628595 0.718074
0.960479 0.679225 0.756924
0.962798 0.724361 0.790722
0.964935 0.763439 0.817975
0.965225 0.796201 0.840879
0.965927 0.823133 0.860655
0.0144808 0.0610819 0.0251926
0.0148165 0.0612039 0.0252079
0.017319 0.061799 0.0252995
0.0246738 0.0633249 0.025742
0.0380255 0.0661021 0.0251469
0.057496 0.0705577 0.0240024
0.0871443 0.0728771 0.021912
0.115557 0.0747845 0.0213626
0.150011 0.0763714 0.0239109
0.188205 0.074876 0.0315862
0.230381 0.0758068 0.0489509
0.27863 0.0809491 0.0571298
0.330144 0.0863661 0.0694438
0.38761 0.0921492 0.0906844
0.445029 0.103593 0.105821
0.501793 0.117647 0.128603
0.562341 0.130144 0.155566
0.624094 0.149187 0.187793
0.684245 0.169955 0.222843
0.742397 0.19762 0.266423
0.797559 0.230137 0.317327
0.846601 0.27129 0.374578
0.889555 0.325765 0.442374
0.918685 0.390234 0.509285
0.933333 0.463401 0.571008
0.94316 0.529213 0.627222
0.95111 0.586343 0.676463
0.956771 0.638239 0.72018
0.96051 0.686244 0.758373
0.96289 0.729107 0.791669
0.96492 0.766766 0.818799
0.965133 0.798779 0.841321
0.965881 0.824796 0.860975
0.0037995 0.0950332 0.0214542
0.0037995 0.09514 0.0213779
0.00383001 0.0957961 0.0208591
0.00682078 0.0977646 0.0196994
0.0244602 0.100664 0.0187533
0.0606241 0.103578 0.0214542
0.0935836 0.108659 0.0282902
0.131594 0.112612 0.0374151
0.171374 0.115221 0.041062
0.218891 0.115633 0.0415351
0.274846 0.115663 0.0478218
0.330571 0.117571 0.0602884
0.388586 0.122927 0.0766918
0.445853 0.131807 0.0910964
0.500465 0.142977 0.112718
0.55433 0.154925 0.136141
0.610178 0.171328 0.166537
0.668421 0.189258 0.199161
0.720851 0.211048 0.237888
0.771832 0.236042 0.281437
0.822385 0.26865 0.334585
0.866697 0.309865 0.393042
0.902907 0.362432 0.458122
0.921859 0.426123 0.523018
0.936019 0.491035 0.580728
0.944717 0.549859 0.632837
0.952056 0.60296 0.680125
0.957214 0.651621 0.722469
0.960647 0.695796 0.760159
0.962982 0.73547 0.79295
0.964767 0.771328 0.819928
0.965011 0.802213 0.841932
0.965743 0.827039 0.861418
0.0041352 0.132235 0.0395666
0.00424201 0.132403 0.0395209
0.00494392 0.13344 0.0392462
0.0065919 0.135576 0.0387884
0.00985733 0.139971 0.0384375
0.0375982 0.14435 0.0426947
0.0870222 0.149279 0.0499275
0.142794 0.156527 0.0570687
0.192538 0.163378 0.0606851
0.248402 0.16817 0.0603799
0.30927 0.171969 0.064744
0.3785 0.174121 0.0705119
0.441474 0.179416 0.0809339
0.501625 0.186313 0.099733
0.557229 0.194858 0.121141
0.609003 0.205509 0.146685
0.661646 0.22179 0.177981
0.710979 0.240284 0.213993
0.757168 0.263005 0.255543
0.8038 0.289082 0.301366
0.848753 0.318441 0.354986
0.884764 0.359915 0.417243
0.908965 0.411765 0.479973
0.925322 0.46952 0.53933
0.937667 0.524025 0.592889
0.946029 0.573678 0.642878
0.952728 0.621683 0.686671
0.957839 0.666651 0.725719
0.960906 0.708019 0.762173
0.963241 0.743954 0.794232
0.964584 0.776959 0.821256
0.964965 0.80592 0.842847
0.965576 0.829923 0.862013
0.00602731 0.180133 0.0584421
0.00608835 0.180285 0.0584115
0.00650034 0.181384 0.0581216
0.00741588 0.184985 0.0575875
0.0123903 0.190585 0.057023
0.0335699 0.198108 0.057557
0.0790875 0.204364 0.0625162
0.139391 0.211597 0.0690776
0.209918 0.221637 0.0776379
0.271733 0.231235 0.0854047
0.342763 0.238132 0.0901503
0.413535 0.244068 0.0914626
0.484611 0.248951 0.104891
0.548684 0.255009 0.11371
0.607553 0.261585 0.138384
0.659373 0.270329 0.164401
0.70602 0.283742 0.19382
0.751049 0.302037 0.231037
0.794842 0.322621 0.272923
0.834791 0.35021 0.324193
0.866743 0.385321 0.384344
0.896071 0.422843 0.444877
0.915099 0.468864 0.504814
0.928527 0.512154 0.55845
0.939269 0.55787 0.608316
0.947402 0.602914 0.65359
0.952758 0.643351 0.695689
0.95819 0.682857 0.732403
0.960922 0.720699 0.765682
0.963546 0.754269 0.795743
0.964431 0.783841 0.822614
0.964965 0.810651 0.843809
0.965362 0.833494 0.862745
0.0040589 0.241871 0.0712291
0.00407416 0.2421 0.0711528
0.00418097 0.243687 0.0706035
0.00445563 0.247395 0.0690013
0.00866712 0.255009 0.066865
0.0229496 0.264668 0.0653544
0.0784466 0.273259 0.0692302
0.143877 0.281575 0.075288
0.210925 0.291463 0.0896925
0.292119 0.302358 0.108537
0.369848 0.31516 0.122393
0.446845 0.322835 0.127855
0.517281 0.331563 0.135271
0.584939 0.337499 0.146685
0.647532 0.343221 0.160586
0.697032 0.350912 0.186633
0.743801 0.360037 0.214878
0.787884 0.374151 0.252598
0.826886 0.393362 0.297627
0.860624 0.418173 0.350668
0.884535 0.449912 0.413962
0.902419 0.487694 0.474266
0.917159 0.522927 0.528283
0.930526 0.559289 0.579065
0.939681 0.595834 0.625635
0.947707 0.63064 0.667002
0.952941 0.667918 0.705409
0.957992 0.701213 0.740475
0.960723 0.734112 0.771511
0.963394 0.765621 0.799344
0.964233 0.791974 0.824018
0.964996 0.816358 0.844877
0.965194 0.837995 0.863401
0.00437934 0.31487 0.0933547
0.0043946 0.315114 0.0933242
0.00448615 0.317128 0.0933089
0.00469978 0.322148 0.0935531
0.00708019 0.330098 0.0933852
0.0121309 0.341772 0.092668
0.0449989 0.355032 0.0929732
0.1355 0.363928 0.105043
0.217853 0.374868 0.116701
0.293751 0.38436 0.135103
0.38909 0.396841 0.160128
0.472648 0.410605 0.178622
0.547692 0.419547 0.187961
0.612451 0.426322 0.194217
0.672999 0.432959 0.204471
0.724483 0.438605 0.223087
0.771832 0.447303 0.251575
0.810101 0.457267 0.290791
0.843275 0.473182 0.33785
0.870985 0.494743 0.393484
0.891096 0.518853 0.448631
0.907393 0.546258 0.502937
0.919448 0.574899 0.554833
0.930343 0.603876 0.599664
0.939727 0.633005 0.642863
0.947066 0.66273 0.681376
0.953048 0.691035 0.716655
0.957488 0.721477 0.749035
0.960388 0.749386 0.778637
0.962707 0.775982 0.804166
0.963684 0.801144 0.8271
0.964843 0.822354 0.846662
0.965087 0.842634 0.864286
0.00486763 0.397833 0.130175
0.00491341 0.398077 0.130205
0.0052491 0.399863 0.130465
0.00619516 0.404425 0.131029
0.00842298 0.412634 0.13225
0.0165866 0.424094 0.134554
0.0363012 0.438331 0.136904
0.100832 0.45034 0.144854
0.211139 0.459403 0.157153
0.304143 0.469062 0.172
0.389532 0.476173 0.19237
0.487144 0.48893 0.221637
0.565713 0.500526 0.243503
0.631708 0.508766 0.256214
0.689876 0.515328 0.265019
0.740383 0.522072 0.278614
0.784924 0.52842 0.303929
0.821195 0.536797 0.343923
0.851621 0.546502 0.389181
0.875456 0.561761 0.436881
0.895399 0.578286 0.485496
0.910002 0.598642 0.533928
0.922606 0.621012 0.577783
0.931334 0.644404 0.6215
0.939757 0.669245 0.659785
0.946319 0.692638 0.695872
0.952407 0.717205 0.728496
0.956649 0.740978 0.758816
0.959518 0.765591 0.785992
0.961837 0.787778 0.809934
0.963195 0.810269 0.830701
0.964416 0.828946 0.849744
0.964797 0.847578 0.866041
0.00561532 0.479377 0.177264
0.0056611 0.479606 0.177279
0.00602731 0.481147 0.177401
0.00695811 0.485145 0.177722
0.00868238 0.492058 0.178424
0.0174411 0.50193 0.180636
0.0471809 0.514122 0.182742
0.0977188 0.528832 0.183581
0.197757 0.536843 0.19765
0.304738 0.545266 0.212039
0.396582 0.553231 0.231006
0.48307 0.558968 0.254551
0.572412 0.572106 0.296407
0.641199 0.580896 0.326528
0.696452 0.58819 0.349584
0.742779 0.593606 0.364508
0.785519 0.599939 0.382803
0.820142 0.60592 0.411994
0.850721 0.612924 0.448005
0.87657 0.621164 0.484565
0.895445 0.633478 0.523583
0.910964 0.646922 0.56405
0.922515 0.663279 0.602777
0.931151 0.682673 0.64007
0.939086 0.701244 0.676905
0.944671 0.72282 0.709743
0.950896 0.741741 0.740566
0.954864 0.761761 0.768841
0.958679 0.780652 0.793362
0.960891 0.800519 0.81619
0.962722 0.818799 0.835004
0.963928 0.83621 0.852995
0.964111 0.852735 0.868528
0.00866712 0.552361 0.223972
0.00869764 0.552529 0.224002
0.00891127 0.553719 0.224247
0.00949111 0.556802 0.224903
0.0129397 0.562951 0.226673
0.0201877 0.571435 0.229801
0.0398413 0.582925 0.233768
0.103105 0.595468 0.235309
0.193301 0.605005 0.248829
0.313085 0.610697 0.271061
0.409583 0.618006 0.290242
0.49604 0.623438 0.316899
0.568566 0.627894 0.349493
0.641886 0.63827 0.395346
0.698329 0.644862 0.425681
0.743404 0.650828 0.44683
0.783291 0.655512 0.462119
0.819089 0.660975 0.475959
0.849409 0.665965 0.499657
0.874403 0.672007 0.530175
0.894057 0.67982 0.560876
0.910857 0.690517 0.593729
0.921798 0.70248 0.627588
0.931456 0.715953 0.660349
0.938354 0.731899 0.692012
0.944137 0.747784 0.724025
0.948882 0.764858 0.752453
0.953307 0.781064 0.779461
0.95761 0.79704 0.800992
0.959808 0.812894 0.822141
0.962219 0.827878 0.839673
0.963409 0.844083 0.856321
0.963333 0.858076 0.871183
0.0139315 0.617258 0.27686
0.014023 0.617395 0.276921
0.014725 0.618387 0.277348
0.0165103 0.620981 0.278508
0.0197299 0.625696 0.280705
0.0282444 0.632746 0.284428
0.047776 0.642496 0.289052
0.0906233 0.652949 0.296513
0.191699 0.662608 0.308232
0.317174 0.667384 0.333501
0.426795 0.671519 0.360021
0.511788 0.676936 0.386633
0.577585 0.679561 0.416556
0.638636 0.683207 0.448814
0.696101 0.6916 0.487037
0.742123 0.69662 0.509758
0.781567 0.701869 0.528359
0.81648 0.705852 0.540246
0.846326 0.710674 0.552438
0.872129 0.715511 0.572168
0.890822 0.721218 0.597803
0.907622 0.727886 0.623758
0.920027 0.737438 0.651972
0.930236 0.747356 0.680812
0.937621 0.75874 0.7093
0.943801 0.771572 0.737438
0.947997 0.785687 0.764126
0.952071 0.798917 0.78851
0.955932 0.812589 0.808988
0.958785 0.82472 0.827832
0.961349 0.838026 0.84477
0.962524 0.850889 0.859922
0.962554 0.864057 0.874311
0.0281834 0.674556 0.351827
0.0283665 0.674662 0.351873
0.0296635 0.67538 0.352239
0.0330663 0.677256 0.353216
0.0409705 0.680476 0.357748
0.0551919 0.685313 0.365118
0.0887617 0.692317 0.371389
0.14374 0.699367 0.384741
0.237949 0.707225 0.395377
0.343847 0.713512 0.411795
0.444724 0.716731 0.436057
0.527642 0.720516 0.457908
0.589258 0.724498 0.479377
0.642649 0.726146 0.504677
0.692729 0.728893 0.531563
0.738918 0.736568 0.561013
0.779232 0.740978 0.580621
0.813367 0.745708 0.596765
0.84361 0.749157 0.606882
0.867552 0.753536 0.617243
0.888579 0.758831 0.634302
0.903365 0.764157 0.656641
0.917144 0.769848 0.679118
0.927001 0.777371 0.703288
0.935607 0.785794 0.728344
0.942245 0.794339 0.752178
0.946639 0.80441 0.776654
0.95108 0.816464 0.797375
0.95404 0.826673 0.81825
0.957092 0.83772 0.834257
0.959686 0.848432 0.850645
0.961273 0.858946 0.864103
0.961669 0.870832 0.877852
0.0646525 0.722744 0.435676
0.0650339 0.72282 0.435798
0.0677195 0.723278 0.436683
0.0748302 0.724514 0.439048
0.0879988 0.726802 0.443229
0.107622 0.730343 0.448798
0.155108 0.734844 0.456809
0.222492 0.740185 0.467277
0.300114 0.74612 0.477226
0.382239 0.752605 0.48658
0.469703 0.75697 0.503105
0.543587 0.759579 0.52224
0.604517 0.7626 0.539284
0.651774 0.76556 0.55668
0.695491 0.766354 0.576349
0.735683 0.768124 0.597848
0.77644 0.775372 0.624201
0.810178 0.779293 0.641352
0.839048 0.7832 0.656168
0.864057 0.786145 0.665461
0.883528 0.789532 0.673961
0.900053 0.7944 0.688472
0.913848 0.798871 0.707393
0.924117 0.803555 0.728038
0.933715 0.809461 0.74815
0.939818 0.816373 0.769238
0.945235 0.824338 0.788495
0.950088 0.83154 0.808026
0.952667 0.840879 0.825711
0.955062 0.850355 0.841901
0.958175 0.858869 0.856367
0.959625 0.868467 0.868986
0.960616 0.87747 0.881224
0.143526 0.763119 0.514046
0.144076 0.763165 0.514153
0.147677 0.763485 0.514824
0.156497 0.764324 0.516609
0.172976 0.765896 0.519936
0.19826 0.768368 0.524346
0.242054 0.771756 0.530144
0.299947 0.775799 0.538155
0.364233 0.780377 0.547524
0.428397 0.78558 0.555016
0.493568 0.791211 0.56347
0.561135 0.794217 0.57879
0.618662 0.796445 0.594232
0.664942 0.798733 0.60734
0.702388 0.800778 0.621485
0.738506 0.800641 0.637247
0.773022 0.801862 0.656107
0.808499 0.807996 0.679667
0.834836 0.8121 0.694575
0.860014 0.815061 0.707622
0.879499 0.817502 0.71606
0.896757 0.819883 0.723796
0.909911 0.823621 0.735729
0.921294 0.827756 0.750957
0.931044 0.831479 0.769055
0.937881 0.835996 0.785672
0.94403 0.840864 0.80209
0.948409 0.847547 0.818509
0.951431 0.854505 0.833799
0.954116 0.861952 0.849271
0.956329 0.869963 0.862516
0.9579 0.877562 0.874525
0.959381 0.884627 0.885039
0.229328 0.797162 0.579995
0.229816 0.797192 0.580056
0.23328 0.797452 0.580499
0.243122 0.798169 0.581689
0.261631 0.799512 0.583947
0.289799 0.801236 0.5879
0.32694 0.803571 0.593225
0.373281 0.806516 0.599207
0.42562 0.809903 0.606516
0.481651 0.813565 0.61387
0.532265 0.817853 0.620356
0.58558 0.821454 0.629374
0.635081 0.82359 0.641703
0.678477 0.825727 0.653849
0.716167 0.827222 0.66479
0.744732 0.828367 0.676524
0.77467 0.828153 0.690425
0.804746 0.828992 0.707027
0.833371 0.833707 0.728893
0.856062 0.837415 0.741497
0.875135 0.840726 0.752316
0.893263 0.842496 0.759121
0.907057 0.844266 0.766415
0.919066 0.846906 0.776028
0.927932 0.85037 0.78854
0.935729 0.854276 0.802609
0.942275 0.858213 0.816159
0.946777 0.862287 0.829679
0.950256 0.867323 0.843473
0.953063 0.873426 0.85597
0.955093 0.880064 0.868452
0.95642 0.886122 0.88014
0.957946 0.892531 0.889357
0.333196 0.825711 0.638911
0.333593 0.825727 0.638956
0.336416 0.825895 0.639307
0.344137 0.826368 0.640238
0.359167 0.827298 0.642008
0.382803 0.828748 0.644831
0.415702 0.830793 0.648768
0.450309 0.833082 0.654169
0.488167 0.835401 0.660044
0.531334 0.838132 0.666499
0.576135 0.840864 0.672099
0.615778 0.844007 0.677806
0.655909 0.846113 0.685985
0.695918 0.847501 0.695689
0.728344 0.848966 0.70547
0.758068 0.850401 0.715114
0.780575 0.851728 0.724804
0.80557 0.851347 0.73698
0.831128 0.851545 0.750637
0.854475 0.855207 0.770535
0.874098 0.857877 0.780774
0.889357 0.860914 0.789837
0.904784 0.862913 0.794842
0.916197 0.864683 0.800443
0.925643 0.866758 0.809155
0.933928 0.869337 0.818647
0.939696 0.872526 0.83006
0.944579 0.876112 0.841718
0.948455 0.880491 0.852369
0.951705 0.884657 0.863798
0.95375 0.889052 0.875212
0.955032 0.894438 0.884947
0.956008 0.900053 0.893965
0.440436 0.849073 0.691173
0.440726 0.849088 0.691203
0.442741 0.849195 0.691447
0.448157 0.849515 0.692119
0.458885 0.850141 0.693401
0.475746 0.851087 0.695537
0.498283 0.852399 0.698589
0.524163 0.854002 0.702495
0.552178 0.855924 0.707607
0.583246 0.858152 0.712917
0.618143 0.860334 0.718364
0.653681 0.862409 0.722515
0.682719 0.864561 0.727184
0.713848 0.865797 0.734462
0.74461 0.866682 0.742473
0.769955 0.86775 0.750546
0.791928 0.868803 0.75935
0.812741 0.869703 0.767987
0.831266 0.869627 0.777127
0.851652 0.870253 0.787854
0.872084 0.873686 0.803677
0.888106 0.875853 0.813306
0.902312 0.878233 0.820264
0.913512 0.879973 0.824231
0.924086 0.881636 0.828565
0.931823 0.883879 0.83537
0.937499 0.886381 0.843748
0.942794 0.888533 0.852644
0.947036 0.891096 0.862379
0.949813 0.894179 0.872175
0.952163 0.898222 0.881086
0.953597 0.902647 0.889723
0.955016 0.906477 0.898787
0.535119 0.867613 0.735882
0.535317 0.867613 0.735912
0.536706 0.867689 0.736095
0.540429 0.867872 0.736614
0.546777 0.868193 0.737606
0.556909 0.868788 0.739178
0.571328 0.869612 0.741405
0.590051 0.870665 0.744244
0.612818 0.871916 0.747662
0.637644 0.87332 0.752194
0.662882 0.874968 0.757183
0.688319 0.876753 0.761685
0.714336 0.878767 0.764599
0.734493 0.88072 0.76788
0.757656 0.881758 0.773587
0.781415 0.882475 0.779736
0.802701 0.88336 0.786175
0.819745 0.88423 0.793439
0.836042 0.884993 0.801343
0.853452 0.884672 0.80975
0.869947 0.885206 0.818494
0.887282 0.888502 0.83064
0.900481 0.891051 0.83856
0.911543 0.893004 0.845335
0.922255 0.894179 0.848341
0.929992 0.895659 0.85182
0.936156 0.897414 0.857343
0.941451 0.89929 0.864439
0.945312 0.901534 0.872496
0.948104 0.904463 0.879759
0.950652 0.906798 0.887724
0.952636 0.909377 0.895598
0.953994 0.912413 0.902953
0.611841 0.883101 0.77435
0.611948 0.883116 0.774365
0.612726 0.883162 0.774487
0.614801 0.883314 0.774807
0.618784 0.883589 0.775433
0.625498 0.884062 0.77641
0.635676 0.884611 0.77792
0.648981 0.885328 0.779919
0.665385 0.886244 0.782376
0.683879 0.887221 0.785458
0.704417 0.88835 0.789014
0.72369 0.889677 0.792966
0.741588 0.891005 0.796506
0.759243 0.892363 0.799603
0.777203 0.893782 0.80267
0.793103 0.89485 0.806668
0.811322 0.895903 0.811322
0.828931 0.897017 0.81622
0.843168 0.898085 0.82182
0.85597 0.898817 0.827985
0.870771 0.89839 0.835279
0.885725 0.898482 0.843519
0.899733 0.901106 0.85362
0.911177 0.902876 0.860029
0.92015 0.904845 0.865827
0.927825 0.906172 0.868803
0.93434 0.9075 0.871946
0.940185 0.909026 0.87599
0.943969 0.910445 0.881529
0.946975 0.912016 0.888075
0.949645 0.913863 0.894881
0.951568 0.91606 0.901228
0.953124 0.918822 0.907164
0.677241 0.895613 0.80647
0.677333 0.895613 0.806485
0.677989 0.895659 0.806561
0.679759 0.89575 0.80679
0.683024 0.895933 0.807202
0.687526 0.896254 0.807874
0.694102 0.896757 0.80882
0.702266 0.897398 0.810071
0.71252 0.898222 0.811658
0.724758 0.899184 0.813565
0.739208 0.900236 0.815991
0.755032 0.901411 0.818555
0.768963 0.902632 0.821363
0.781674 0.903639 0.823941
0.794278 0.904677 0.826307
0.806943 0.90573 0.828794
0.822995 0.906432 0.832944
0.83714 0.907195 0.837476
0.851392 0.908003 0.841871
0.86302 0.90869 0.846525
0.874922 0.909346 0.851698
0.885878 0.909316 0.857359
0.897902 0.909651 0.863844
0.910369 0.912154 0.873152
0.918837 0.913603 0.87837
0.926589 0.914916 0.882826
0.933303 0.91574 0.885176
0.938521 0.916671 0.887785
0.94258 0.917876 0.891752
0.9458 0.919127 0.896559
0.948608 0.920668 0.901366
0.950622 0.922515 0.906401
0.951934 0.924208 0.911315
0.726925 0.906828 0.831296
0.726986 0.906828 0.831312
0.727382 0.906844 0.831373
0.728496 0.906905 0.831556
0.730602 0.907012 0.831907
0.733989 0.907195 0.832471
0.739147 0.907485 0.83331
0.746212 0.907866 0.834424
0.75407 0.90837 0.835874
0.762142 0.90898 0.837568
0.771298 0.909667 0.839521
0.781689 0.910414 0.841535
0.792752 0.911238 0.843641
0.803891 0.912093 0.845869
0.814404 0.912993 0.847623
0.823972 0.914061 0.849317
0.833555 0.91516 0.851194
0.845853 0.916014 0.854398
0.859266 0.916808 0.85803
0.869886 0.91751 0.86186
0.879301 0.917937 0.866484
0.888518 0.918349 0.871321
0.899077 0.91812 0.87602
0.90898 0.918242 0.881224
0.918349 0.919936 0.888472
0.926207 0.921141 0.893294
0.932006 0.922454 0.897551
0.936965 0.923476 0.899397
0.941161 0.924483 0.901106
0.944472 0.925673 0.903899
0.947417 0.926619 0.907637
0.949508 0.927703 0.911727
0.950607 0.928939 0.916213
0.769055 0.915999 0.853361
0.769085 0.915999 0.853361
0.769329 0.916014 0.853407
0.76997 0.91606 0.853529
0.771221 0.916152 0.853742
0.773236 0.916304 0.854109
0.776226 0.916533 0.854627
0.780468 0.916869 0.855314
0.785885 0.917296 0.856199
0.792493 0.91783 0.857267
0.799847 0.918425 0.858549
0.806973 0.919051 0.860059
0.814176 0.919722 0.861891
0.822461 0.920302 0.863981
0.831357 0.920867 0.866255
0.839429 0.921416 0.868009
0.848371 0.922087 0.86978
