luts/RED_FilmBiasOffset_Rec2020_N-Log_to_Rec709_BT1886.cube
# Development Color Space = REC709
# Output Gamma Curve = BT1886
# Output Tonemap = MEDIUM_CONTRAST
# Highlight Rolloff = Rolloff 3 - soft
# Resolution = 33 x 33 x 33
LUT_3D_SIZE 5
0 0 0
0.171374 0.0104677 0.0297856
0.604837 0.0863355 0.184955
0.869749 0.36611 0.486686
0.961517 0.719326 0.751431
0.00350958 0.218769 0.0165408
0.2766 0.222171 0.0313115
0.717342 0.237034 0.202701
0.888273 0.446586 0.505226
0.962951 0.729946 0.755215
0.00903334 0.63827 0.268238
0.0662699 0.66096 0.241672
0.756497 0.642618 0.356359
0.933135 0.66038 0.572717
0.971603 0.781109 0.776364
0.221302 0.852125 0.569177
0.312535 0.856107 0.565164
0.662684 0.865431 0.566445
0.935271 0.852949 0.678965
0.986648 0.871946 0.816266
0.72401 0.951247 0.780072
0.732906 0.951522 0.780529
0.785962 0.953109 0.78352
0.895705 0.955352 0.799268
0.989563 0.950637 0.869429
0.00434882 0.018616 0.12369
0.222171 0.0117647 0.216602
0.654917 0.0981308 0.311299
0.880491 0.37583 0.523568
0.962982 0.720485 0.754971
0.00350958 0.242313 0.229297
0.234043 0.248646 0.259861
0.73756 0.249134 0.313787
0.896513 0.45565 0.530739
0.96437 0.730922 0.758709
0.00946059 0.642435 0.355276
0.0631266 0.664591 0.337942
0.752438 0.648539 0.412222
0.935332 0.662333 0.588418
0.972366 0.781964 0.778134
0.225895 0.852903 0.581735
0.316075 0.856825 0.578103
0.657618 0.86688 0.577966
0.934722 0.853635 0.684321
0.986999 0.872068 0.817166
0.724437 0.951308 0.781308
0.733318 0.951598 0.781765
0.786145 0.95317 0.784741
0.895582 0.955505 0.800259
0.989563 0.950698 0.869795
0.0249332 0.244083 0.530831
0.187518 0.265431 0.56051
0.721721 0.232578 0.619486
0.910414 0.446265 0.649027
0.971069 0.728923 0.77734
0.0258793 0.353262 0.561593
0.173342 0.363882 0.597086
0.738155 0.342626 0.630426
0.919676 0.498939 0.653513
0.972168 0.738521 0.779706
0.024094 0.659464 0.595956
0.0970016 0.672709 0.606821
0.731441 0.669322 0.619989
0.942687 0.675471 0.657099
0.977157 0.787655 0.790158
0.260563 0.855711 0.653376
0.345266 0.859525 0.651377
0.666209 0.86981 0.649699
0.932555 0.857435 0.713817
0.988876 0.873121 0.824048
0.727626 0.951736 0.789914
0.736263 0.952041 0.790341
0.787411 0.953597 0.79324
0.896193 0.956161 0.808087
0.989532 0.951049 0.872282
0.294881 0.60531 0.780545
0.378363 0.609995 0.787167
0.672129 0.629145 0.80528
0.931838 0.626032 0.812024
0.984955 0.767849 0.836591
0.300587 0.626184 0.783886
0.38378 0.63003 0.790356
0.678325 0.64863 0.805905
0.933028 0.642145 0.813291
0.985595 0.773175 0.8374
0.297276 0.724254 0.791867
0.396689 0.725673 0.797986
0.69604 0.733562 0.813291
0.937026 0.724544 0.81413
0.988815 0.805097 0.841047
0.427955 0.865721 0.786511
0.481727 0.867491 0.787762
0.692119 0.874449 0.79176
0.929976 0.866346 0.807706
0.993027 0.878737 0.847807
0.744732 0.953079 0.824811
0.752621 0.953384 0.824872
0.795422 0.955169 0.825772
0.904692 0.956924 0.838361
0.98999 0.952255 0.882887
0.729885 0.836225 0.909865
0.739193 0.836957 0.910399
0.795895 0.841031 0.912749
0.902358 0.849638 0.91957
0.993576 0.856611 0.918349
0.730724 0.838285 0.909972
0.739986 0.839002 0.910491
0.796536 0.842985 0.912902
0.902861 0.851499 0.919371
0.993637 0.857893 0.918441
0.735805 0.851621 0.910582
0.746197 0.851911 0.911223
0.801938 0.854215 0.914076
0.906172 0.863813 0.918135
0.993988 0.866468 0.919081
0.747921 0.895186 0.910231
0.756848 0.895491 0.910765
0.810224 0.896162 0.913893
0.916228 0.900618 0.916793
0.994171 0.898482 0.919463
0.812619 0.956909 0.897765
0.816495 0.957046 0.897887
0.841382 0.957885 0.898665
0.913619 0.959487 0.903304
0.990539 0.955825 0.918379
