luts/RED_Achromic_Rec2020_N-Log_to_Rec709_BT1886.cube
# Development Color Space = REC709
# Output Gamma Curve = BT1886
# Output Tonemap = MEDIUM_CONTRAST
# Highlight Rolloff = Rolloff 3 - soft
# Resolution = 33 x 33 x 33
LUT_3D_SIZE 33
0 0 0
0 0 0
0 0 0
0 0 0
0 0 0
0 0 0
0.00909438 0.00909438 0.00909438
0.0469215 0.0469215 0.0469215
0.0885786 0.0885939 0.0885939
0.127733 0.127733 0.127733
0.166094 0.166094 0.16611
0.20267 0.20267 0.202686
0.2383 0.2383 0.238331
0.271885 0.271901 0.271916
0.303563 0.303563 0.303593
0.335073 0.335088 0.335103
0.367178 0.367193 0.367224
0.398306 0.398306 0.398352
0.428931 0.428946 0.428977
0.458991 0.459007 0.459037
0.488151 0.488167 0.488197
0.517006 0.517021 0.517052
0.546319 0.546334 0.546365
0.574609 0.574624 0.574655
0.604547 0.604562 0.604593
0.633814 0.633829 0.63386
0.664683 0.664698 0.664744
0.694896 0.694911 0.694957
0.725765 0.72578 0.725811
0.755901 0.755917 0.755947
0.784329 0.784344 0.784375
0.811826 0.811841 0.811872
0.837613 0.837629 0.837659
0 0 0
0 0 0
0 0 0
0 0 0
0 0 0
0 0 0
0.00918593 0.00918593 0.00918593
0.0470893 0.0470893 0.0470893
0.0888685 0.0888838 0.0888838
0.127962 0.127977 0.127977
0.166339 0.166339 0.166354
0.20296 0.202976 0.202991
0.23856 0.23856 0.238575
0.272145 0.27216 0.272175
0.303792 0.303792 0.303822
0.335302 0.335302 0.335332
0.367407 0.367407 0.367437
0.398489 0.398489 0.398535
0.429099 0.429114 0.429145
0.459129 0.459144 0.459174
0.488273 0.488273 0.488319
0.517098 0.517113 0.517143
0.546395 0.54641 0.546441
0.574685 0.574701 0.574731
0.604608 0.604608 0.604654
0.63386 0.633875 0.633921
0.664729 0.664744 0.66479
0.694942 0.694942 0.694987
0.725795 0.725795 0.725841
0.755917 0.755932 0.755978
0.784344 0.78436 0.784405
0.811841 0.811856 0.811887
0.837629 0.837629 0.837674
0 0 0
0 0 0
0 0 0
0 0 0
0 0 0
0 0 0
0.00984207 0.00984207 0.00984207
0.0493935 0.0493935 0.0493935
0.0908217 0.0908217 0.0908217
0.129778 0.129778 0.129793
0.168124 0.168124 0.168139
0.205035 0.205035 0.205051
0.240314 0.240314 0.24033
0.274235 0.274235 0.274266
0.305364 0.305364 0.305394
0.336858 0.336858 0.336889
0.368902 0.368902 0.368933
0.399756 0.399756 0.399786
0.430259 0.430259 0.430304
0.460105 0.460121 0.460151
0.489052 0.489067 0.489097
0.517754 0.517769 0.5178
0.546929 0.546944 0.54699
0.575204 0.575204 0.57525
0.604974 0.60499 0.605035
0.634226 0.634241 0.634287
0.665034 0.665049 0.665095
0.695186 0.695201 0.695232
0.725994 0.726009 0.72604
0.756085 0.7561 0.75613
0.784482 0.784497 0.784527
0.811948 0.811948 0.811994
0.83769 0.837705 0.837736
0 0 0
0 0 0
0 0 0
0 0 0
0 0 0
0 0 0
0.0137789 0.0137789 0.0137789
0.0568551 0.0568551 0.0568551
0.0964675 0.0964675 0.0964675
0.135409 0.135409 0.135424
0.173938 0.173938 0.173953
0.210834 0.210834 0.210849
0.24509 0.245106 0.245121
0.279469 0.279469 0.279484
0.309972 0.309972 0.310002
0.341344 0.34136 0.34139
0.372732 0.372732 0.372763
0.403113 0.403128 0.403159
0.433265 0.433265 0.43331
0.462715 0.46273 0.462776
0.491203 0.491218 0.491249
0.519677 0.519692 0.519722
0.548379 0.548394 0.548424
0.576577 0.576577 0.576623
0.605997 0.606012 0.606058
0.635218 0.635218 0.635264
0.665873 0.665888 0.665919
0.695857 0.695872 0.695918
0.726543 0.726558 0.726604
0.756542 0.756542 0.756588
0.784833 0.784848 0.784894
0.812222 0.812238 0.812268
0.837888 0.837888 0.837934
0 0 0
0 0 0
0 0 0
0 0 0
0 0 0
0.00576791 0.00576791 0.00576791
0.0313725 0.0313725 0.0313725
0.0729229 0.0729229 0.0729229
0.110918 0.110918 0.110933
0.148547 0.148547 0.148562
0.185519 0.185534 0.18555
0.222171 0.222187 0.222202
0.255818 0.255818 0.255848
0.289021 0.289036 0.289052
0.318608 0.318608 0.318639
0.349981 0.349981 0.350011
0.380102 0.380102 0.380148
0.409354 0.409369 0.4094
0.438636 0.438636 0.438682
0.467674 0.467674 0.46772
0.49514 0.495155 0.495201
0.523293 0.523293 0.523339
0.55111 0.55111 0.551156
0.579156 0.579171 0.579202
0.607919 0.607935 0.60798
0.637079 0.637095 0.637125
0.66746 0.66746 0.667506
0.697169 0.697169 0.697215
0.727611 0.727611 0.727657
0.757458 0.757473 0.757504
0.785534 0.785534 0.78558
0.812757 0.812772 0.812802
0.838254 0.838254 0.8383
0.00520333 0.00520333 0.00520333
0.00520333 0.00520333 0.00520333
0.00526436 0.00526436 0.00526436
0.00546273 0.00546273 0.00546273
0.0107271 0.0107271 0.0107271
0.0306249 0.0306249 0.0306401
0.0651102 0.0651102 0.0651255
0.0986801 0.0986801 0.0986954
0.134035 0.134051 0.134051
0.170489 0.170489 0.170504
0.205539 0.205554 0.20557
0.239567 0.239567 0.239597
0.272969 0.272984 0.272999
0.303578 0.303593 0.303609
0.33341 0.33341 0.33344
0.362722 0.362737 0.362768
0.391135 0.39115 0.39118
0.41912 0.419135 0.419165
0.447196 0.447211 0.447242
0.474556 0.474556 0.474601
0.501305 0.501305 0.50135
0.528756 0.528771 0.528801
0.555596 0.555611 0.555657
0.583185 0.5832 0.58323
0.611368 0.611383 0.611429
0.640024 0.64004 0.64007
0.669978 0.669978 0.670024
0.699245 0.69926 0.69929
0.729305 0.72932 0.729366
0.758984 0.758999 0.75903
0.786648 0.786648 0.786694
0.813626 0.813626 0.813672
0.838849 0.838865 0.838895
0.0518196 0.0518196 0.0518196
0.0518349 0.0518349 0.0518349
0.0519875 0.0519875 0.0519875
0.0525673 0.0525673 0.0525673
0.0571756 0.0571756 0.0571756
0.0775616 0.0775616 0.0775616
0.103456 0.103456 0.103471
0.13341 0.13341 0.133425
0.16643 0.166445 0.166445
0.19913 0.19913 0.199145
0.2318 0.231815 0.23183
0.263844 0.263844 0.263874
0.294957 0.294972 0.294987
0.323537 0.323537 0.323568
0.352575 0.352575 0.352605
0.379355 0.37937 0.3794
0.405982 0.405982 0.406027
0.432044 0.432059 0.43209
0.458412 0.458427 0.458457
0.484245 0.48426 0.484291
0.509834 0.50985 0.509896
0.536187 0.536202 0.536233
0.56202 0.562036 0.562081
0.588678 0.588693 0.588739
0.616159 0.616175 0.61622
0.644053 0.644068 0.644114
0.673518 0.673518 0.673564
0.702342 0.702358 0.702388
0.731762 0.731777 0.731823
0.760952 0.760967 0.761013
0.788266 0.788281 0.788312
0.814893 0.814908 0.814939
0.83978 0.839796 0.839826
0.108263 0.108263 0.108278
0.108278 0.108278 0.108293
0.10837 0.108385 0.108385
0.108629 0.108644 0.108644
0.110262 0.110262 0.110262
0.124086 0.124102 0.124102
0.146593 0.146593 0.146609
0.174166 0.174182 0.174182
0.203281 0.203281 0.203296
0.233219 0.233234 0.233249
0.262654 0.262654 0.262684
0.292546 0.292546 0.292576
0.320424 0.320424 0.320455
0.348577 0.348577 0.348608
0.374762 0.374777 0.374807
0.398962 0.398962 0.399008
0.423423 0.423438 0.423468
0.447532 0.447547 0.447593
0.472358 0.472374 0.472404
0.495933 0.495949 0.495979
0.520592 0.520607 0.520638
0.545602 0.545617 0.545663
0.569955 0.569955 0.570001
0.596399 0.596414 0.59646
0.622232 0.622232 0.622278
0.650004 0.650019 0.65005
0.67808 0.678096 0.678126
0.706752 0.706767 0.706813
0.735027 0.735027 0.735073
0.763607 0.763622 0.763653
0.790463 0.790478 0.790509
0.816617 0.816632 0.816663
0.841077 0.841093 0.841123
0.163287 0.163287 0.163302
0.163302 0.163302 0.163317
0.163363 0.163378 0.163378
0.163561 0.163561 0.163577
0.164157 0.164172 0.164172
0.172793 0.172793 0.172808
0.192233 0.192248 0.192248
0.217014 0.217029 0.217044
0.242329 0.242329 0.242359
0.269673 0.269688 0.269703
0.296376 0.296376 0.296407
0.322866 0.322866 0.322896
0.350195 0.350195 0.350225
0.375219 0.375219 0.375265
0.398459 0.398474 0.398505
0.42034 0.420356 0.420386
0.442649 0.442664 0.442695
0.465202 0.465217 0.465263
0.487327 0.487343 0.487388
0.509728 0.509743 0.509789
0.533181 0.533196 0.533227
0.55613 0.556146 0.556176
0.580041 0.580056 0.580087
0.605325 0.605325 0.605371
0.629923 0.629923 0.629969
0.657282 0.657298 0.657343
0.683772 0.683772 0.683818
0.712215 0.71223 0.712261
0.739101 0.739116 0.739147
0.766949 0.766964 0.766995
0.793408 0.793423 0.793454
0.81883 0.818845 0.818875
0.842756 0.842771 0.842802
0.216403 0.216419 0.216434
0.216419 0.216419 0.216434
0.216464 0.21648 0.216495
0.216617 0.216617 0.216632
0.216892 0.216907 0.216922
0.221714 0.221729 0.221744
0.238148 0.238148 0.238178
0.259144 0.259144 0.259174
0.282719 0.282734 0.28275
0.306218 0.306233 0.306249
0.330678 0.330694 0.330724
0.355596 0.355596 0.355627
0.379629 0.379629 0.379675
0.401892 0.401907 0.401938
0.422446 0.422461 0.422492
0.442557 0.442557 0.442603
0.462882 0.462898 0.462943
0.483085 0.483101 0.483131
0.503532 0.503548 0.503594
0.525017 0.525032 0.525063
0.546807 0.546822 0.546853
0.568246 0.568246 0.568292
0.591165 0.59118 0.591211
0.615106 0.615122 0.615167
0.639094 0.639109 0.639155
0.665095 0.66511 0.665156
0.691157 0.691173 0.691203
0.718013 0.718013 0.718059
0.744518 0.744518 0.744564
0.770977 0.770993 0.771023
0.797162 0.797162 0.797208
0.821546 0.821561 0.821591
0.844831 0.844846 0.844877
0.26569 0.26569 0.265705
0.26569 0.265705 0.265721
0.265736 0.265736 0.265766
0.265843 0.265843 0.265873
0.266056 0.266072 0.266087
0.267918 0.267933 0.267948
0.282124 0.282124 0.282155
0.300435 0.30045 0.300481
0.320562 0.320577 0.320607
0.343313 0.343328 0.343359
0.365484 0.365484 0.365515
0.386908 0.386908 0.386954
0.407797 0.407813 0.407843
0.427771 0.427787 0.427817
0.446265 0.446281 0.446311
0.464897 0.464897 0.464942
0.482872 0.482887 0.482918
0.501427 0.501427 0.501472
0.520729 0.520745 0.520775
0.541039 0.541054 0.541085
0.560769 0.560784 0.56083
0.581613 0.581628 0.581674
0.604044 0.604059 0.604105
0.625803 0.625818 0.625849
0.649363 0.649363 0.649409
0.674174 0.674189 0.674235
0.699229 0.699245 0.69929
0.724666 0.724681 0.724727
0.750698 0.750713 0.750744
0.775662 0.775677 0.775708
0.801083 0.801099 0.801129
0.82475 0.824765 0.824796
0.847318 0.847333 0.847364
0.311162 0.311177 0.311192
0.311162 0.311177 0.311208
0.311192 0.311208 0.311238
0.311269 0.311284 0.311315
0.311421 0.311437 0.311452
0.313909 0.313924 0.313954
0.323278 0.323293 0.323323
0.340154 0.340154 0.340185
0.35874 0.358755 0.358785
0.378347 0.378363 0.378393
0.39765 0.39765 0.397696
0.416403 0.416403 0.416449
0.434623 0.434638 0.434669
0.452796 0.452811 0.452842
0.469993 0.469993 0.470039
0.485939 0.485939 0.485985
0.502724 0.502739 0.502785
0.520241 0.520256 0.520287
0.538811 0.538827 0.538857
0.556542 0.556558 0.556603
0.575525 0.57554 0.575586
0.595621 0.595621 0.595666
0.616373 0.616373 0.616419
0.63798 0.637995 0.638041
0.66099 0.66099 0.661036
0.683726 0.683726 0.683772
0.708431 0.708446 0.708492
0.732326 0.732341 0.732372
0.757488 0.757504 0.757534
0.781415 0.78143 0.78146
0.805386 0.805402 0.805432
0.828748 0.828763 0.828794
0.850202 0.850202 0.850233
0.355016 0.355032 0.355062
0.355032 0.355032 0.355062
0.355047 0.355062 0.355093
0.355123 0.355123 0.355154
0.355261 0.355261 0.355291
0.355474 0.355474 0.355505
0.364935 0.36495 0.364981
0.378271 0.378286 0.378317
0.393988 0.393988 0.394018
0.4103 0.4103 0.410346
0.4271 0.427115 0.427146
0.444007 0.444022 0.444068
0.460655 0.46067 0.4607
0.476417 0.476432 0.476478
0.491646 0.491661 0.491691
0.506569 0.506584 0.50663
0.522423 0.522438 0.522484
0.53933 0.539345 0.539376
0.55552 0.55552 0.555566
0.572671 0.572686 0.572732
0.591302 0.591318 0.591363
0.61033 0.610346 0.610376
0.629618 0.629618 0.629664
0.650477 0.650492 0.650523
0.672068 0.672084 0.672129
0.69453 0.694545 0.694591
0.718013 0.718029 0.718074
0.740459 0.740459 0.740505
0.764492 0.764508 0.764538
0.787655 0.787671 0.787701
0.810147 0.810162 0.810193
0.833082 0.833097 0.833127
0.853437 0.853452 0.853483
0.392874 0.392889 0.39292
0.392874 0.392889 0.39292
0.392905 0.392905 0.39295
0.39295 0.392966 0.392996
0.393042 0.393057 0.393088
0.394324 0.394324 0.394369
0.399542 0.399558 0.399588
0.411322 0.411337 0.411368
0.424918 0.424918 0.424964
0.439506 0.439521 0.439551
0.454597 0.454612 0.454658
0.469596 0.469612 0.469657
0.484184 0.484199 0.48423
0.498527 0.498543 0.498573
0.512627 0.512627 0.512673
0.52694 0.52694 0.526986
0.541726 0.541741 0.541772
0.556558 0.556558 0.556603
0.572122 0.572137 0.572168
0.588861 0.588861 0.588907
0.606897 0.606912 0.606958
0.624521 0.624521 0.624567
0.643641 0.643641 0.643687
0.664271 0.664286 0.664317
0.683986 0.684001 0.684031
0.705776 0.705791 0.705821
0.727352 0.727367 0.727413
0.74963 0.749645 0.749676
0.771908 0.771923 0.771954
0.794293 0.794308 0.794354
0.815732 0.815732 0.815778
0.837217 0.837232 0.837263
0.85716 0.857176 0.857206
0.426474 0.42649 0.42652
0.426474 0.42649 0.42652
0.42649 0.426505 0.426535
0.426535 0.426535 0.426581
0.426596 0.426612 0.426642
0.427863 0.427878 0.427909
0.431907 0.431922 0.431952
0.442206 0.442222 0.442252
0.454063 0.454078 0.454108
0.46688 0.466896 0.466941
0.479912 0.479927 0.479957
0.493111 0.493111 0.493156
0.506432 0.506447 0.506493
0.520012 0.520012 0.520058
0.533516 0.533532 0.533562
0.546517 0.546532 0.546563
0.559716 0.559731 0.559762
0.574151 0.574151 0.574197
0.589502 0.589517 0.589563
0.605722 0.605737 0.605768
0.621866 0.621881 0.621912
0.639048 0.639063 0.639109
0.657877 0.657877 0.657923
0.676555 0.67657 0.6766
0.696269 0.696284 0.696315
0.717327 0.717342 0.717388
0.737636 0.737652 0.737697
0.759121 0.759136 0.759167
0.779568 0.779583 0.779614
0.801328 0.801328 0.801373
0.821637 0.821637 0.821683
0.841642 0.841657 0.841688
0.861311 0.861326 0.861357
0.457298 0.457313 0.457359
0.457313 0.457313 0.457359
0.457313 0.457328 0.457359
0.457343 0.457359 0.457389
0.457404 0.45742 0.45745
0.45864 0.45864 0.458686
0.463584 0.4636 0.46363
0.470939 0.470939 0.470985
0.480735 0.480751 0.480797
0.491814 0.491829 0.491859
0.503502 0.503517 0.503548
0.515602 0.515618 0.515663
0.528328 0.528344 0.528374
0.540978 0.540993 0.541024
0.552666 0.552682 0.552728
0.564752 0.564767 0.564813
0.577585 0.577585 0.57763
0.591745 0.59176 0.591791
0.606638 0.606653 0.606683
0.621195 0.621195 0.621241
0.637324 0.637324 0.637369
0.654444 0.654459 0.65449
0.671962 0.671977 0.672007
0.690059 0.690074 0.690105
0.709239 0.709255 0.7093
0.728237 0.728252 0.728283
0.747951 0.747951 0.747997
0.767956 0.767956 0.768002
0.78819 0.788205 0.788235
0.808164 0.808164 0.808209
0.827832 0.827848 0.827878
0.846677 0.846693 0.846723
0.865202 0.865217 0.865248
0.486259 0.486259 0.486305
0.486259 0.486275 0.486305
0.486259 0.486275 0.48632
0.48629 0.486305 0.486336
0.48658 0.486595 0.486641
0.487068 0.487083 0.487129
0.490639 0.490654 0.490684
0.498146 0.498161 0.498207
0.507118 0.507134 0.507179
0.517067 0.517082 0.517113
0.527977 0.527993 0.528038
0.539437 0.539452 0.539498
0.550317 0.550317 0.550362
0.561486 0.561502 0.561547
0.572671 0.572686 0.572732
0.584497 0.584512 0.584543
0.597055 0.597055 0.597101
0.610254 0.610269 0.6103
0.623652 0.623667 0.623713
0.638041 0.638056 0.638086
0.653941 0.653956 0.654002
0.669902 0.669902 0.669947
0.686366 0.686381 0.686412
0.704356 0.704372 0.704402
0.722255 0.722271 0.722316
0.74049 0.740505 0.740551
0.759869 0.759884 0.75993
0.777951 0.777966 0.778012
0.797543 0.797559 0.797589
0.815747 0.815747 0.815793
0.83476 0.834775 0.834806
0.852384 0.852384 0.85243
0.869627 0.869627 0.869673
0.51487 0.514885 0.514916
0.514885 0.514885 0.514931
0.514931 0.514946 0.514977
0.515084 0.515084 0.515129
0.515343 0.515358 0.515404
0.515953 0.515969 0.515999
0.519661 0.519677 0.519722
0.526329 0.526345 0.526375
0.534447 0.534463 0.534493
0.543191 0.543206 0.543236
0.552453 0.552468 0.552514
0.56228 0.562295 0.562325
0.57258 0.57258 0.572625
0.583413 0.583413 0.583459
0.594202 0.594202 0.594247
0.605646 0.605661 0.605707
0.616785 0.6168 0.616846
0.629068 0.629084 0.629114
0.642512 0.642527 0.642557
0.656733 0.656748 0.656779
0.67155 0.671565 0.671611
0.686488 0.686503 0.686549
0.70277 0.702785 0.702815
0.719615 0.719631 0.719676
0.736004 0.736019 0.736049
0.753811 0.753811 0.753857
0.771038 0.771054 0.771084
0.788846 0.788861 0.788891
0.806806 0.806806 0.806851
0.824582 0.824598 0.824628
0.841688 0.841688 0.841733
0.858701 0.858717 0.858747
0.87483 0.87483 0.874861
0.543297 0.543297 0.543343
0.543297 0.543313 0.543343
0.543404 0.54342 0.54345
0.543984 0.543984 0.54403
0.545052 0.545068 0.545098
0.5467 0.546715 0.546761
0.548959 0.548959 0.549004
0.55404 0.554055 0.554101
0.560632 0.560647 0.560678
0.568368 0.568383 0.568414
0.576837 0.576852 0.576898
0.586282 0.586297 0.586328
0.595987 0.596002 0.596033
0.606271 0.606287 0.606332
0.615808 0.615808 0.615854
0.625925 0.62594 0.625986
0.636942 0.636957 0.637003
0.649012 0.649027 0.649073
0.662364 0.662379 0.662425
0.674983 0.674998 0.675044
0.689113 0.689113 0.689158
0.704082 0.704097 0.704143
0.719371 0.719387 0.719432
0.734768 0.734768 0.734813
0.751019 0.751034 0.75108
0.767346 0.767346 0.767391
0.783764 0.78378 0.78381
0.800702 0.800717 0.800748
0.816861 0.816876 0.816907
0.833814 0.833814 0.83386
0.849348 0.849363 0.849393
0.865415 0.865415 0.865461
0.88069 0.88069 0.88072
0.57055 0.570565 0.570596
0.57055 0.570565 0.570611
0.570611 0.570611 0.570657
0.571084 0.571084 0.57113
0.571969 0.571984 0.572015
0.573632 0.573632 0.573678
0.577447 0.577447 0.577493
0.582284 0.582284 0.58233
0.588327 0.588342 0.588388
0.59556 0.595575 0.595605
0.603571 0.603571 0.603616
0.611749 0.611765 0.611811
0.620264 0.620279 0.620325
0.629358 0.629358 0.629404
0.638804 0.638819 0.638849
0.648676 0.648692 0.648737
0.659632 0.659648 0.659678
0.670451 0.670466 0.670512
0.682216 0.682231 0.682261
0.694667 0.694667 0.694713
0.708598 0.708614 0.708644
0.722148 0.722164 0.722194
0.736049 0.736065 0.736095
0.751141 0.751141 0.751186
0.766018 0.766033 0.766064
0.781003 0.781018 0.781048
0.797162 0.797177 0.797208
0.812085 0.8121 0.812131
0.82797 0.827985 0.828016
0.842908 0.842924 0.842954
0.858015 0.858015 0.858045
0.872374 0.872389 0.872419
0.886992 0.886992 0.887022
0.599985 0.6 0.600031
0.6 0.600015 0.600046
0.600122 0.600137 0.600183
0.600641 0.600656 0.600702
0.602121 0.602136 0.602167
0.604425 0.60444 0.604471
0.607324 0.60734 0.607385
0.611368 0.611383 0.611429
0.616541 0.616556 0.616587
0.622324 0.622339 0.622385
0.629465 0.629465 0.629511
0.636912 0.636927 0.636973
0.645396 0.645411 0.645441
0.653956 0.653971 0.654017
0.663264 0.663279 0.66331
0.671687 0.671687 0.671733
0.681437 0.681453 0.681483
0.691707 0.691722 0.691768
0.703441 0.703456 0.703487
0.715541 0.715541 0.715587
0.72755 0.727565 0.727596
0.740398 0.740414 0.740444
0.754086 0.754086 0.754131
0.767742 0.767758 0.767788
0.781491 0.781491 0.781537
0.796246 0.796246 0.796292
0.810178 0.810178 0.810224
0.824567 0.824567 0.824613
0.838804 0.838819 0.838849
0.852644 0.852659 0.852689
0.866499 0.866499 0.866545
0.88014 0.880156 0.880186
0.893248 0.893263 0.893278
0.630228 0.630243 0.630274
0.630243 0.630259 0.630289
0.630335 0.63035 0.630381
0.630579 0.630594 0.63064
0.63154 0.631556 0.631586
0.633585 0.6336 0.633646
0.6365 0.636515 0.636545
0.640253 0.640269 0.640314
0.6448 0.6448 0.644846
0.650599 0.650614 0.65066
0.657099 0.657115 0.65716
0.664103 0.664118 0.664164
0.671229 0.671244 0.671275
0.678645 0.67866 0.678706
0.686702 0.686702 0.686748
0.694865 0.694881 0.694911
0.704387 0.704402 0.704448
0.714443 0.714443 0.714488
0.724453 0.724453 0.724498
0.735164 0.73518 0.73521
0.746929 0.746944 0.746975
0.759533 0.759533 0.759579
0.771282 0.771298 0.771344
0.784192 0.784192 0.784237
0.797757 0.797772 0.797803
0.810361 0.810376 0.810407
0.823804 0.823819 0.82385
0.837079 0.837095 0.837125
0.849867 0.849882 0.849912
0.863111 0.863127 0.863157
0.875471 0.875471 0.875502
0.888258 0.888258 0.888289
0.900008 0.900023 0.900053
0.662791 0.662806 0.662837
0.662806 0.662821 0.662867
0.662974 0.662989 0.66302
0.663401 0.663417 0.663447
0.664256 0.664271 0.664302
0.665766 0.665782 0.665827
0.667933 0.667948 0.667979
0.671 0.671016 0.671046
0.674998 0.675013 0.675059
0.679622 0.679637 0.679667
0.684932 0.684932 0.684977
0.691188 0.691203 0.691249
0.697704 0.697704 0.697749
0.705058 0.705074 0.705119
0.712642 0.712657 0.712703
0.719844 0.71986 0.71989
0.727825 0.72784 0.727886
0.736553 0.736568 0.736599
0.746227 0.746242 0.746273
0.756786 0.756802 0.756832
0.767056 0.767056 0.767102
0.777951 0.777966 0.777996
0.789425 0.789441 0.789471
0.801541 0.801541 0.801587
0.813046 0.813046 0.813092
0.825284 0.825299 0.82533
0.837476 0.837491 0.837522
0.849134 0.849149 0.84918
0.861524 0.86154 0.86157
0.872953 0.872969 0.872999
0.885008 0.885008 0.885039
0.896071 0.896071 0.896101
0.907485 0.9075 0.90753
0.693568 0.693584 0.693629
0.693599 0.693614 0.693645
0.693782 0.693782 0.693828
0.694255 0.69427 0.694301
0.695171 0.695186 0.695216
0.69662 0.696635 0.696681
0.698695 0.698711 0.698756
0.701442 0.701457 0.701488
0.704845 0.70486 0.704906
0.709178 0.709194 0.709224
0.714183 0.714199 0.714229
0.719066 0.719066 0.719112
0.724636 0.724651 0.724681
0.730648 0.730663 0.730694
0.736873 0.736889 0.736919
0.743847 0.743862 0.743893
0.751354 0.751369 0.7514
0.759793 0.759808 0.759838
0.767865 0.76788 0.76791
0.776944 0.776959 0.776989
0.786648 0.786648 0.786694
0.79736 0.797375 0.797406
0.807233 0.807248 0.807279
0.817899 0.817914 0.817945
0.829206 0.829206 0.829252
0.839826 0.839841 0.839872
0.850736 0.850752 0.850782
0.862043 0.862058 0.862089
0.872572 0.872587 0.872618
0.883711 0.883726 0.883757
0.89398 0.893996 0.894026
0.904479 0.904479 0.904509
0.914137 0.914153 0.914168
0.725475 0.72549 0.725521
0.72549 0.725505 0.725551
0.725612 0.725628 0.725673
0.725963 0.725978 0.726009
0.726619 0.726635 0.726665
0.727672 0.727687 0.727718
0.729244 0.729244 0.72929
0.731487 0.731502 0.731533
0.73431 0.734325 0.734356
0.737682 0.737697 0.737743
0.741573 0.741588 0.741619
0.746227 0.746242 0.746273
0.751385 0.7514 0.751446
0.756863 0.756878 0.756909
0.762432 0.762448 0.762478
0.768063 0.768078 0.768109
0.774319 0.774319 0.774365
0.781506 0.781521 0.781567
0.789212 0.789227 0.789273
0.798062 0.798077 0.798108
0.80618 0.80618 0.806226
0.815198 0.815213 0.815244
0.82475 0.824765 0.824796
0.834669 0.834684 0.834714
0.844022 0.844038 0.844068
0.85391 0.853925 0.853956
0.864164 0.864164 0.864195
0.873854 0.873869 0.873899
0.884138 0.884153 0.884184
0.89366 0.893675 0.893706
0.903304 0.903319 0.903349
0.912474 0.91249 0.912505
0.92137 0.92137 0.921401
0.757046 0.757061 0.757107
0.757076 0.757076 0.757122
0.757183 0.757198 0.757229
0.757488 0.757504 0.757534
0.758083 0.758099 0.758144
0.759014 0.75903 0.75906
0.760235 0.76025 0.760281
0.761868 0.761883 0.761913
0.763943 0.763943 0.763989
0.766629 0.766644 0.76669
0.769879 0.769879 0.769924
0.77351 0.773526 0.773556
0.777493 0.777508 0.777539
0.782116 0.782116 0.782162
0.787045 0.78706 0.787091
0.792172 0.792187 0.792233
0.798245 0.79826 0.798291
0.804059 0.804059 0.804105
0.810513 0.810529 0.810559
0.817746 0.817761 0.817792
0.82562 0.82562 0.825666
0.833967 0.833982 0.834012
0.84184 0.841856 0.841886
0.850309 0.850309 0.850355
0.859449 0.859464 0.859495
0.868009 0.868025 0.868055
0.877043 0.877043 0.877073
0.886458 0.886458 0.886488
0.894881 0.894896 0.894926
0.903838 0.903838 0.903868
0.912184 0.912184 0.912215
0.920378 0.920394 0.920424
0.928389 0.928389 0.92842
0.786038 0.786038 0.786084
0.786038 0.786053 0.786099
0.78613 0.786145 0.786175
0.786374 0.786389 0.786419
0.786847 0.786862 0.786892
0.78761 0.787625 0.787655
0.788724 0.788724 0.788769
0.790219 0.790234 0.790265
0.792126 0.792142 0.792187
0.794476 0.794491 0.794522
0.797223 0.797238 0.797269
0.800183 0.800198 0.800229
0.803479 0.803494 0.803525
0.807065 0.807065 0.807111
0.810864 0.81088 0.81091
0.815152 0.815167 0.815198
0.820005 0.82002 0.82005
0.82536 0.825376 0.825406
0.831617 0.831632 0.831662
0.837461 0.837476 0.837507
0.84387 0.843885 0.843915
0.850843 0.850858 0.850889
0.858488 0.858503 0.858534
0.865904 0.865919 0.86595
0.873625 0.873625 0.873655
0.881758 0.881758 0.881788
0.88986 0.88986 0.889891
0.897642 0.897658 0.897688
0.905867 0.905882 0.905913
0.913344 0.913344 0.913375
0.920897 0.920897 0.920928
0.928252 0.928267 0.928298
0.935393 0.935393 0.935424
0.814115 0.81413 0.81416
0.81413 0.814145 0.814176
0.814191 0.814206 0.814237
0.814359 0.814374 0.814404
0.814694 0.81471 0.81474
0.815229 0.815244 0.815274
0.816022 0.816022 0.816068
0.81709 0.81709 0.817136
0.818524 0.81854 0.81857
