luts/RED_FilmBiasBleachBypass_Rec2020_N-Log_to_Rec709_BT1886.cube
# Development Color Space = REC709
# Output Gamma Curve = BT1886
# Output Tonemap = MEDIUM_CONTRAST
# Highlight Rolloff = Rolloff 3 - soft
# Resolution = 33 x 33 x 33
LUT_3D_SIZE 9
0.0157168 0.0157168 0.0157168
0.0155947 0.0149996 0.0150301
0.0821698 0.0130159 0.0210727
0.208637 0.0365301 0.0659648
0.444541 0.070634 0.136355
0.737942 0.158526 0.292393
0.927626 0.401968 0.557687
0.960418 0.669078 0.754864
0.965957 0.820661 0.860227
0.0151827 0.0175631 0.015259
0.0210117 0.0186618 0.0146792
0.105531 0.0277714 0.0246128
0.244892 0.0520027 0.0694285
0.485298 0.0861524 0.139971
0.757458 0.182055 0.297642
0.929397 0.422507 0.561898
0.960449 0.674342 0.755932
0.965942 0.821942 0.860456
0.0041352 0.132235 0.0395666
0.00985733 0.139971 0.0384375
0.192538 0.163378 0.0606851
0.441474 0.179416 0.0809339
0.661646 0.22179 0.177981
0.848753 0.318441 0.354986
0.937667 0.524025 0.592889
0.960906 0.708019 0.762173
0.965576 0.829923 0.862013
0.00486763 0.397833 0.130175
0.00842298 0.412634 0.13225
0.211139 0.459403 0.157153
0.565713 0.500526 0.243503
0.784924 0.52842 0.303929
0.895399 0.578286 0.485496
0.939757 0.669245 0.659785
0.959518 0.765591 0.785992
0.964797 0.847578 0.866041
0.0281834 0.674556 0.351827
0.0409705 0.680476 0.357748
0.237949 0.707225 0.395377
0.589258 0.724498 0.479377
0.779232 0.740978 0.580621
0.888579 0.758831 0.634302
0.935607 0.785794 0.728344
0.95404 0.826673 0.81825
0.961669 0.870832 0.877852
0.333196 0.825711 0.638911
0.359167 0.827298 0.642008
0.488167 0.835401 0.660044
0.655909 0.846113 0.685985
0.780575 0.851728 0.724804
0.874098 0.857877 0.780774
0.925643 0.866758 0.809155
0.948455 0.880491 0.852369
0.956008 0.900053 0.893965
0.677241 0.895613 0.80647
0.683024 0.895933 0.807202
0.71252 0.898222 0.811658
0.768963 0.902632 0.821363
0.822995 0.906432 0.832944
0.874922 0.909346 0.851698
0.918837 0.913603 0.87837
0.94258 0.917876 0.891752
0.951934 0.924208 0.911315
0.831968 0.92958 0.887068
0.833005 0.929641 0.887282
0.840101 0.930129 0.888624
0.853925 0.931334 0.891783
0.874067 0.933013 0.896956
0.897307 0.934768 0.901854
0.920089 0.935851 0.910811
0.939727 0.937362 0.923049
0.947433 0.939635 0.928252
0.902968 0.944183 0.925551
0.903197 0.944198 0.925597
0.90454 0.944244 0.925841
0.908141 0.944396 0.926513
0.913146 0.94461 0.927764
0.921065 0.944839 0.929976
0.930282 0.945205 0.932174
0.939101 0.945251 0.935927
0.945876 0.945342 0.94023
0.0150149 0.0149844 0.0150149
0.0165103 0.0150454 0.0160525
0.0875563 0.0178683 0.038056
0.215335 0.0408179 0.0834363
0.453346 0.0722362 0.154376
0.741634 0.1635 0.308812
0.927092 0.406989 0.565408
0.960159 0.670344 0.756771
0.965866 0.820966 0.86067
0.0146944 0.0192111 0.0183413
0.0215305 0.0214694 0.0215915
0.109148 0.03505 0.0437324
0.253086 0.0555581 0.0850996
0.49247 0.0932784 0.15761
0.760525 0.186328 0.314565
0.928847 0.4271 0.569467
0.960189 0.675578 0.757824
0.96585 0.822248 0.860883
0.00486763 0.136095 0.0601663
0.0101015 0.144594 0.0599374
0.191897 0.169741 0.0841535
0.442863 0.18558 0.106111
0.662165 0.229023 0.200473
0.849821 0.322606 0.369619
0.937209 0.527245 0.598077
0.960647 0.709056 0.763943
0.965484 0.830182 0.86244
0.00476081 0.401877 0.152026
0.00779736 0.416846 0.154849
0.200153 0.466499 0.178393
0.563241 0.504433 0.264042
0.783368 0.531289 0.32488
0.89366 0.581186 0.497581
0.939498 0.670375 0.6636
0.959335 0.766278 0.78703
0.964736 0.847776 0.866346
0.0290227 0.675914 0.3664
0.0417792 0.681788 0.372747
0.240406 0.708446 0.411734
0.588693 0.726543 0.49044
0.778531 0.741939 0.587564
0.887953 0.75938 0.639628
0.935256 0.78616 0.73077
0.953964 0.826871 0.819028
0.961624 0.87097 0.87808
0.335927 0.826017 0.643122
0.361837 0.827604 0.646204
0.48986 0.835599 0.663447
0.655726 0.846494 0.688853
0.78056 0.852125 0.727382
0.873976 0.858076 0.782361
0.925582 0.866865 0.81001
0.948348 0.880598 0.852903
0.955993 0.900084 0.894118
0.678004 0.895674 0.807279
0.683589 0.895994 0.807996
0.713024 0.898268 0.812451
0.769223 0.902678 0.822095
0.823011 0.906508 0.833616
0.874891 0.909499 0.852201
0.918807 0.913634 0.87866
0.942565 0.917891 0.89192
0.951919 0.924224 0.911406
0.83212 0.929595 0.887266
0.833158 0.929656 0.887465
0.840238 0.930129 0.888808
0.854017 0.93135 0.891966
0.874144 0.933013 0.897093
0.897337 0.934783 0.901976
0.920089 0.935882 0.910918
0.939727 0.937377 0.92311
0.947433 0.939651 0.928283
0.902998 0.944183 0.925597
0.903227 0.944198 0.925628
0.90457 0.944244 0.925872
0.908171 0.944396 0.926543
0.913161 0.94461 0.927794
0.92108 0.944839 0.929992
0.930297 0.945205 0.932204
0.939101 0.945251 0.935943
0.945876 0.945342 0.94023
0.0145418 0.0306859 0.0603189
0.0299687 0.034287 0.0677195
0.120531 0.0294194 0.110521
0.273823 0.049836 0.166033
0.508171 0.0941634 0.251011
0.765255 0.189837 0.403632
0.924559 0.436133 0.609186
0.958404 0.678935 0.769284
0.96527 0.823102 0.863661
0.020264 0.0413672 0.0798962
0.034165 0.0440375 0.0878462
0.135866 0.0545052 0.125368
0.303349 0.0710307 0.177844
0.538033 0.111437 0.26186
0.782727 0.213275 0.410971
0.926009 0.453941 0.613016
0.958434 0.68394 0.77026
0.965255 0.824323 0.863874
0.00616464 0.159884 0.149264
0.0112306 0.168231 0.15964
0.198627 0.197208 0.199374
0.457877 0.217792 0.231815
0.676173 0.258885 0.312245
0.852888 0.355032 0.454032
0.934585 0.544793 0.631724
0.95903 0.715465 0.775631
0.964843 0.832013 0.865385
0.00460822 0.427695 0.263737
0.0125277 0.440955 0.270085
0.170138 0.495506 0.302022
0.560662 0.527352 0.38024
0.775845 0.549783 0.437659
0.884642 0.597726 0.562554
0.937636 0.677394 0.687984
0.958297 0.770108 0.794141
0.964248 0.849104 0.868559
0.033814 0.683986 0.45156
0.0526894 0.689128 0.459174
0.262592 0.713909 0.493843
0.585458 0.738247 0.548821
0.776196 0.747738 0.627253
0.88481 0.763058 0.670222
0.932357 0.789288 0.7476
0.953582 0.828138 0.823758
0.961288 0.871962 0.879545
0.35465 0.827405 0.668528
0.379705 0.829114 0.670939
0.501442 0.836515 0.686152
0.660441 0.84773 0.711467
0.781033 0.854276 0.743893
0.873259 0.859419 0.792126
0.924941 0.867658 0.816739
0.947677 0.88127 0.856519
0.955886 0.900343 0.895201
0.682795 0.89601 0.812772
0.687449 0.896376 0.813458
0.716487 0.898619 0.817853
0.771176 0.902861 0.827314
0.823362 0.906935 0.838392
0.874998 0.910109 0.855512
0.918639 0.913802 0.880583
0.942397 0.917983 0.893294
0.951812 0.924285 0.912062
0.833112 0.929641 0.888548
0.834134 0.929717 0.888731
0.841199 0.93019 0.890074
0.854643 0.931395 0.893202
0.874693 0.933028 0.897993
0.897505 0.934844 0.9028
0.920119 0.936004 0.911681
0.939712 0.937423 0.923445
0.947417 0.939666 0.928512
0.903212 0.944183 0.925826
0.90341 0.944198 0.925856
0.904753 0.944244 0.926101
0.908309 0.944381 0.926757
0.913283 0.94461 0.927993
0.921157 0.944839 0.930175
0.930343 0.945205 0.932357
0.939101 0.945266 0.93608
0.945876 0.945342 0.940291
0.0265354 0.0877394 0.187015
0.039765 0.0917372 0.196689
0.149798 0.116548 0.253483
0.387976 0.100053 0.351354
0.611749 0.138582 0.446723
0.812741 0.253941 0.56202
0.921981 0.492668 0.686839
0.954879 0.698543 0.797116
0.963836 0.828214 0.870649
0.0205234 0.100618 0.204822
0.0382544 0.103838 0.2168
0.157656 0.132326 0.272923
0.406348 0.125933 0.368795
0.628626 0.16437 0.458564
0.822309 0.278614 0.568887
0.923018 0.507362 0.689113
0.95491 0.703716 0.797833
0.96376 0.829313 0.870863
0.0129854 0.215793 0.30193
0.0320439 0.221149 0.317647
0.191226 0.254688 0.381903
0.488777 0.275792 0.45922
0.703578 0.316823 0.517739
0.854871 0.425177 0.602502
0.92665 0.584802 0.704829
0.955413 0.729793 0.80209
0.963394 0.836744 0.872084
0.00596628 0.477028 0.450278
0.0150149 0.486809 0.462196
0.192798 0.527138 0.513405
0.567712 0.564675 0.569253
0.764797 0.589166 0.588098
0.878767 0.62797 0.65095
0.93228 0.69575 0.732067
0.95584 0.779156 0.810941
0.962814 0.852186 0.8748
0.0770733 0.700053 0.587228
0.0964065 0.703853 0.592386
0.316274 0.723857 0.620356
0.595941 0.74995 0.655985
0.772976 0.760739 0.699779
0.878111 0.772061 0.724804
0.927596 0.796094 0.780453
0.952636 0.831525 0.834623
0.960479 0.87422 0.883162
0.403311 0.830579 0.718517
0.424384 0.831846 0.720928
0.528695 0.838605 0.734112
0.675029 0.850156 0.754299
0.783536 0.858396 0.7776
0.871839 0.862257 0.813535
0.923522 0.869307 0.830365
0.946303 0.882704 0.864546
0.955657 0.900938 0.897993
0.692302 0.896819 0.825788
0.696971 0.897185 0.826459
0.724804 0.899428 0.830564
0.775998 0.903258 0.839475
0.826886 0.907546 0.848966
0.875349 0.91162 0.863615
0.918242 0.91426 0.885374
0.941939 0.918196 0.89691
0.951461 0.924514 0.913878
0.835691 0.929702 0.891859
0.836698 0.929778 0.892058
0.843427 0.930266 0.893339
0.85626 0.931411 0.896376
0.876097 0.933059 0.900435
0.898222 0.934951 0.90518
0.920317 0.936248 0.913619
0.939681 0.93753 0.924331
0.947341 0.939727 0.929244
0.903716 0.944167 0.926375
0.903914 0.944183 0.926406
0.905226 0.944244 0.926635
0.90869 0.944366 0.927306
0.913619 0.944579 0.928512
0.921401 0.944808 0.930632
0.930465 0.94519 0.932769
0.939147 0.945281 0.936431
0.945861 0.945342 0.940475
0.0529641 0.208515 0.436744
0.0648966 0.214466 0.448203
0.206195 0.254017 0.491554
0.434669 0.305867 0.569879
0.689281 0.287755 0.652995
0.842588 0.388159 0.711254
0.917784 0.573953 0.769879
0.950118 0.728435 0.831113
0.961486 0.836988 0.882307
0.0501869 0.223133 0.450538
0.0687419 0.228794 0.461891
0.20943 0.269902 0.505074
0.439933 0.321645 0.583413
0.695766 0.306081 0.660761
0.845014 0.408423 0.714336
0.918181 0.582773 0.771145
0.950072 0.73196 0.831693
0.961456 0.837888 0.882521
0.0379644 0.328649 0.524529
0.059617 0.333013 0.535195
0.228504 0.368353 0.582208
0.475013 0.425269 0.647501
0.725078 0.439231 0.694423
0.852262 0.519203 0.73106
0.919951 0.636973 0.778912
0.949859 0.755474 0.834867
0.961013 0.8439 0.883986
0.041886 0.54519 0.627192
0.0657359 0.549828 0.635111
0.259602 0.574853 0.671229
0.562524 0.61442 0.704921
0.752285 0.636805 0.734905
0.86482 0.668803 0.754543
0.923171 0.726406 0.794354
0.950774 0.795041 0.840543
0.960128 0.857801 0.886152
0.172992 0.723079 0.704799
0.203281 0.72604 0.708614
0.396109 0.740124 0.728222
0.622782 0.761334 0.756268
0.776776 0.774899 0.777783
0.870359 0.78941 0.783734
0.924041 0.808347 0.815503
0.949416 0.839597 0.853132
0.95903 0.877806 0.88983
0.472511 0.835492 0.778378
0.48748 0.836423 0.780087
0.569726 0.842451 0.789746
0.694514 0.852338 0.804501
0.794369 0.861128 0.821103
0.871519 0.866636 0.840436
0.920714 0.872953 0.851835
0.944564 0.885145 0.876875
0.955276 0.902113 0.902449
0.709377 0.898314 0.846357
0.713375 0.89865 0.846922
0.739635 0.900694 0.850156
0.78497 0.904021 0.856809
0.833219 0.908309 0.865644
0.877211 0.913314 0.87657
0.918181 0.915007 0.89308
0.941299 0.918853 0.902052
0.95082 0.925002 0.917067
0.840452 0.929747 0.89781
0.841428 0.929808 0.897993
0.846998 0.930358 0.899199
0.859236 0.931594 0.901259
0.87863 0.933104 0.904753
0.900191 0.934951 0.909606
0.920729 0.936584 0.916686
0.939635 0.937743 0.925963
0.947219 0.939834 0.930388
0.904677 0.944152 0.927474
0.904875 0.944167 0.927504
0.906188 0.944183 0.927718
0.909392 0.94432 0.928374
0.914229 0.944533 0.92958
0.921843 0.944778 0.931563
0.930816 0.945159 0.933669
0.939239 0.945296 0.937102
0.945846 0.945357 0.94081
0.144366 0.451667 0.715068
0.162432 0.456748 0.719234
0.31191 0.48809 0.739071
0.528664 0.542809 0.76553
0.698222 0.59382 0.789502
0.846204 0.60174 0.823606
0.912902 0.677378 0.845335
0.944503 0.77528 0.869871
0.957626 0.852384 0.898543
0.144671 0.462654 0.719463
0.165347 0.46775 0.723598
0.317357 0.497292 0.742718
0.533593 0.551369 0.767559
0.699428 0.60116 0.79205
0.846952 0.609018 0.824613
0.912902 0.682841 0.845899
0.944503 0.777462 0.8701
0.957565 0.853071 0.89865
0.168292 0.524742 0.747173
0.195377 0.528374 0.750423
0.353262 0.555489 0.763058
0.559655 0.604974 0.780148
0.709224 0.640894 0.807279
0.85008 0.65539 0.829908
0.913405 0.71426 0.848875
0.944549 0.791974 0.871611
0.957153 0.85774 0.899428
0.250385 0.646082 0.774594
0.278935 0.648188 0.777279
0.428519 0.661036 0.790616
0.607904 0.690257 0.806607
0.729229 0.718288 0.828717
0.856123 0.733303 0.841154
0.913954 0.770169 0.854582
0.944335 0.819394 0.875731
0.956313 0.869444 0.901305
0.381628 0.759487 0.80383
0.402396 0.760678 0.805753
0.515511 0.768597 0.815778
0.662501 0.782803 0.830137
0.774792 0.799222 0.842542
0.862638 0.811353 0.854612
0.916396 0.826429 0.863066
0.943999 0.852628 0.881117
0.955673 0.884443 0.904433
0.567514 0.847074 0.838071
0.577783 0.847669 0.838911
0.639063 0.851362 0.844038
0.729519 0.858656 0.85359
0.809018 0.866773 0.864729
0.874296 0.873335 0.874846
0.917311 0.881346 0.877836
0.942931 0.890288 0.891966
0.953857 0.905638 0.910079
0.743923 0.900328 0.872312
0.747478 0.900542 0.872724
0.765667 0.902022 0.87541
0.800855 0.905013 0.881285
0.841856 0.909483 0.887282
0.88333 0.914183 0.895201
0.918914 0.916564 0.906096
0.939864 0.920623 0.910643
0.949889 0.926116 0.922133
0.848188 0.930327 0.906386
0.848951 0.930419 0.906493
0.854002 0.930938 0.907317
0.865156 0.931899 0.909117
0.883528 0.933165 0.912322
0.903731 0.935012 0.917266
0.922194 0.937118 0.922271
0.939666 0.938125 0.929076
0.947021 0.940017 0.932555
0.906798 0.94406 0.929824
0.906981 0.94406 0.929854
0.908156 0.944106 0.930083
0.910872 0.944244 0.930678
0.915419 0.944442 0.931762
0.922774 0.944701 0.933532
0.931807 0.945022 0.935683
0.939437 0.945357 0.938247
0.945815 0.945388 0.94136
0.508629 0.70312 0.855177
0.516991 0.704936 0.855741
0.567849 0.716167 0.859159
0.665888 0.739208 0.86331
0.751675 0.762005 0.872816
0.837446 0.786175 0.881743
0.907668 0.797421 0.895903
0.939406 0.832135 0.905409
0.95314 0.875776 0.917556
0.511437 0.706035 0.855802
0.51902 0.707851 0.856367
0.569818 0.71902 0.859678
0.667201 0.741451 0.86392
0.752758 0.76405 0.873091
0.837629 0.787686 0.882185
0.907759 0.798917 0.896117
0.939376 0.833158 0.905486
0.953124 0.876188 0.917617
0.525521 0.725063 0.859083
0.532967 0.72694 0.85951
0.585565 0.735759 0.862562
0.67657 0.754696 0.867231
0.760876 0.776287 0.875074
0.838865 0.797757 0.885145
0.908736 0.807401 0.897704
0.93933 0.839017 0.906218
0.952972 0.879011 0.918029
0.561746 0.764446 0.86479
0.57052 0.765393 0.865324
0.6177 0.771847 0.868757
0.701396 0.785306 0.874235
0.778546 0.803845 0.878874
0.843046 0.819959 0.89163
0.909072 0.829236 0.899886
0.939239 0.853147 0.908049
0.952361 0.885939 0.918929
0.616785 0.812924 0.873579
0.623636 0.813458 0.874189
0.663798 0.817441 0.87718
0.735515 0.825498 0.882414
0.800198 0.83653 0.888273
0.852338 0.849989 0.899138
0.911009 0.85771 0.904158
0.938704 0.874098 0.910994
0.951431 0.897169 0.920455
0.700694 0.864073 0.885023
0.704814 0.864378 0.885451
0.729061 0.866194 0.888121
0.778058 0.870176 0.893431
0.827482 0.876356 0.898619
0.873869 0.885008 0.904402
0.914733 0.890471 0.911269
0.939178 0.899901 0.91426
0.950881 0.911498 0.923491
0.78854 0.905745 0.901228
0.790387 0.905913 0.901442
0.802533 0.906981 0.902861
0.825208 0.909514 0.906126
0.858244 0.912673 0.910521
0.89131 0.91632 0.915557
0.920485 0.919982 0.92076
0.938811 0.923964 0.922774
0.948989 0.928527 0.928542
0.86244 0.931472 0.918791
0.86305 0.931502 0.918898
0.867216 0.931792 0.91957
0.877562 0.932525 0.921279
0.890578 0.93373 0.923583
0.90811 0.935592 0.926513
0.925322 0.937697 0.930053
0.940017 0.938933 0.934386
0.946593 0.940444 0.93637
0.910323 0.943954 0.933852
0.91046 0.943954 0.933883
0.911406 0.943999 0.934066
0.913863 0.944121 0.934615
0.917693 0.944259 0.935409
0.924453 0.944549 0.936858
0.933425 0.9449 0.938567
0.940078 0.945403 0.940108
0.94583 0.945449 0.942519
0.750652 0.840513 0.909957
0.752621 0.840925 0.910063
0.764874 0.843565 0.910765
0.792798 0.849058 0.912398
0.826062 0.857023 0.914427
0.861997 0.867536 0.91928
0.901625 0.879774 0.923644
0.935897 0.886015 0.929946
0.949462 0.902708 0.933974
0.751247 0.841093 0.910048
0.753216 0.841505 0.910155
0.765438 0.844129 0.910842
0.79324 0.8495 0.91252
0.826383 0.85745 0.914549
0.862242 0.867979 0.919326
0.901701 0.880079 0.923751
0.935912 0.886305 0.929992
0.949447 0.902892 0.933989
0.755383 0.845045 0.910674
0.757321 0.845457 0.91078
0.769467 0.847883 0.911482
0.796246 0.852583 0.913298
0.828595 0.860334 0.915404
0.86392 0.871092 0.919631
0.90222 0.882231 0.924453
0.936065 0.888273 0.930266
0.949386 0.904219 0.934096
0.766873 0.853956 0.912337
0.769085 0.854185 0.91249
0.780209 0.856107 0.913222
0.803952 0.86041 0.915236
0.833997 0.867613 0.917449
0.868544 0.877943 0.920455
0.903471 0.887282 0.926024
0.936309 0.89337 0.930877
0.949248 0.907607 0.934432
0.781262 0.868055 0.914946
0.782757 0.868284 0.915084
0.792859 0.869703 0.915969
0.815778 0.873671 0.917708
0.842771 0.879683 0.919585
0.876081 0.888121 0.921813
0.905867 0.896406 0.928328
0.936233 0.901991 0.931685
0.948867 0.912749 0.93492
0.806165 0.890028 0.918669
0.807568 0.890166 0.918776
0.816449 0.891142 0.919493
0.834424 0.893477 0.921019
0.859464 0.897108 0.923171
0.885557 0.903304 0.925948
0.909911 0.909316 0.931212
0.936599 0.913817 0.933379
0.948272 0.921462 0.936065
0.843915 0.914549 0.924269
0.844755 0.914626 0.924346
0.850126 0.915114 0.924895
0.861372 0.916396 0.926299
0.878721 0.918425 0.928344
0.900389 0.921584 0.930907
0.921324 0.925612 0.933486
0.937926 0.928206 0.936461
0.947158 0.931777 0.938018
0.884474 0.933837 0.931868
0.884825 0.933883 0.931914
0.88716 0.934112 0.932235
0.892989 0.934722 0.933013
0.9019 0.935622 0.934249
0.914687 0.937011 0.936156
0.928283 0.938811 0.938537
0.940276 0.940108 0.940398
0.946136 0.941146 0.940658
0.916396 0.943984 0.939437
0.916503 0.943984 0.939452
0.917235 0.94403 0.939559
0.918898 0.944091 0.939773
0.922026 0.944259 0.940154
0.927489 0.944518 0.940871
0.935134 0.9449 0.941863
0.941299 0.945373 0.943008
0.945907 0.945571 0.944244
0.865888 0.905226 0.935851
0.866224 0.905303 0.935882
0.868544 0.905837 0.936034
0.874418 0.907134 0.936416
0.884276 0.909316 0.936965
0.899046 0.913298 0.937743
0.915434 0.918456 0.939956
0.932219 0.923583 0.942107
0.946288 0.926665 0.943938
0.866011 0.905333 0.935882
0.866346 0.905409 0.935897
0.868666 0.905928 0.936049
0.874525 0.90724 0.936431
0.884382 0.909407 0.93698
0.899107 0.913375 0.937758
0.915496 0.918532 0.939971
0.932235 0.923644 0.942123
0.946288 0.926711 0.943954
0.86685 0.90602 0.935988
0.867185 0.906096 0.936019
0.86949 0.906615 0.936156
0.875349 0.907927 0.936553
0.88513 0.910002 0.937087
0.899474 0.913939 0.937896
0.915846 0.919097 0.940017
0.932326 0.92401 0.942245
0.946273 0.927092 0.943969
0.869062 0.907851 0.936294
0.869398 0.907927 0.936324
0.871687 0.908431 0.936461
0.877516 0.909651 0.936828
0.887098 0.911559 0.937392
0.900465 0.915404 0.938216
0.916869 0.920455 0.940169
0.93257 0.925017 0.94255
0.946242 0.928084 0.944045
0.873152 0.911223 0.936812
0.873518 0.911269 0.936828
0.875883 0.911681 0.936996
0.881544 0.91284 0.937346
0.8907 0.914565 0.937942
0.902449 0.918212 0.938811
0.918944 0.922728 0.940505
0.933059 0.92694 0.942992
0.946151 0.929732 0.944137
0.880766 0.917754 0.937713
0.881102 0.917815 0.937728
0.883482 0.918151 0.937896
0.88867 0.918944 0.938293
0.895689 0.920668 0.938903
0.907271 0.92314 0.93991
0.921874 0.926833 0.941054
0.933944 0.930358 0.943496
0.945754 0.932906 0.944213
0.892531 0.927367 0.939361
0.892744 0.927398 0.939391
0.894179 0.92755 0.939529
0.89807 0.928054 0.93991
0.904952 0.928954 0.940597
0.915496 0.930419 0.941588
0.926192 0.933104 0.942535
0.935973 0.936095 0.943999
0.945464 0.937819 0.944503
0.909209 0.937636 0.941726
0.909377 0.937652 0.941726
0.910399 0.937804 0.941817
0.912703 0.93817 0.942016
0.916274 0.938659 0.942321
0.922759 0.93962 0.942855
0.932067 0.94049 0.943694
0.940139 0.941741 0.944411
0.945571 0.942519 0.945159
0.92491 0.944549 0.943771
0.924987 0.944549 0.943786
0.92549 0.944579 0.943832
0.926635 0.94464 0.943923
0.928618 0.944717 0.944076
0.932555 0.944915 0.944427
0.937362 0.94522 0.944945
0.942214 0.945602 0.945525
0.945983 0.945907 0.946044
