luts/RED_FilmBiasBleachBypass_Rec2020_N-Log_to_Rec709_BT1886.cube
# Development Color Space = REC709
# Output Gamma Curve = BT1886
# Output Tonemap = MEDIUM_CONTRAST
# Highlight Rolloff = Rolloff 3 - soft
# Resolution = 33 x 33 x 33
LUT_3D_SIZE 5
0.0157168 0.0157168 0.0157168
0.0821698 0.0130159 0.0210727
0.444541 0.070634 0.136355
0.927626 0.401968 0.557687
0.965957 0.820661 0.860227
0.0041352 0.132235 0.0395666
0.192538 0.163378 0.0606851
0.661646 0.22179 0.177981
0.937667 0.524025 0.592889
0.965576 0.829923 0.862013
0.0281834 0.674556 0.351827
0.237949 0.707225 0.395377
0.779232 0.740978 0.580621
0.935607 0.785794 0.728344
0.961669 0.870832 0.877852
0.677241 0.895613 0.80647
0.71252 0.898222 0.811658
0.822995 0.906432 0.832944
0.918837 0.913603 0.87837
0.951934 0.924208 0.911315
0.902968 0.944183 0.925551
0.90454 0.944244 0.925841
0.913146 0.94461 0.927764
0.930282 0.945205 0.932174
0.945876 0.945342 0.94023
0.0145418 0.0306859 0.0603189
0.120531 0.0294194 0.110521
0.508171 0.0941634 0.251011
0.924559 0.436133 0.609186
0.96527 0.823102 0.863661
0.00616464 0.159884 0.149264
0.198627 0.197208 0.199374
0.676173 0.258885 0.312245
0.934585 0.544793 0.631724
0.964843 0.832013 0.865385
0.033814 0.683986 0.45156
0.262592 0.713909 0.493843
0.776196 0.747738 0.627253
0.932357 0.789288 0.7476
0.961288 0.871962 0.879545
0.682795 0.89601 0.812772
0.716487 0.898619 0.817853
0.823362 0.906935 0.838392
0.918639 0.913802 0.880583
0.951812 0.924285 0.912062
0.903212 0.944183 0.925826
0.904753 0.944244 0.926101
0.913283 0.94461 0.927993
0.930343 0.945205 0.932357
0.945876 0.945342 0.940291
0.0529641 0.208515 0.436744
0.206195 0.254017 0.491554
0.689281 0.287755 0.652995
0.917784 0.573953 0.769879
0.961486 0.836988 0.882307
0.0379644 0.328649 0.524529
0.228504 0.368353 0.582208
0.725078 0.439231 0.694423
0.919951 0.636973 0.778912
0.961013 0.8439 0.883986
0.172992 0.723079 0.704799
0.396109 0.740124 0.728222
0.776776 0.774899 0.777783
0.924041 0.808347 0.815503
0.95903 0.877806 0.88983
0.709377 0.898314 0.846357
0.739635 0.900694 0.850156
0.833219 0.908309 0.865644
0.918181 0.915007 0.89308
0.95082 0.925002 0.917067
0.904677 0.944152 0.927474
0.906188 0.944183 0.927718
0.914229 0.944533 0.92958
0.930816 0.945159 0.933669
0.945846 0.945357 0.94081
0.508629 0.70312 0.855177
0.567849 0.716167 0.859159
0.751675 0.762005 0.872816
0.907668 0.797421 0.895903
0.95314 0.875776 0.917556
0.525521 0.725063 0.859083
0.585565 0.735759 0.862562
0.760876 0.776287 0.875074
0.908736 0.807401 0.897704
0.952972 0.879011 0.918029
0.616785 0.812924 0.873579
0.663798 0.817441 0.87718
0.800198 0.83653 0.888273
0.911009 0.85771 0.904158
0.951431 0.897169 0.920455
0.78854 0.905745 0.901228
0.802533 0.906981 0.902861
0.858244 0.912673 0.910521
0.920485 0.919982 0.92076
0.948989 0.928527 0.928542
0.910323 0.943954 0.933852
0.911406 0.943999 0.934066
0.917693 0.944259 0.935409
0.933425 0.9449 0.938567
0.94583 0.945449 0.942519
0.865888 0.905226 0.935851
0.868544 0.905837 0.936034
0.884276 0.909316 0.936965
0.915434 0.918456 0.939956
0.946288 0.926665 0.943938
0.86685 0.90602 0.935988
0.86949 0.906615 0.936156
0.88513 0.910002 0.937087
0.915846 0.919097 0.940017
0.946273 0.927092 0.943969
0.873152 0.911223 0.936812
0.875883 0.911681 0.936996
0.8907 0.914565 0.937942
0.918944 0.922728 0.940505
0.946151 0.929732 0.944137
0.892531 0.927367 0.939361
0.894179 0.92755 0.939529
0.904952 0.928954 0.940597
0.926192 0.933104 0.942535
0.945464 0.937819 0.944503
0.92491 0.944549 0.943771
0.92549 0.944579 0.943832
0.928618 0.944717 0.944076
0.937362 0.94522 0.944945
0.945983 0.945907 0.946044
