luts/RED_FilmBiasOffset_Rec2020_N-Log_to_Rec709_BT1886.cube
# Development Color Space = REC709
# Output Gamma Curve = BT1886
# Output Tonemap = MEDIUM_CONTRAST
# Highlight Rolloff = Rolloff 3 - soft
# Resolution = 33 x 33 x 33
LUT_3D_SIZE 33
0 0 0
0 0 0
0 0 0
0 0 0
1.5259e-05 0 0
0.0342718 0.0027924 0.00527962
0.0734417 0.00421149 0.0114443
0.119707 0.00660716 0.0171511
0.171374 0.0104677 0.0297856
0.227939 0.0180209 0.0374456
0.288106 0.0236973 0.0547341
0.348409 0.0310674 0.0707713
0.4094 0.0394903 0.0906996
0.463279 0.047715 0.111803
0.513085 0.0591135 0.134447
0.55938 0.0682536 0.158648
0.604837 0.0863355 0.184955
0.649805 0.10161 0.214023
0.690867 0.126848 0.245853
0.72961 0.151766 0.280537
0.763363 0.188113 0.319036
0.79617 0.226352 0.359579
0.823438 0.269734 0.402075
0.848157 0.316609 0.445624
0.869749 0.36611 0.486686
0.88751 0.417411 0.527977
0.904189 0.469184 0.564324
0.917388 0.518471 0.599786
0.929259 0.56376 0.634028
0.938964 0.607828 0.66537
0.947646 0.64715 0.696849
0.9552 0.684291 0.724758
0.961517 0.719326 0.751431
0 0 0
0 0 0
0 0 0
0 0 0
1.5259e-05 0 0
0.0346532 0.00282292 0.00537118
0.0736858 0.00424201 0.0113069
0.120012 0.00663767 0.0170291
0.171984 0.0105592 0.0298009
0.228565 0.0181735 0.0373693
0.288777 0.0238041 0.0547341
0.349187 0.0312657 0.0707103
0.410101 0.039704 0.0905928
0.463874 0.0480201 0.111635
0.513588 0.0593881 0.13431
0.559823 0.0684977 0.158511
0.605234 0.0866865 0.184878
0.650156 0.1019 0.213947
0.691142 0.12723 0.245838
0.729824 0.152163 0.280507
0.763516 0.188434 0.319081
0.796277 0.226658 0.359594
0.823529 0.269978 0.402121
0.848219 0.316854 0.44567
0.869795 0.366293 0.486717
0.887541 0.417578 0.528008
0.904219 0.469306 0.564355
0.917403 0.518563 0.599817
0.929274 0.563821 0.634043
0.938979 0.607874 0.665385
0.947646 0.647196 0.696849
0.955215 0.684321 0.724773
0.961517 0.719341 0.751446
0 0 0
0 0 0
0 0 0
0 0 0
1.5259e-05 0 0
0.0375219 0.00306706 0.00563058
0.0753033 0.00444038 0.0103914
0.123766 0.00706493 0.0162051
0.176028 0.0120089 0.0297093
0.233112 0.0191958 0.0368505
0.293492 0.0245975 0.0548867
0.354589 0.0326848 0.0703746
0.414679 0.0408331 0.0903487
0.468315 0.0504005 0.110658
0.517052 0.0612955 0.133364
0.562875 0.0713359 0.157534
0.608026 0.0890211 0.184375
0.652567 0.10399 0.213474
0.692973 0.129839 0.24567
0.731365 0.15491 0.280278
0.764614 0.190723 0.31931
0.797024 0.228702 0.359808
0.824155 0.271733 0.40238
0.84863 0.318471 0.446006
0.870146 0.36762 0.486946
0.88777 0.418708 0.528206
0.904356 0.470146 0.564569
0.917525 0.519265 0.599954
0.929351 0.564324 0.63418
0.93904 0.608225 0.665492
0.947692 0.647501 0.696925
0.955245 0.684535 0.724849
0.961547 0.719493 0.751492
0 0 0
0 0 0
0 0 0
0 0 0
0.00691234 0.000564584 0.000564584
0.0486 0.00401312 0.00433356
0.0876478 0.00561532 0.00865187
0.136538 0.00872816 0.0157931
0.189364 0.0149081 0.0284886
0.246769 0.0220188 0.0367742
0.3075 0.0277714 0.0560311
0.369375 0.0363775 0.069398
0.426703 0.0438239 0.0903792
0.479347 0.0556649 0.11017
0.526696 0.0656443 0.132799
0.571283 0.0791638 0.156725
0.615167 0.0950027 0.183154
0.658869 0.112169 0.212421
0.697765 0.136599 0.245289
0.73521 0.162264 0.279911
0.767666 0.197101 0.319417
0.799115 0.234455 0.360464
0.825849 0.276387 0.403098
0.849744 0.322774 0.446784
0.871077 0.37116 0.487541
0.888395 0.421744 0.528725
0.904768 0.472389 0.565133
0.917861 0.521126 0.60032
0.929549 0.565698 0.634562
0.939208 0.609201 0.665766
0.947799 0.648325 0.697124
0.955337 0.685115 0.725032
0.961593 0.719905 0.751629
0.00123598 0.013138 0.00205997
0.00125124 0.0131991 0.00210575
0.00134279 0.0137331 0.00242618
0.00167849 0.0163729 0.00395209
0.0111696 0.0170596 0.0059968
0.0568093 0.0133211 0.00585946
0.108278 0.0139162 0.00941482
0.161028 0.0168002 0.0179141
0.217075 0.0208743 0.0276951
0.27602 0.0269169 0.0386358
0.333837 0.0364843 0.0555276
0.395422 0.0434119 0.0684367
0.449607 0.052842 0.0896773
0.498756 0.0649577 0.109941
0.543481 0.0729992 0.134707
0.586328 0.0916457 0.157961
0.628351 0.104677 0.18407
0.669535 0.12607 0.213077
0.70631 0.14844 0.245212
0.741833 0.175982 0.279942
0.773297 0.208759 0.319722
0.803143 0.245563 0.360998
0.829175 0.285496 0.403845
0.85185 0.330877 0.448188
0.872816 0.377752 0.488807
0.88957 0.427497 0.529747
0.905547 0.476692 0.566232
0.918517 0.524697 0.601038
0.929931 0.568292 0.635309
0.939544 0.611078 0.666331
0.947997 0.649927 0.697505
0.955505 0.686229 0.725414
0.961715 0.720699 0.751888
0.00350958 0.0502174 0.00927749
0.00350958 0.050248 0.00924697
0.00350958 0.0509346 0.00898756
0.00350958 0.0530404 0.0083772
0.00918593 0.0550851 0.00642405
0.0615549 0.057435 0.00944533
0.126482 0.0479286 0.0119936
0.191943 0.0349279 0.0203098
0.253956 0.0391241 0.029572
0.313146 0.0445869 0.0418555
0.37406 0.049485 0.0553292
0.429175 0.0598917 0.0699168
0.479805 0.0689708 0.0904707
0.525048 0.0780041 0.110643
0.567346 0.0949111 0.136645
0.607843 0.108171 0.160479
0.647562 0.123384 0.188388
0.684627 0.145403 0.216266
0.719432 0.165911 0.249729
0.751461 0.194781 0.283101
0.781872 0.225864 0.322332
0.809293 0.262318 0.36202
0.834363 0.300389 0.405051
0.855344 0.344259 0.449332
0.875563 0.388815 0.490562
0.891432 0.436591 0.531334
0.906783 0.483528 0.568002
0.919554 0.530419 0.602182
0.930556 0.572503 0.6365
0.940078 0.61416 0.667308
0.948333 0.652506 0.698131
0.955795 0.688045 0.726024
0.961883 0.721996 0.752331
0.00350958 0.099382 0.00865187
0.00350958 0.0995499 0.00863661
0.00350958 0.10045 0.00854505
0.00350958 0.102541 0.00862135
0.00378424 0.105592 0.00799573
0.0391546 0.108736 0.00891127
0.129213 0.105837 0.0116884
0.206424 0.0942855 0.0178378
0.282658 0.0835279 0.0282292
0.353826 0.0783246 0.0405737
0.413596 0.086183 0.0535897
0.4654 0.0887617 0.0725109
0.512795 0.0990005 0.0907759
0.55668 0.111513 0.113436
0.596155 0.122759 0.139315
0.633341 0.136568 0.164492
0.670329 0.154177 0.1935
0.703609 0.170657 0.223148
0.73611 0.193057 0.255528
0.764996 0.219883 0.289708
0.792889 0.249699 0.328573
0.817319 0.282856 0.368078
0.840711 0.32076 0.40972
0.860151 0.362341 0.451438
0.878828 0.404852 0.492561
0.894209 0.450278 0.532418
0.908583 0.493645 0.569955
0.921065 0.538064 0.604028
0.931456 0.578531 0.638239
0.940841 0.618601 0.668711
0.948806 0.656275 0.699046
0.956207 0.690715 0.726925
0.962142 0.723918 0.753017
0.00350958 0.155306 0.0220493
0.00350958 0.155474 0.021973
0.00350958 0.156542 0.0214542
0.00350958 0.159487 0.0204929
0.00350958 0.163699 0.0201724
0.0122988 0.166766 0.0162203
0.0929885 0.16701 0.017731
0.201846 0.160555 0.0193484
0.28687 0.152148 0.0270848
0.369192 0.146044 0.0380102
0.441901 0.141222 0.0533608
0.497246 0.142931 0.0704051
0.545052 0.148104 0.0879377
0.587518 0.154788 0.115846
0.626535 0.165499 0.138216
0.661906 0.17763 0.167849
0.693553 0.191608 0.197818
0.724529 0.208545 0.230381
0.753185 0.228885 0.263233
0.780484 0.251957 0.298589
0.804913 0.27892 0.337072
0.827848 0.309773 0.376501
0.847929 0.345586 0.417456
0.866316 0.383734 0.458305
0.88304 0.424079 0.49752
0.897841 0.467155 0.53489
0.910979 0.507271 0.571939
0.923079 0.548272 0.605798
0.932692 0.586862 0.640146
0.941878 0.624552 0.670619
0.949462 0.661341 0.700298
0.956786 0.694316 0.728145
0.962493 0.726543 0.753964
0.00350958 0.218769 0.0165408
0.00350958 0.218982 0.0163424
0.00350958 0.220417 0.0149691
0.00350958 0.224125 0.01178
0.00361639 0.229755 0.0109255
0.00416571 0.232807 0.00988785
0.0579538 0.231937 0.00996414
0.17586 0.228794 0.0130312
0.2766 0.222171 0.0313115
0.36762 0.216144 0.0409247
0.447868 0.211795 0.053193
0.515618 0.207599 0.0705882
0.570718 0.206821 0.0959029
0.616419 0.208835 0.116869
0.655039 0.216358 0.142855
0.687083 0.225193 0.171817
0.717342 0.237034 0.202701
0.7449 0.251179 0.23714
0.77142 0.270542 0.270436
0.795941 0.291035 0.308583
0.818128 0.314641 0.345907
0.839078 0.343023 0.38703
0.856748 0.375067 0.427558
0.873945 0.409323 0.4663
0.888273 0.446586 0.505226
0.902525 0.484565 0.540932
0.914031 0.523033 0.576242
0.925597 0.56083 0.608118
0.934264 0.597803 0.641627
0.943206 0.632609 0.672297
0.950317 0.667659 0.701869
0.957519 0.698955 0.729717
0.962951 0.729946 0.755215
0.00352483 0.284443 0.0306401
0.00352483 0.284627 0.0305943
0.00354009 0.285939 0.0302586
0.00357061 0.28954 0.0294347
0.00363165 0.295094 0.0280766
0.00453193 0.300374 0.0245823
0.0417945 0.297749 0.0233463
0.142931 0.295811 0.0261082
0.258579 0.291112 0.0386664
0.357839 0.286976 0.0523842
0.444938 0.281788 0.0659037
0.52018 0.277562 0.0788434
0.583124 0.273304 0.099443
0.636652 0.270817 0.12462
0.67628 0.272526 0.151843
0.708797 0.27863 0.178714
0.738354 0.287724 0.211017
0.764477 0.300542 0.24329
0.789014 0.315175 0.280186
0.810437 0.334188 0.317845
0.83151 0.356146 0.356435
0.84947 0.381369 0.396429
0.866255 0.408438 0.436683
0.881086 0.438544 0.476081
0.894575 0.472328 0.513756
0.907179 0.505196 0.547921
0.917723 0.540917 0.5823
0.928328 0.574533 0.61323
0.936278 0.610117 0.644648
0.944564 0.642435 0.674266
0.951385 0.674983 0.703487
0.958129 0.705013 0.731228
0.963531 0.734127 0.756756
0.00354009 0.351064 0.0633555
0.00354009 0.351293 0.0632792
0.00355535 0.35288 0.0627756
0.00358587 0.356542 0.0612192
0.00375372 0.361822 0.0573129
0.00404364 0.36733 0.0516365
0.0140841 0.368154 0.0463874
0.105943 0.365332 0.0498817
0.22446 0.361624 0.0588388
0.340917 0.35671 0.0738994
0.437522 0.352605 0.0859846
0.518898 0.347539 0.102953
0.586877 0.343862 0.114839
0.644373 0.339712 0.137743
0.690486 0.337621 0.159518
0.724804 0.340002 0.187564
0.754528 0.343969 0.219303
0.781491 0.352941 0.252613
0.804257 0.365179 0.288945
0.824506 0.381109 0.326604
0.842802 0.400061 0.367117
0.859922 0.421057 0.40737
0.875715 0.444236 0.446342
0.888594 0.471611 0.48397
0.901793 0.497566 0.521859
0.912215 0.527687 0.556039
0.922286 0.558801 0.588785
0.931167 0.590234 0.619379
0.938903 0.621988 0.649577
0.946181 0.65304 0.678111
0.952697 0.683452 0.705547
0.958862 0.712337 0.732815
0.964187 0.739528 0.758083
0.00361639 0.413626 0.0958877
0.00361639 0.413809 0.0957046
0.00363165 0.415122 0.0942397
0.00370794 0.418112 0.0905623
0.00384527 0.422736 0.0841688
0.004654 0.428962 0.0761578
0.00917067 0.434989 0.0654612
0.0546883 0.433249 0.0659342
0.187884 0.430991 0.0717479
0.30457 0.426551 0.0889906
0.420478 0.421805 0.114183
0.511864 0.417639 0.134554
0.585107 0.412085 0.147326
0.646021 0.407965 0.158831
0.693202 0.404776 0.1776
0.732982 0.402991 0.202121
0.765743 0.404685 0.230518
0.792905 0.408682 0.264805
0.815991 0.418067 0.299687
0.83743 0.428855 0.337423
0.853498 0.443702 0.377462
0.869825 0.460472 0.418006
0.883299 0.48249 0.455756
0.896605 0.50222 0.494926
0.908095 0.526299 0.529091
0.917723 0.55198 0.563439
0.927337 0.577615 0.595346
0.934554 0.607202 0.62565
0.94197 0.634974 0.65449
0.948211 0.664408 0.682948
0.95462 0.691936 0.709102
0.959838 0.720287 0.735088
0.964996 0.745602 0.759396
0.0037995 0.470008 0.130648
0.0037995 0.470161 0.130419
0.00384527 0.471168 0.128862
0.00399786 0.473686 0.12488
0.0043946 0.477913 0.119066
0.00500496 0.483772 0.111437
0.00898756 0.489952 0.0999161
0.0420081 0.492378 0.0935378
0.152697 0.490379 0.0967727
0.277653 0.488289 0.105226
0.384146 0.483009 0.124193
0.49308 0.478553 0.153964
0.577371 0.474479 0.176989
0.641337 0.469749 0.191913
0.69453 0.467109 0.205402
0.734325 0.464927 0.222202
0.771405 0.463249 0.24744
0.800336 0.464607 0.277165
0.825803 0.467826 0.31191
0.845243 0.476341 0.34966
0.863798 0.48719 0.388586
0.878111 0.501289 0.427634
0.891005 0.516045 0.466896
0.903655 0.534569 0.503304
0.914015 0.555276 0.537591
0.923568 0.575799 0.571145
0.931411 0.59942 0.601709
0.938354 0.623575 0.632837
0.94519 0.649165 0.660014
0.950607 0.675929 0.688273
0.956756 0.701259 0.713054
0.961318 0.727443 0.738811
0.966125 0.751995 0.761532
0.00418097 0.519081 0.160433
0.00418097 0.519219 0.160266
0.00421149 0.520195 0.159045
0.00430304 0.522698 0.155932
0.00479133 0.526772 0.150622
0.00732433 0.532174 0.143954
0.0112459 0.538262 0.134783
0.0384833 0.544121 0.123186
0.119493 0.54313 0.12578
0.244602 0.540993 0.13283
0.359014 0.538155 0.147936
0.461112 0.532387 0.16994
0.557671 0.528252 0.20116
0.632227 0.524544 0.220935
0.687984 0.520836 0.236759
0.734112 0.518318 0.250324
0.772213 0.516442 0.267964
0.803708 0.516732 0.294286
0.83064 0.518563 0.325628
0.852003 0.521492 0.362371
0.870451 0.528038 0.400397
0.885664 0.537789 0.438651
0.898756 0.55079 0.477028
0.909224 0.56556 0.513268
0.919463 0.581827 0.546761
0.92871 0.600519 0.578714
0.935592 0.621424 0.60827
0.942565 0.641703 0.638453
0.948135 0.664729 0.665843
0.953338 0.687602 0.693065
0.958831 0.711711 0.717418
0.962997 0.73518 0.742321
0.96759 0.758709 0.764675
0.00492866 0.562753 0.19617
0.00494392 0.562844 0.196033
0.00505074 0.563592 0.195071
0.00529488 0.565515 0.192599
0.00613413 0.569223 0.18851
0.0080415 0.573877 0.183215
0.0144045 0.579858 0.17673
0.0270542 0.58558 0.165484
0.101259 0.588464 0.161547
0.220264 0.58732 0.166766
0.332647 0.58558 0.176364
0.436149 0.581888 0.193591
0.532479 0.576333 0.217136
0.612985 0.572564 0.244587
0.678523 0.5691 0.264851
0.727947 0.56553 0.281544
0.770748 0.562783 0.296925
0.806073 0.560616 0.315969
0.833356 0.56112 0.343893
0.857435 0.562676 0.37615
0.875196 0.567147 0.412497
0.891096 0.574228 0.450019
0.904677 0.582589 0.487587
0.914992 0.594659 0.521904
0.924895 0.608179 0.55639
0.932464 0.625315 0.586175
0.939941 0.641749 0.616419
0.946349 0.660685 0.644022
0.951217 0.680705 0.671336
0.956497 0.700298 0.698009
0.960708 0.722896 0.722087
0.964828 0.74374 0.745846
0.968856 0.766064 0.768185
0.00595102 0.602808 0.230304
0.00596628 0.602899 0.230198
0.00605783 0.603586 0.229435
0.00628672 0.605371 0.227481
0.00730907 0.608286 0.224216
0.0120851 0.612207 0.219852
0.0192721 0.616999 0.21474
0.0305943 0.622293 0.206729
0.0768444 0.627192 0.197498
0.18703 0.626841 0.201205
0.309407 0.625223 0.20795
0.415183 0.623316 0.218769
0.510292 0.618082 0.238804
0.593759 0.612894 0.262623
0.662242 0.610178 0.290059
0.720043 0.607217 0.309895
0.764782 0.604608 0.327626
0.804028 0.602365 0.344778
0.834531 0.600717 0.365164
0.859754 0.601144 0.393347
0.879194 0.603113 0.425925
0.895903 0.6065 0.463935
0.908537 0.613779 0.497795
0.920317 0.623178 0.531304
0.929076 0.634958 0.564141
0.936446 0.647456 0.594461
0.943664 0.662623 0.62385
0.94963 0.67982 0.650294
0.954711 0.696025 0.677745
0.959457 0.714473 0.702525
0.962997 0.733318 0.72726
0.966842 0.752834 0.749859
0.970108 0.773312 0.771954
0.00903334 0.63827 0.268238
0.00907912 0.638346 0.268147
0.00932326 0.638849 0.267567
0.0099794 0.640192 0.266041
0.0112154 0.642771 0.263569
0.014725 0.64654 0.260014
0.0231174 0.650782 0.255711
0.042237 0.656001 0.250996
0.0662699 0.66096 0.241672
0.157534 0.663951 0.238163
0.286275 0.662898 0.243137
0.394003 0.660853 0.251499
0.491859 0.658625 0.263844
0.570016 0.653346 0.285496
0.642908 0.647898 0.308583
0.704814 0.645533 0.335927
0.756497 0.642618 0.356359
0.798505 0.640238 0.375998
0.833036 0.63798 0.394553
0.860365 0.636942 0.415961
0.881804 0.638697 0.445045
0.898634 0.641825 0.474907
0.912261 0.64567 0.508598
0.923964 0.651682 0.542565
0.933135 0.66038 0.572717
0.940612 0.672175 0.602747
0.946883 0.68484 0.631373
0.952743 0.698207 0.657633
0.958404 0.712978 0.684245
0.962081 0.729854 0.707607
0.965728 0.745495 0.732662
0.969253 0.763394 0.754192
0.971603 0.781109 0.776364
0.0125124 0.673075 0.308278
0.0125429 0.673136 0.308217
0.012726 0.673533 0.30779
0.0133669 0.674571 0.306661
0.0157931 0.676493 0.304555
0.0213626 0.679362 0.301442
0.032517 0.682963 0.297887
0.0478676 0.686992 0.293629
0.0798352 0.691463 0.287083
0.140169 0.695338 0.279652
0.253086 0.695949 0.281056
0.378454 0.694865 0.286168
0.471946 0.693141 0.296193
0.554452 0.691112 0.310033
0.621347 0.686442 0.331411
0.685573 0.680797 0.353399
0.74197 0.679637 0.3823
0.789502 0.67718 0.404456
0.828733 0.674678 0.426535
0.858259 0.672648 0.444877
0.883207 0.671641 0.464897
0.900877 0.67364 0.490929
0.915862 0.676158 0.521401
0.926574 0.681163 0.552605
0.936065 0.688548 0.581445
0.94435 0.696025 0.611917
0.950317 0.706447 0.638788
0.9561 0.717784 0.665827
0.960876 0.731655 0.690349
0.965225 0.744549 0.714275
0.968795 0.759243 0.737301
0.971252 0.775143 0.758648
0.973632 0.790265 0.780362
0.021149 0.704631 0.348608
0.02121 0.704677 0.348547
0.021622 0.704997 0.348211
0.0227359 0.705913 0.347326
0.0248417 0.707622 0.345693
0.0285649 0.710231 0.343221
0.0391699 0.713573 0.339986
0.0675822 0.717266 0.336385
0.100374 0.721355 0.332494
0.142061 0.724895 0.325017
0.230381 0.727367 0.321126
0.354726 0.726574 0.325734
0.457328 0.725353 0.331533
0.539666 0.723873 0.343526
0.605615 0.721889 0.35787
0.666423 0.717235 0.379385
0.723522 0.711467 0.40058
0.776684 0.710124 0.43061
0.819959 0.707851 0.450614
0.854414 0.7066 0.470909
0.880522 0.705318 0.489219
0.90161 0.705272 0.510124
0.917433 0.707271 0.535454
0.929091 0.710048 0.562737
0.939315 0.714061 0.592767
0.94667 0.720714 0.620447
0.953658 0.728817 0.646922
0.959243 0.738643 0.673747
0.963561 0.748821 0.697765
0.967742 0.760784 0.721065
0.971466 0.774182 0.742535
0.973709 0.786877 0.764004
0.975998 0.801053 0.784207
0.030457 0.734417 0.391165
0.0305486 0.734447 0.391119
0.0311589 0.734707 0.39086
0.0328985 0.735363 0.390204
0.0361486 0.736599 0.388998
0.0412757 0.738537 0.387152
0.0552377 0.741176 0.384771
0.0763409 0.744183 0.381994
0.110567 0.747433 0.378607
0.167742 0.751064 0.373449
0.240436 0.753841 0.367941
0.331228 0.755505 0.367193
0.442466 0.754971 0.372091
0.524407 0.75407 0.378805
0.594064 0.752987 0.390372
0.648859 0.751431 0.404532
0.705425 0.747021 0.425391
0.757534 0.741131 0.444419
0.807691 0.739712 0.47187
0.845808 0.737392 0.492821
0.877211 0.736217 0.515312
0.900221 0.734859 0.532052
0.917967 0.734997 0.551385
0.930999 0.737652 0.57673
0.941054 0.741131 0.603113
0.949126 0.745846 0.629343
0.95642 0.751186 0.656168
0.961761 0.758297 0.681163
0.966232 0.767681 0.704585
0.970321 0.777844 0.728359
0.973404 0.788296 0.74873
0.976333 0.799649 0.770031
0.978347 0.812711 0.788418
0.0482948 0.762356 0.432288
0.0483711 0.762387 0.432258
0.0488899 0.762615 0.432013
0.0503243 0.763195 0.431418
0.0531624 0.764279 0.430381
0.0576181 0.765957 0.428779
0.0726329 0.768139 0.426734
0.102449 0.77055 0.424323
0.143374 0.773053 0.421378
0.190555 0.775814 0.418189
0.255894 0.778561 0.41268
0.333486 0.78027 0.410315
0.422614 0.781064 0.411475
0.512856 0.780545 0.416068
0.583947 0.779553 0.422766
0.64094 0.778668 0.433021
0.692027 0.776928 0.446952
0.741909 0.773068 0.467796
0.790204 0.766964 0.48716
0.834897 0.766552 0.513024
0.868574 0.76527 0.532967
0.897139 0.764553 0.554437
0.915877 0.763485 0.57232
0.93196 0.763348 0.592508
0.942672 0.76585 0.615381
0.951766 0.768811 0.640146
0.958129 0.773419 0.666056
0.96379 0.779782 0.688716
0.969024 0.786099 0.712703
0.972198 0.794232 0.734325
0.975418 0.803296 0.755627
0.978347 0.81387 0.775372
0.980652 0.823438 0.793835
0.0712596 0.787518 0.468498
0.0713817 0.787533 0.468467
0.0721447 0.787701 0.468299
0.0742046 0.788113 0.467872
0.0783398 0.788891 0.46714
0.0855116 0.790112 0.465919
0.0996872 0.791821 0.464225
0.125902 0.793957 0.461906
0.160861 0.796353 0.459266
0.217777 0.798764 0.456458
0.280735 0.80145 0.453529
0.350652 0.803555 0.450324
0.416739 0.805386 0.448676
0.497597 0.805646 0.451377
0.57113 0.80499 0.456916
0.630915 0.804044 0.463752
0.683299 0.803098 0.475639
0.727657 0.801434 0.489204
0.775219 0.797681 0.509087
0.818601 0.791806 0.526131
0.858305 0.791196 0.551995
0.889433 0.789639 0.574197
0.91339 0.789441 0.59379
0.929885 0.789181 0.610224
0.943572 0.789792 0.629496
0.95288 0.792477 0.652705
0.960006 0.795346 0.674708
0.966171 0.799054 0.698314
0.970397 0.804517 0.720867
0.974227 0.811215 0.741329
0.977447 0.818921 0.762112
0.979919 0.826551 0.781582
0.982177 0.835431 0.799512
0.10309 0.811444 0.502968
0.103166 0.811475 0.502953
0.103777 0.811582 0.502831
0.105425 0.811887 0.502495
0.108904 0.812451 0.5019
0.119448 0.813336 0.50103
0.136965 0.814557 0.499809
0.166705 0.816114 0.49807
0.20415 0.818021 0.49601
0.251698 0.819898 0.49395
0.308537 0.821881 0.491798
0.373083 0.823941 0.490822
0.436042 0.82533 0.489387
0.496513 0.826688 0.488807
0.561166 0.827054 0.491753
0.623285 0.826459 0.496666
0.674815 0.82591 0.503227
0.721813 0.825132 0.513954
0.760998 0.823911 0.527199
0.804562 0.820081 0.547417
0.843046 0.814817 0.565652
0.878874 0.814618 0.589212
0.906828 0.813092 0.609827
0.927413 0.812909 0.630976
0.942687 0.812314 0.647639
0.95375 0.813031 0.665385
0.961563 0.815671 0.686046
0.967437 0.819043 0.707897
0.971908 0.823438 0.728374
0.976043 0.827756 0.749081
0.979187 0.833127 0.769146
0.981567 0.840192 0.786984
0.983841 0.847837 0.806088
0.158465 0.832502 0.536355
0.158602 0.832517 0.536339
0.159625 0.832624 0.536248
0.162371 0.832868 0.536004
0.167651 0.833356 0.535546
0.176623 0.834104 0.534829
0.192737 0.835126 0.5337
0.218372 0.836439 0.53225
0.250919 0.838102 0.530526
0.291814 0.839994 0.528862
0.343526 0.841856 0.527276
0.402029 0.843473 0.526772
0.458045 0.844862 0.527047
0.507698 0.845823 0.526757
0.55877 0.84683 0.526741
0.614603 0.847013 0.530632
0.666728 0.846326 0.53608
0.715877 0.84567 0.543709
0.755489 0.844892 0.554543
0.792782 0.843641 0.566842
0.83003 0.839979 0.584497
0.866011 0.835081 0.60116
0.897231 0.834836 0.625681
0.921569 0.834318 0.645914
0.940032 0.834867 0.664576
0.952468 0.834638 0.680232
0.962493 0.834836 0.699245
0.968551 0.837125 0.717891
0.973739 0.839918 0.737514
0.977386 0.843534 0.758221
0.980529 0.848569 0.775631
0.983413 0.85359 0.793866
0.985367 0.859617 0.810742
0.221302 0.852125 0.569177
0.221469 0.852125 0.569162
0.222644 0.852201 0.5691
0.225803 0.852369 0.568933
0.231876 0.85272 0.568597
0.241886 0.853254 0.568048
0.258686 0.853971 0.567315
0.282567 0.854917 0.566354
0.312535 0.856107 0.565164
0.348363 0.857527 0.563775
0.389075 0.859007 0.56257
0.434607 0.860426 0.561975
0.48455 0.861784 0.562997
0.529946 0.862989 0.562875
0.571618 0.863981 0.562844
0.6112 0.86511 0.563088
0.662684 0.865431 0.566445
0.706981 0.865003 0.571694
0.751324 0.864469 0.578729
0.786191 0.86363 0.589624
0.819211 0.862379 0.602518
0.852842 0.858671 0.620584
0.885359 0.854154 0.636423
0.912947 0.853788 0.659113
0.935271 0.852949 0.678965
0.951003 0.853132 0.698283
0.961212 0.853452 0.712718
0.969451 0.854307 0.72929
0.974624 0.856947 0.747494
0.978653 0.85951 0.765469
0.982132 0.862562 0.783505
0.984619 0.866697 0.801221
0.986648 0.871946 0.816266
0.301335 0.870161 0.599557
0.301472 0.870161 0.599542
0.30248 0.870222 0.599496
0.305165 0.870375 0.599359
0.310369 0.870649 0.5991
0.319142 0.871107 0.598672
0.332815 0.871702 0.598093
0.349706 0.872511 0.597345
0.371847 0.873365 0.596597
0.39968 0.874357 0.59585
0.432486 0.875502 0.595056
0.471733 0.876554 0.594888
0.514992 0.87744 0.596078
0.554009 0.878416 0.597635
0.588602 0.879225 0.598001
0.626001 0.879881 0.598428
0.661921 0.880766 0.599451
0.704448 0.880888 0.603433
0.746685 0.880293 0.609384
0.7841 0.879942 0.616602
0.816052 0.87921 0.626154
0.843183 0.878492 0.637858
0.873976 0.8748 0.653193
0.902159 0.870893 0.668544
0.926863 0.871061 0.691966
0.947143 0.870314 0.709514
0.959518 0.870832 0.727672
0.968826 0.870832 0.742992
0.975448 0.871687 0.758282
0.979828 0.874022 0.77438
0.983215 0.87689 0.791409
0.985595 0.880507 0.807141
0.987839 0.88397 0.822354
0.380545 0.885496 0.630259
0.380682 0.885496 0.630259
0.381582 0.885542 0.630228
0.383917 0.885634 0.630137
0.388281 0.885817 0.629984
0.395361 0.886107 0.62974
0.405905 0.886534 0.629374
0.421103 0.887068 0.628885
0.440528 0.887755 0.62826
0.464225 0.888594 0.627512
0.486809 0.889601 0.626734
0.512596 0.8907 0.626276
0.543969 0.8916 0.627268
0.579248 0.8925 0.628351
0.613001 0.893355 0.629557
0.640101 0.89424 0.629862
0.671458 0.894896 0.630655
0.706004 0.895552 0.631769
0.742428 0.895582 0.635813
0.779171 0.895048 0.641566
0.813382 0.894652 0.648783
0.839338 0.89398 0.658778
0.865019 0.893187 0.671275
0.891539 0.889677 0.685939
0.91754 0.88603 0.699672
0.939788 0.885939 0.720989
0.956008 0.885939 0.73933
0.967056 0.886992 0.755611
0.974655 0.887495 0.76936
0.980667 0.887984 0.784497
