luts/RED_Achromic_Rec2020_N-Log_to_Rec709_BT1886.cube
# Development Color Space = REC709
# Output Gamma Curve = BT1886
# Output Tonemap = MEDIUM_CONTRAST
# Highlight Rolloff = Rolloff 3 - soft
# Resolution = 33 x 33 x 33
LUT_3D_SIZE 5
0 0 0
0.0885786 0.0885939 0.0885939
0.367178 0.367193 0.367224
0.604547 0.604562 0.604593
0.837613 0.837629 0.837659
0.163287 0.163287 0.163302
0.242329 0.242329 0.242359
0.442649 0.442664 0.442695
0.629923 0.629923 0.629969
0.842756 0.842771 0.842802
0.486259 0.486259 0.486305
0.507118 0.507134 0.507179
0.597055 0.597055 0.597101
0.722255 0.722271 0.722316
0.869627 0.869627 0.869673
0.725475 0.72549 0.725521
0.73431 0.734325 0.734356
0.774319 0.774319 0.774365
0.844022 0.844038 0.844068
0.92137 0.92137 0.921401
0.921798 0.921798 0.921828
0.922835 0.92285 0.922866
0.928649 0.928649 0.928679
0.945388 0.945388 0.945418
0.97113 0.97113 0.971145
0.000198367 0.000198367 0.000198367
0.130632 0.130632 0.130648
0.388113 0.388113 0.388144
0.610224 0.610239 0.610269
0.838636 0.838651 0.838682
0.189914 0.189929 0.189929
0.266743 0.266743 0.266773
0.453391 0.453407 0.453452
0.634531 0.634531 0.634577
0.843763 0.843778 0.843809
0.489601 0.489616 0.489647
0.511681 0.511696 0.511727
0.599771 0.599786 0.599832
0.723918 0.723918 0.723964
0.870176 0.870192 0.870222
0.72665 0.72665 0.726696
0.735409 0.735424 0.735454
0.775021 0.775036 0.775082
0.844404 0.844419 0.84445
0.921538 0.921538 0.921569
0.92192 0.92192 0.92195
0.922957 0.922972 0.922988
0.92874 0.92874 0.928771
0.945434 0.945449 0.945464
0.971145 0.971145 0.971176
0.260441 0.260456 0.260471
0.323064 0.323064 0.323095
0.475883 0.475883 0.475929
0.644007 0.644022 0.644053
0.845914 0.84593 0.84596
0.328771 0.328771 0.328801
0.381155 0.381155 0.381186
0.507729 0.507744 0.50779
0.662379 0.662379 0.662425
0.850431 0.850431 0.850477
0.517418 0.517433 0.517479
0.540887 0.540902 0.540948
0.617365 0.61738 0.617426
0.73492 0.734936 0.734966
0.874189 0.874205 0.874235
0.734844 0.734859 0.73489
0.742947 0.742962 0.742992
0.780072 0.780087 0.780118
0.847089 0.847105 0.847135
0.922713 0.922728 0.922759
0.92282 0.922835 0.92285
0.923842 0.923842 0.923873
0.929381 0.929381 0.929412
0.94583 0.94583 0.945861
0.971298 0.971298 0.971313
0.547677 0.547692 0.547738
0.560891 0.560906 0.560952
0.620417 0.620417 0.620462
0.731685 0.731701 0.731731
0.872084 0.872099 0.872129
0.559548 0.559564 0.559609
0.572503 0.572519 0.572564
0.630381 0.630396 0.630442
0.738735 0.738735 0.738781
0.874815 0.87483 0.874861
0.623392 0.623407 0.623438
0.634073 0.634089 0.634134
0.683528 0.683543 0.683589
0.776989 0.777005 0.77705
0.89044 0.89044 0.890471
0.769848 0.769863 0.769894
0.774975 0.77499 0.775021
0.803021 0.803037 0.803067
0.859693 0.859709 0.859739
0.927749 0.927764 0.927779
0.926818 0.926833 0.926848
0.927611 0.927611 0.927642
0.932601 0.932601 0.932631
0.947723 0.947723 0.947753
0.97203 0.972045 0.972061
0.803601 0.803616 0.803647
0.806012 0.806027 0.806058
0.821057 0.821073 0.821103
0.862867 0.862882 0.862913
0.926406 0.926406 0.926436
0.805524 0.805539 0.80557
0.807935 0.807935 0.80798
0.822919 0.822934 0.822965
0.864134 0.864149 0.864179
0.927016 0.927031 0.927062
0.818357 0.818372 0.818402
0.820661 0.820676 0.820706
0.834836 0.834852 0.834882
0.872572 0.872572 0.872602
0.931243 0.931243 0.931273
0.863142 0.863142 0.863172
0.864668 0.864683 0.864713
0.874128 0.874144 0.874174
0.902693 0.902708 0.902739
0.946578 0.946593 0.946609
0.942855 0.94287 0.942885
0.943297 0.943297 0.943328
0.946242 0.946242 0.946273
0.956359 0.956359 0.95639
0.975814 0.975814 0.975845
