luts/RED_FilmBias_Rec2020_N-Log_to_Rec709_BT1886.cube
# Development Color Space = REC709
# Output Gamma Curve = BT1886
# Output Tonemap = MEDIUM_CONTRAST
# Highlight Rolloff = Rolloff 3 - soft
# Resolution = 33 x 33 x 33
LUT_3D_SIZE 33
0 0 0
0 0 0
0 0 0
1.5259e-05 0 0
0.0209659 0.00138857 0.00138857
0.0670939 0.00350958 0.00361639
0.107912 0.00416571 0.00576791
0.158465 0.00772107 0.0138247
0.215473 0.0135348 0.0245365
0.277653 0.0203098 0.0360113
0.341939 0.027039 0.0481117
0.40795 0.0335546 0.0643778
0.469368 0.0413519 0.0811475
0.52549 0.0483406 0.101396
0.578927 0.0589761 0.119677
0.628687 0.0678721 0.144503
0.678019 0.0798962 0.170779
0.721813 0.0927443 0.201282
0.762753 0.108934 0.233768
0.801266 0.129 0.270085
0.834485 0.151476 0.309407
0.864576 0.180301 0.353582
0.891798 0.213031 0.398733
0.91368 0.2542 0.445304
0.932784 0.299672 0.490013
0.949203 0.350698 0.534188
0.961685 0.403494 0.575341
0.972351 0.457298 0.61503
0.981613 0.505989 0.652155
0.9888 0.552743 0.686427
0.9944 0.595972 0.718486
0.99823 0.635599 0.747097
0.999603 0.672923 0.773983
0 0 0
0 0 0
0 0 0
1.5259e-05 0 0
0.0213779 0.00141909 0.00141909
0.0672313 0.00350958 0.00361639
0.10808 0.00416571 0.00572213
0.158694 0.0077821 0.0137789
0.216052 0.0136416 0.0245365
0.278248 0.0204318 0.0359655
0.34255 0.0271458 0.0480812
0.408667 0.033753 0.0643626
0.469871 0.0415351 0.0810407
0.525933 0.0484932 0.101259
0.579385 0.0592203 0.119478
0.629084 0.0680858 0.144335
0.67834 0.0801862 0.170626
0.722087 0.092958 0.201175
0.762982 0.109224 0.233661
0.801434 0.129244 0.270008
0.834623 0.151751 0.309377
0.864668 0.180514 0.353552
0.891859 0.213306 0.398718
0.913741 0.254429 0.445289
0.932815 0.299886 0.490013
0.949218 0.350881 0.534188
0.9617 0.403647 0.575341
0.972366 0.45742 0.61503
0.981613 0.506081 0.652171
0.9888 0.552819 0.686427
0.9944 0.596017 0.718486
0.99823 0.635645 0.747097
0.999603 0.672953 0.773983
0 0 0
0 0 0
0 0 0
3.0518e-05 0 0
0.0244144 0.00169375 0.00169375
0.0685283 0.00350958 0.00358587
0.109331 0.00421149 0.00546273
0.161563 0.0084535 0.0136873
0.219821 0.0144045 0.0245365
0.282322 0.0213169 0.0357519
0.34696 0.0278935 0.0479591
0.413428 0.0351415 0.0642252
0.473945 0.0426032 0.080705
0.529595 0.0501106 0.100343
0.582544 0.0608835 0.118196
0.631785 0.0695201 0.14316
0.680613 0.0820935 0.16965
0.724056 0.0944839 0.200366
0.764538 0.111254 0.232975
0.802548 0.130907 0.269474
0.835569 0.153735 0.309026
0.865309 0.18204 0.353338
0.892287 0.215152 0.398596
0.914107 0.256031 0.445197
0.933043 0.301366 0.489967
0.949355 0.352148 0.534218
0.961822 0.4047 0.575372
0.972442 0.458183 0.615061
0.981659 0.506722 0.652171
0.98883 0.553277 0.686427
0.994415 0.596399 0.718486
0.99823 0.63592 0.747082
0.999619 0.673152 0.773983
0 1.5259e-05 0
0 1.5259e-05 0
0 1.5259e-05 0
1.5259e-05 0 0
0.0322728 0.00248722 0.00248722
0.0747082 0.00355535 0.00358587
0.119417 0.00616464 0.00511177
0.171633 0.0104372 0.0137484
0.230076 0.0168612 0.024506
0.29366 0.0237583 0.0356909
0.36025 0.030045 0.0487068
0.424979 0.038468 0.0635843
0.484794 0.0454108 0.0806287
0.539925 0.0544289 0.0990158
0.591226 0.0647593 0.116777
0.639628 0.0731518 0.141955
0.686381 0.0870069 0.167254
0.729305 0.0985122 0.198428
0.768597 0.116487 0.231281
0.805539 0.135363 0.268177
0.838117 0.159487 0.307836
0.867109 0.186542 0.352743
0.893446 0.220081 0.398306
0.915084 0.260304 0.444984
0.933684 0.305333 0.48983
0.949752 0.355566 0.53431
0.962127 0.407553 0.575448
0.972625 0.460243 0.615137
0.981781 0.508446 0.652201
0.988922 0.554528 0.686458
0.994476 0.597421 0.718471
0.99823 0.636667 0.747066
0.999634 0.673686 0.773968
0.00135805 0.0146792 0.00135805
0.00135805 0.0146639 0.00135805
0.00140383 0.0150912 0.00140383
0.00285344 0.016434 0.00155642
0.0301823 0.0189212 0.00335698
0.0810712 0.0114137 0.00363165
0.13579 0.0109102 0.00675975
0.192676 0.0159609 0.0152438
0.252689 0.0231632 0.0254826
0.316823 0.0284886 0.0369573
0.383337 0.0373083 0.0489052
0.44596 0.0447547 0.0631723
0.503532 0.0519875 0.0810712
0.557122 0.062089 0.0974441
0.607019 0.0712596 0.117708
0.654032 0.082536 0.14255
0.6972 0.0949874 0.166629
0.739101 0.106233 0.196872
0.775845 0.125689 0.22887
0.811093 0.143664 0.266102
0.842771 0.169986 0.305837
0.870481 0.19559 0.351263
0.895659 0.229709 0.397131
0.91693 0.268391 0.444404
0.934874 0.312825 0.489632
0.950469 0.362051 0.534493
0.962707 0.413001 0.575616
0.972992 0.46421 0.615274
0.981994 0.511742 0.652262
0.989105 0.55697 0.686503
0.994568 0.599405 0.718471
0.998245 0.638117 0.747036
0.99968 0.674739 0.773953
0.00350958 0.056733 0.00358587
0.00350958 0.0566567 0.00358587
0.00350958 0.0567178 0.00357061
0.00350958 0.0569314 0.00355535
0.0293889 0.0561379 0.00357061
0.0819104 0.0515145 0.0043946
0.144396 0.0402533 0.0083772
0.212284 0.0332036 0.0162966
0.280735 0.0369573 0.0265354
0.348562 0.0439307 0.0369116
0.414572 0.0490272 0.0506447
0.473701 0.0589303 0.0627909
0.529 0.0673838 0.0789807
0.580758 0.0737163 0.0976577
0.627894 0.0848402 0.119341
0.672801 0.0968032 0.144076
0.712459 0.106737 0.168627
0.751003 0.122438 0.198184
0.786542 0.138659 0.230381
0.819135 0.158267 0.266163
0.849683 0.185412 0.304936
0.875517 0.210346 0.349203
0.899107 0.24506 0.395224
0.919844 0.281895 0.442847
0.936706 0.325109 0.489326
0.951583 0.371832 0.534722
0.963623 0.421653 0.575906
0.973587 0.470527 0.615503
0.98233 0.517067 0.652369
0.98941 0.560983 0.686534
0.994736 0.602625 0.718456
0.998245 0.640467 0.746975
0.999756 0.676432 0.773938
0.00350958 0.102068 0.00508125
0.00350958 0.102159 0.00508125
0.00350958 0.102464 0.00508125
0.00357061 0.102922 0.00494392
0.00601205 0.103593 0.00512703
0.0723735 0.104662 0.00634775
0.14284 0.10161 0.0100404
0.214343 0.0932326 0.0155642
0.293904 0.0826123 0.0247807
0.375586 0.0786145 0.0362402
0.444541 0.0793927 0.0491035
0.503883 0.0834974 0.0614633
0.55729 0.0923171 0.0800031
0.605814 0.101854 0.0969558
0.651865 0.107698 0.121965
0.691478 0.117388 0.144076
0.729503 0.132708 0.170504
0.764904 0.144762 0.201175
0.799481 0.157671 0.233951
0.828824 0.181231 0.26949
0.857053 0.204608 0.308385
0.881727 0.232181 0.350927
0.903517 0.265217 0.395972
0.923552 0.301106 0.442695
0.939254 0.342687 0.488563
0.953231 0.385702 0.534234
0.964996 0.433433 0.575631
0.974426 0.479332 0.615747
0.982834 0.524666 0.652537
0.989837 0.566796 0.686595
0.99498 0.607248 0.718441
0.99826 0.643915 0.746899
0.999878 0.678996 0.773861
0.00350958 0.155322 0.00611887
0.00350958 0.155398 0.00610361
0.00350958 0.155901 0.00596628
0.00350958 0.157336 0.00585946
0.00740063 0.158679 0.00709544
0.0332494 0.158755 0.0105898
0.128878 0.160235 0.0153353
0.209125 0.157763 0.018616
0.288945 0.15227 0.0252689
0.375586 0.145663 0.0349126
0.459464 0.137896 0.0472419
0.525872 0.134813 0.0626841
0.583124 0.137499 0.079408
0.632456 0.140093 0.0973373
0.675059 0.147494 0.120729
0.710948 0.1561 0.143084
0.745647 0.166918 0.173571
0.778454 0.179019 0.202731
0.809964 0.194553 0.237201
0.839185 0.210452 0.273747
0.864912 0.232441 0.314031
0.888533 0.260243 0.356008
0.908461 0.289662 0.400458
0.926772 0.325246 0.446616
0.942184 0.363973 0.490196
0.955276 0.40415 0.533928
0.966705 0.449073 0.574884
0.975631 0.491402 0.615
0.983536 0.534356 0.652216
0.990417 0.574228 0.686595
0.9953 0.612848 0.718502
0.998276 0.648569 0.746838
1 0.68249 0.77377
0.00350958 0.214099 0.0103761
0.00350958 0.214206 0.0103761
0.00350958 0.214954 0.0103609
0.00360113 0.216907 0.0101167
0.00381476 0.21944 0.00968948
0.0348974 0.219852 0.0100557
0.0996262 0.22092 0.0104829
0.198276 0.22182 0.017319
0.279988 0.219364 0.0361639
0.366293 0.215885 0.0404974
0.450599 0.211505 0.0490578
0.53019 0.204364 0.0636912
0.594797 0.19968 0.0791943
0.651286 0.197284 0.101366
0.692973 0.199817 0.120546
0.729458 0.205509 0.143877
0.761563 0.213535 0.173037
0.792523 0.224552 0.204318
0.819745 0.237217 0.241184
0.847715 0.253147 0.277195
0.871733 0.271427 0.319127
0.894408 0.29369 0.362676
0.913314 0.321645 0.407492
0.930144 0.354162 0.452171
0.945144 0.3888 0.494499
0.957168 0.426184 0.53669
0.968154 0.466133 0.576257
0.977096 0.506233 0.614328
0.984466 0.545815 0.65153
0.991012 0.583642 0.685832
0.995758 0.619699 0.718181
0.998291 0.654261 0.746654
1 0.686854 0.773571
0.00357061 0.277256 0.0248722
0.00357061 0.277348 0.0248417
0.00358587 0.278035 0.0246586
0.00363165 0.280308 0.0247044
0.00416571 0.283665 0.0241398
0.00567636 0.286976 0.0236667
0.0852522 0.285588 0.0265354
0.170825 0.286046 0.0330053
0.268742 0.285756 0.0458839
0.355779 0.285389 0.057908
0.440452 0.282185 0.0648356
0.519844 0.278035 0.0713512
0.592416 0.271153 0.0868696
0.654749 0.265751 0.101625
0.701503 0.26276 0.124987
0.740749 0.262959 0.150362
0.774182 0.267399 0.175067
0.804166 0.276143 0.207019
0.830854 0.286442 0.243107
0.854887 0.300664 0.28275
0.87718 0.316991 0.32488
0.898299 0.336522 0.368246
0.917418 0.35938 0.413809
0.933272 0.387015 0.458686
0.947692 0.417456 0.500847
0.959075 0.451728 0.540825
0.969482 0.485573 0.579568
0.978378 0.522255 0.616739
0.985397 0.558785 0.652049
0.991669 0.594965 0.684855
0.996353 0.628473 0.717327
0.998352 0.661295 0.746014
1 0.691875 0.773205
0.00363165 0.343954 0.0484779
0.00364691 0.344091 0.0484321
0.00367742 0.345068 0.048127
0.00376898 0.347234 0.0475776
0.00393683 0.351492 0.0480964
0.00761425 0.355962 0.0463874
0.0306249 0.357153 0.0494392
0.14406 0.356146 0.057023
0.240406 0.355047 0.0688029
0.341085 0.353796 0.0821241
0.430396 0.35288 0.0927138
0.509987 0.349767 0.100786
0.582132 0.346044 0.104784
0.64686 0.340154 0.118578
0.700404 0.334356 0.131746
0.741543 0.332006 0.154391
0.780484 0.330037 0.180774
0.811154 0.333059 0.21268
0.8392 0.340139 0.246799
0.862303 0.351354 0.287175
0.88365 0.365728 0.329076
0.901274 0.383673 0.374838
0.920104 0.401389 0.419928
0.935378 0.423697 0.463996
0.949172 0.450401 0.507134
0.960815 0.478187 0.546914
0.970535 0.508049 0.584756
0.979629 0.540612 0.620081
0.986206 0.572702 0.654795
0.992157 0.607095 0.686061
0.996994 0.638605 0.71664
0.998413 0.669764 0.745129
1 0.698177 0.77232
0.00373846 0.408835 0.0729686
0.00375372 0.408957 0.0728771
0.00378424 0.409888 0.0723888
0.00386053 0.412299 0.0715343
0.00430304 0.416068 0.0708476
0.00634775 0.421286 0.0697185
0.0211032 0.426215 0.0673075
0.0929122 0.424536 0.077409
0.21326 0.424567 0.0853895
0.310399 0.422705 0.102602
0.414054 0.421469 0.12575
0.498634 0.420127 0.140078
0.570657 0.416724 0.14519
0.635569 0.412421 0.145693
0.68957 0.407233 0.154726
0.737346 0.402258 0.169009
0.776913 0.398825 0.194598
0.813169 0.396246 0.221241
0.842268 0.399359 0.254795
0.866804 0.405386 0.29279
0.888426 0.415457 0.334905
0.906081 0.428382 0.379904
0.92192 0.444938 0.426352
0.936599 0.463737 0.46949
0.950011 0.483589 0.512566
0.961868 0.506935 0.551843
0.971481 0.532723 0.590585
0.980163 0.559945 0.624857
0.986969 0.588083 0.658412
0.992584 0.619303 0.688563
0.997406 0.648997 0.718379
0.998703 0.678416 0.745037
1 0.70547 0.771328
0.0039826 0.469368 0.109285
0.00399786 0.469474 0.109209
0.00408942 0.470176 0.108629
0.0043183 0.472007 0.107164
0.00474556 0.475273 0.105669
0.00593576 0.479866 0.104311
0.0187839 0.48481 0.0994583
0.0619211 0.48658 0.101625
0.176913 0.485008 0.110323
0.286793 0.484627 0.120867
0.380377 0.481498 0.140291
0.479774 0.480674 0.168032
0.557031 0.479301 0.18349
0.621881 0.476616 0.191012
0.67805 0.472999 0.191638
0.72549 0.468986 0.198856
0.771176 0.463981 0.212818
0.806958 0.461067 0.238285
0.840986 0.458 0.267369
0.867628 0.459648 0.301885
0.890272 0.4645 0.341878
0.909148 0.474479 0.386603
0.924697 0.487175 0.43125
0.938521 0.50132 0.47509
0.950378 0.517769 0.517754
0.962402 0.537133 0.556435
0.97174 0.55848 0.594491
0.980484 0.581155 0.629648
0.987457 0.606729 0.662272
0.992966 0.632166 0.691966
0.997513 0.660319 0.720333
0.998932 0.687022 0.746914
1 0.713161 0.771542
0.00427253 0.521569 0.137499
0.00427253 0.52166 0.137438
0.0043183 0.522377 0.137087
0.00448615 0.524132 0.136202
0.0056611 0.527077 0.134936
0.00860609 0.531182 0.134264
0.0127718 0.53611 0.132296
0.0558938 0.540536 0.128985
0.138323 0.539452 0.139376
0.254505 0.538033 0.150179
0.356069 0.536782 0.166537
0.447089 0.532937 0.187243
0.536416 0.532738 0.216709
0.605692 0.531197 0.230869
0.663554 0.528756 0.237613
0.713466 0.525231 0.238529
0.760098 0.521523 0.243565
0.799969 0.518242 0.259403
0.83444 0.515999 0.285023
0.865278 0.513176 0.315999
0.889357 0.514092 0.352621
0.910384 0.517662 0.393835
0.926299 0.526009 0.437583
0.940536 0.537835 0.481117
0.95137 0.552651 0.521752
0.962036 0.566827 0.562005
0.971923 0.583642 0.598489
0.980179 0.604608 0.633158
0.987686 0.625238 0.666224
0.99321 0.64686 0.695811
0.99733 0.672343 0.723033
0.999191 0.696422 0.749035
1 0.721248 0.772946
0.00495918 0.567315 0.176013
0.00497444 0.567391 0.175982
0.00508125 0.567926 0.175723
0.00537118 0.569314 0.175082
0.00639353 0.571908 0.174365
0.00851453 0.575265 0.17438
0.016907 0.579644 0.174319
0.0357519 0.584207 0.170367
0.115373 0.586374 0.173541
0.228885 0.585077 0.184726
0.329656 0.584543 0.195987
0.422309 0.582681 0.213519
0.506065 0.579217 0.235355
0.584756 0.578988 0.263188
0.647364 0.577035 0.276493
0.69868 0.574807 0.284337
0.747463 0.570993 0.286244
0.790722 0.567208 0.291234
0.827939 0.563882 0.307576
0.859342 0.561807 0.334768
0.886168 0.559853 0.367468
0.908782 0.561181 0.40354
0.926162 0.565835 0.443702
0.941131 0.572198 0.487633
0.952621 0.583246 0.527138
0.962493 0.596094 0.5664
0.971389 0.611322 0.602823
0.979889 0.6262 0.637446
0.987564 0.644388 0.669001
0.993027 0.664057 0.69926
0.997497 0.683909 0.726238
0.999435 0.706477 0.751751
1 0.729412 0.774685
0.00585946 0.608911 0.213855
0.00587472 0.608972 0.21384
0.00596628 0.6094 0.213718
0.00621042 0.610529 0.213428
0.00695811 0.612558 0.21294
0.0118563 0.615274 0.212909
0.0198978 0.618677 0.213428
0.0334173 0.62269 0.211688
0.0853437 0.626657 0.208637
0.191684 0.626108 0.218173
0.304768 0.624857 0.229297
0.398199 0.62414 0.241489
0.483879 0.621042 0.261112
0.559396 0.61799 0.28426
0.627909 0.618585 0.31162
0.682994 0.61738 0.323766
0.733028 0.615488 0.332036
0.778607 0.612009 0.333623
0.818814 0.608164 0.339269
0.853635 0.604807 0.356268
0.880323 0.603235 0.385504
0.905287 0.601205 0.418204
0.924529 0.602487 0.454612
0.940169 0.606424 0.493202
0.953063 0.613901 0.532387
0.962997 0.624689 0.571008
0.972 0.635813 0.606699
0.979217 0.648768 0.641962
0.986877 0.664408 0.672389
0.992569 0.680797 0.702235
0.99707 0.698009 0.728969
0.999664 0.717235 0.754788
1 0.737774 0.776867
0.00805676 0.646082 0.255238
0.00810254 0.646143 0.255222
0.0083772 0.646494 0.255131
0.0091249 0.647425 0.254902
0.0105592 0.649256 0.254765
0.012726 0.652018 0.254719
0.0212863 0.654994 0.255619
0.0420386 0.658793 0.256809
0.0662242 0.662898 0.253208
0.153582 0.665263 0.254398
0.27274 0.664179 0.26479
0.372656 0.662974 0.27602
0.46038 0.662013 0.289235
0.533425 0.658427 0.309636
0.60322 0.655207 0.332906
0.662791 0.655879 0.359655
0.716564 0.654261 0.372686
0.764019 0.652369 0.381918
0.806378 0.648966 0.38378
0.844541 0.64538 0.389578
0.87425 0.643488 0.407599
0.899214 0.642405 0.437018
0.921187 0.641337 0.468681
0.938033 0.642435 0.501671
0.952224 0.645487 0.539239
0.963027 0.651942 0.575936
0.972259 0.661936 0.611475
0.979202 0.673793 0.64477
0.985977 0.685008 0.676783
0.99205 0.698375 0.705303
0.996262 0.714214 0.731533
0.999725 0.73022 0.757198
1 0.74725 0.779431
0.0106966 0.68188 0.298878
0.0107271 0.68191 0.298878
0.010956 0.682185 0.298848
0.0115511 0.682918 0.298802
0.0126802 0.68426 0.298726
0.016968 0.68632 0.298665
0.0256962 0.688899 0.299519
0.0424506 0.691722 0.300618
0.0743572 0.695125 0.299596
0.124636 0.698665 0.296483
0.230045 0.699229 0.302388
0.35111 0.698589 0.31252
0.434302 0.697688 0.323949
0.510018 0.697063 0.338338
0.576471 0.693538 0.357992
0.637491 0.690608 0.381445
0.695628 0.691661 0.409491
0.747539 0.689647 0.423865
0.79115 0.68777 0.434226
0.831861 0.684108 0.436484
0.865904 0.680735 0.441901
0.893523 0.678706 0.458808
0.916152 0.67747 0.485481
0.934524 0.677073 0.515877
0.94995 0.678676 0.54786
0.96173 0.68275 0.581353
0.971832 0.688197 0.616648
0.979385 0.69688 0.649073
0.985611 0.706889 0.680232
0.991119 0.718349 0.709133
0.995697 0.730877 0.735073
0.999451 0.744396 0.75935
0.999893 0.758907 0.781903
0.0161593 0.715068 0.343679
0.0162203 0.715099 0.343679
0.0166934 0.715343 0.343679
0.0180056 0.715984 0.343725
0.0204318 0.717174 0.343832
0.0241703 0.719036 0.34403
0.0292363 0.721492 0.344518
0.0510262 0.72372 0.346319
0.0846418 0.726284 0.348302
0.122332 0.729213 0.345632
0.198062 0.732082 0.343923
0.311986 0.731365 0.353216
0.415641 0.730739 0.36321
0.488975 0.729809 0.375448
0.554223 0.728908 0.390143
0.613809 0.725261 0.410025
0.67187 0.722133 0.434043
0.727581 0.723095 0.459876
0.774807 0.721996 0.472618
0.816556 0.720623 0.481682
0.853635 0.717617 0.483497
0.885008 0.714626 0.489067
0.910735 0.712291 0.506889
0.92961 0.711299 0.532265
0.946593 0.71075 0.560098
0.959579 0.71223 0.590021
0.970291 0.715267 0.62266
0.978958 0.721218 0.653742
0.985275 0.729854 0.684245
0.990875 0.73846 0.712169
0.995361 0.747997 0.739498
0.999054 0.760174 0.762356
0.999619 0.772717 0.784436
0.0215152 0.744991 0.39263
0.0215763 0.745022 0.392645
0.0219425 0.74519 0.392676
0.0229648 0.745632 0.392782
0.0252689 0.746487 0.392996
0.0312505 0.747814 0.393393
0.0396887 0.749737 0.394278
0.0504768 0.751934 0.39588
0.0795911 0.754208 0.397848
0.136599 0.756939 0.398245
0.200885 0.759869 0.395789
0.279866 0.761944 0.397314
0.379614 0.761532 0.405798
0.471183 0.761013 0.414816
0.53167 0.760159 0.425818
0.59173 0.759152 0.438926
0.647349 0.755596 0.457771
0.703487 0.752178 0.480659
0.754849 0.75285 0.508354
0.80058 0.751293 0.520928
0.839231 0.749905 0.529503
0.873396 0.746914 0.531182
0.90277 0.743893 0.536171
0.924407 0.742626 0.551553
0.941909 0.742123 0.575036
0.956573 0.742458 0.602518
0.968032 0.743847 0.629191
0.977646 0.746288 0.65977
0.984649 0.751217 0.688579
0.990509 0.758816 0.715862
0.994842 0.76762 0.741939
0.998581 0.776287 0.766186
0.999481 0.786404 0.787808
0.0328069 0.773449 0.439689
0.0328985 0.773465 0.439689
0.0334783 0.773587 0.439734
0.0350805 0.773922 0.439887
0.0381323 0.774533 0.440162
0.0429541 0.775509 0.440635
0.0496529 0.776883 0.441321
0.0614023 0.778622 0.442542
0.0882582 0.780453 0.444617
0.138323 0.782376 0.446662
0.194598 0.78471 0.445579
0.268635 0.787182 0.443885
0.352316 0.788174 0.4477
0.440253 0.787732 0.45568
0.518746 0.787457 0.464332
0.573159 0.786786 0.474937
0.625605 0.786084 0.488365
0.681376 0.782574 0.50663
0.731517 0.779446 0.527504
0.780758 0.780804 0.551797
0.823484 0.779202 0.564309
0.858946 0.777752 0.573907
0.891295 0.774624 0.575998
0.916609 0.771939 0.581003
0.936843 0.770443 0.595117
0.952758 0.769772 0.615915
0.965179 0.770245 0.64062
0.975555 0.771725 0.66717
0.983063 0.775143 0.693339
0.989609 0.779553 0.720119
0.994522 0.78584 0.745068
0.997528 0.793301 0.768917
0.999557 0.801541 0.791043
0.0414588 0.798505 0.487663
0.0415198 0.798505 0.487663
0.0420081 0.798611 0.487709
0.0441596 0.798886 0.487816
0.049012 0.799405 0.488075
0.0569619 0.800259 0.48864
0.0681773 0.801465 0.489464
0.0826429 0.803037 0.490578
0.100313 0.804791 0.491997
0.137575 0.806699 0.493492
0.201221 0.808499 0.495399
0.267048 0.810452 0.493385
0.336996 0.812436 0.491951
0.413794 0.812818 0.496468
0.493462 0.812421 0.503349
0.559777 0.812177 0.510704
0.609766 0.811521 0.520729
0.660212 0.810666 0.532982
0.710689 0.807218 0.551156
0.759472 0.803906 0.572412
0.805325 0.804822 0.595529
0.844129 0.803861 0.606271
0.877424 0.80296 0.614404
0.90576 0.800626 0.615915
0.929137 0.798413 0.620066
0.948043 0.79675 0.634195
0.961288 0.796078 0.65449
0.972869 0.796231 0.676326
0.98117 0.797696 0.700008
0.988037 0.800153 0.725658
0.993759 0.804608 0.749035
0.996475 0.811002 0.771908
0.999237 0.817197 0.793408
0.0610208 0.821653 0.53077
0.0611276 0.821668 0.53077
0.0618601 0.821729 0.530816
0.0638285 0.821927 0.530953
0.0676127 0.822309 0.531182
0.0737621 0.822889 0.531594
0.0825055 0.823743 0.532174
0.0963149 0.824872 0.533059
0.12372 0.826322 0.53434
0.156481 0.827771 0.536294
0.207263 0.829282 0.538308
0.2692 0.830991 0.539773
0.333837 0.832929 0.537972
0.401022 0.834867 0.536721
0.470878 0.835187 0.54168
0.533822 0.835081 0.548028
0.598688 0.835035 0.555535
0.643565 0.834577 0.565072
0.689952 0.833722 0.576242
0.738369 0.830411 0.592676
0.783597 0.8271 0.611948
0.826322 0.827634 0.634989
0.863203 0.826261 0.646387
0.892805 0.825498 0.65388
0.919051 0.823163 0.655146
0.940993 0.820829 0.658793
0.956893 0.819883 0.670726
0.969055 0.819699 0.688258
0.978805 0.820432 0.709468
0.98613 0.821805 0.730846
0.992416 0.823606 0.754086
0.996719 0.826993 0.775982
0.999115 0.832319 0.796429
0.0834669 0.84332 0.572961
0.0836347 0.84332 0.572961
0.0847944 0.843397 0.572992
0.0879377 0.843565 0.573083
0.0936294 0.843854 0.573281
0.102785 0.844282 0.573632
0.115969 0.844892 0.574151
0.133394 0.845701 0.574853
0.155016 0.846708 0.575753
0.181155 0.847852 0.577173
0.224628 0.849073 0.579004
0.282109 0.850278 0.580926
0.342397 0.851698 0.581201
0.402747 0.853178 0.579965
0.45771 0.854719 0.579141
0.518425 0.854948 0.583597
0.578759 0.854719 0.58941
0.63386 0.854673 0.596155
0.678859 0.854307 0.605615
0.719158 0.853727 0.616938
0.765103 0.850492 0.633677
0.806241 0.847456 0.651133
0.84625 0.8486 0.670787
0.879088 0.847654 0.680858
0.906584 0.846616 0.689143
0.93138 0.844129 0.6907
0.950256 0.842008 0.694255
0.964767 0.840848 0.705577
0.975601 0.840467 0.720851
0.9841 0.840894 0.739193
0.990753 0.84213 0.760189
0.995682 0.844495 0.779995
0.998962 0.847852 0.799893
0.109361 0.861814 0.612406
0.109483 0.861814 0.612406
0.110338 0.86186 0.612451
0.112718 0.861967 0.612543
0.117296 0.862196 0.612726
0.124712 0.862547 0.613016
0.135698 0.863066 0.613458
0.154208 0.863783 0.61413
0.183169 0.864698 0.61503
0.217792 0.865782 0.616144
0.258305 0.866896 0.617838
0.305043 0.868101 0.619745
0.357137 0.869307 0.621881
0.405631 0.870726 0.621729
0.45716 0.871855 0.621088
0.510323 0.873045 0.620356
0.562554 0.873228 0.624216
0.616678 0.872969 0.629419
0.668803 0.872755 0.635431
0.708156 0.872465 0.644007
0.748409 0.871717 0.654215
0.789014 0.868681 0.669398
0.828473 0.865583 0.686748
0.864012 0.866239 0.706096
0.894301 0.865446 0.714733
0.919936 0.864866 0.721691
0.941436 0.86302 0.722789
0.95845 0.861357 0.725628
0.971679 0.860334 0.736019
0.980758 0.859922 0.750729
0.988693 0.860059 0.767208
0.994125 0.861173 0.785397
0.997635 0.862867 0.804562
0.147585 0.879026 0.64889
0.147738 0.879026 0.64889
0.148836 0.879057 0.64892
0.151797 0.879133 0.649012
0.157504 0.879286 0.64918
0.166751 0.87953 0.649424
0.180407 0.879881 0.64979
0.198871 0.880354 0.650278
0.222248 0.880964 0.650919
0.250904 0.881712 0.651743
0.286183 0.882612 0.652811
0.330922 0.883467 0.654521
0.380468 0.884398 0.656214
0.428595 0.885283 0.658137
0.473976 0.886351 0.657771
0.512612 0.88748 0.657115
0.554986 0.888792 0.656565
0.607401 0.889097 0.66041
0.653391 0.889052 0.665492
0.700206 0.889052 0.671504
0.737163 0.888945 0.68014
0.771634 0.88835 0.68983
0.811444 0.885451 0.703319
0.84596 0.882597 0.718669
0.879683 0.882902 0.736843
0.908309 0.881758 0.746044
0.930892 0.881315 0.752789
0.950256 0.879606 0.753628
0.96585 0.877943 0.756008
0.977111 0.877317 0.764645
0.985473 0.877241 0.777157
0.992248 0.87776 0.792432
0.996124 0.87892 0.808804
0.194614 0.89427 0.683909
0.194751 0.89427 0.683909
0.195651 0.894301 0.68394
0.198108 0.894362 0.684016
0.202853 0.894499 0.684169
0.210544 0.894697 0.684413
0.222904 0.895018 0.684764
0.240742 0.895445 0.685222
0.263523 0.895979 0.685832
0.291386 0.896666 0.686381
0.324697 0.897292 0.687129
0.363333 0.897978 0.688182
0.407843 0.89865 0.689647
0.450431 0.899397 0.691203
0.487511 0.900084 0.692821
0.523507 0.900954 0.69247
0.563272 0.901915 0.691875
0.600732 0.903014 0.691447
0.644816 0.903365 0.694789
0.690669 0.903181 0.699397
0.730251 0.903197 0.704723
0.764614 0.903059 0.712489
0.79559 0.902678 0.721721
0.831006 0.899977 0.735302
0.863325 0.897246 0.749844
0.894682 0.897993 0.765148
0.919676 0.897429 0.772961
0.940169 0.896849 0.779858
