luts/RED_FilmBias_Rec2020_N-Log_to_Rec709_BT1886.cube
# Development Color Space = REC709
# Output Gamma Curve = BT1886
# Output Tonemap = MEDIUM_CONTRAST
# Highlight Rolloff = Rolloff 3 - soft
# Resolution = 33 x 33 x 33
LUT_3D_SIZE 9
0 0 0
0.0209659 0.00138857 0.00138857
0.215473 0.0135348 0.0245365
0.469368 0.0413519 0.0811475
0.678019 0.0798962 0.170779
0.834485 0.151476 0.309407
0.932784 0.299672 0.490013
0.981613 0.505989 0.652155
0.999603 0.672923 0.773983
0.00135805 0.0146792 0.00135805
0.0301823 0.0189212 0.00335698
0.252689 0.0231632 0.0254826
0.503532 0.0519875 0.0810712
0.6972 0.0949874 0.166629
0.842771 0.169986 0.305837
0.934874 0.312825 0.489632
0.981994 0.511742 0.652262
0.99968 0.674739 0.773953
0.00350958 0.214099 0.0103761
0.00381476 0.21944 0.00968948
0.279988 0.219364 0.0361639
0.594797 0.19968 0.0791943
0.761563 0.213535 0.173037
0.871733 0.271427 0.319127
0.945144 0.3888 0.494499
0.984466 0.545815 0.65153
1 0.686854 0.773571
0.0039826 0.469368 0.109285
0.00474556 0.475273 0.105669
0.176913 0.485008 0.110323
0.557031 0.479301 0.18349
0.771176 0.463981 0.212818
0.890272 0.4645 0.341878
0.950378 0.517769 0.517754
0.987457 0.606729 0.662272
1 0.713161 0.771542
0.00805676 0.646082 0.255238
0.0105592 0.649256 0.254765
0.0662242 0.662898 0.253208
0.46038 0.662013 0.289235
0.716564 0.654261 0.372686
0.87425 0.643488 0.407599
0.952224 0.645487 0.539239
0.985977 0.685008 0.676783
1 0.74725 0.779431
0.0328069 0.773449 0.439689
0.0381323 0.774533 0.440162
0.0882582 0.780453 0.444617
0.352316 0.788174 0.4477
0.625605 0.786084 0.488365
0.823484 0.779202 0.564309
0.936843 0.770443 0.595117
0.983063 0.775143 0.693339
0.999557 0.801541 0.791043
0.109361 0.861814 0.612406
0.117296 0.862196 0.612726
0.183169 0.864698 0.61503
0.357137 0.869307 0.621881
0.562554 0.873228 0.624216
0.748409 0.871717 0.654215
0.894301 0.865446 0.714733
0.971679 0.860334 0.736019
0.997635 0.862867 0.804562
0.338903 0.920302 0.744701
0.344869 0.920409 0.744854
0.383139 0.921126 0.745785
0.472969 0.922759 0.747982
0.589944 0.92491 0.753307
0.715373 0.927871 0.755413
0.834989 0.927672 0.779171
0.939879 0.922118 0.821897
0.989685 0.918975 0.835462
0.589426 0.956573 0.838483
0.591089 0.956603 0.838544
0.602579 0.956847 0.838972
0.631434 0.957427 0.840009
0.673854 0.958419 0.841932
0.744625 0.959701 0.846983
0.822003 0.961349 0.848707
0.899107 0.961105 0.864363
0.967346 0.957565 0.893324
0 0 1.5259e-05
0.0173953 0.00146487 0.011017
0.208316 0.0131991 0.0451514
0.46479 0.0408484 0.110948
0.676387 0.0810101 0.196094
0.833722 0.153841 0.324834
0.932326 0.300557 0.497017
0.981445 0.50634 0.654398
0.999603 0.672999 0.77467
0.00273136 0.0212253 0.0158541
0.0159304 0.0157015 0.0160067
0.238453 0.0234836 0.0441749
0.495888 0.0565957 0.105104
0.694499 0.0972 0.18909
0.84181 0.17116 0.321355
0.934356 0.314015 0.496529
0.981826 0.512062 0.65449
0.99968 0.674815 0.774655
0.00350958 0.217624 0.0463874
0.0037232 0.225132 0.0415503
0.271107 0.22652 0.0667277
0.587701 0.205814 0.104448
0.755886 0.219196 0.195331
0.870695 0.273671 0.332387
0.944701 0.390372 0.499199
0.984298 0.546059 0.653712
1 0.686946 0.774273
0.00399786 0.470832 0.134127
0.00474556 0.476936 0.130282
0.16173 0.489769 0.133349
0.551949 0.48249 0.207492
0.768734 0.465629 0.232166
0.888319 0.466728 0.354559
0.950118 0.518334 0.52195
0.987335 0.607248 0.6636
1 0.713329 0.772
0.00805676 0.64654 0.269505
0.0105135 0.649683 0.269139
0.0659648 0.66334 0.268849
0.456214 0.663386 0.30103
0.714931 0.655131 0.383536
0.873365 0.644038 0.416327
0.951751 0.645838 0.543252
0.985931 0.685069 0.678172
1 0.747326 0.779812
0.0328527 0.77351 0.446067
0.0381628 0.774594 0.44654
0.0882734 0.780545 0.450813
0.349081 0.788647 0.453178
0.624018 0.786664 0.493645
0.822889 0.779416 0.568185
0.936629 0.770596 0.597284
0.982895 0.77528 0.694545
0.999557 0.801572 0.79144
0.109667 0.861814 0.614649
0.117494 0.862196 0.614984
0.183673 0.864698 0.617273
0.35729 0.869322 0.624063
0.561852 0.873365 0.625971
0.747845 0.871931 0.655802
0.894118 0.865522 0.715846
0.971603 0.860365 0.736736
0.997604 0.862882 0.804974
0.339239 0.920287 0.745357
0.345205 0.920409 0.74551
0.383505 0.921126 0.746441
0.473243 0.922759 0.748653
0.590066 0.92491 0.753948
0.715236 0.927901 0.756008
0.834836 0.927733 0.77966
0.939818 0.922133 0.822263
0.98967 0.918975 0.835645
0.589532 0.956573 0.838697
0.59118 0.956603 0.838758
0.60267 0.956847 0.839185
0.63154 0.957427 0.840223
0.673915 0.958419 0.842145
0.744656 0.959701 0.847196
0.821988 0.961364 0.848875
0.899077 0.96112 0.8645
0.96733 0.95758 0.893416
0.004654 0.0147707 0.130068
0.0181582 0.0183719 0.133974
0.230823 0.0130312 0.204257
0.487739 0.0420844 0.257115
0.682155 0.0862745 0.317586
0.832654 0.163287 0.412131
0.929763 0.310506 0.538521
0.980423 0.509407 0.668315
0.999588 0.67364 0.7794
0.00485237 0.0464485 0.155642
0.0104982 0.0478218 0.166674
0.244327 0.031693 0.216373
0.502663 0.0622263 0.257847
0.693553 0.105852 0.315145
0.838468 0.179202 0.410269
0.931258 0.324193 0.538247
0.980819 0.514992 0.66804
0.999664 0.675441 0.779355
0.00350958 0.237247 0.216342
0.00367742 0.241733 0.225513
0.25037 0.248051 0.251621
0.56173 0.233616 0.255634
0.742992 0.240635 0.309987
0.86424 0.289479 0.404288
0.941817 0.400107 0.532006
0.983276 0.548302 0.66688
1 0.687434 0.778912
0.0040589 0.477043 0.267826
0.00445563 0.482765 0.269612
0.112398 0.504662 0.274372
0.533028 0.494575 0.320409
0.755642 0.475196 0.333944
0.876966 0.479164 0.42768
0.948302 0.522469 0.550164
0.986526 0.610178 0.672496
1 0.714366 0.775494
0.00862135 0.649241 0.355871
0.0104982 0.652323 0.356741
0.064332 0.665202 0.359594
0.43241 0.672114 0.37351
0.706386 0.659297 0.446479
0.868315 0.646662 0.467353
0.947707 0.649485 0.570977
0.985656 0.685481 0.687297
1 0.747875 0.782818
0.0339513 0.773739 0.487205
0.0387427 0.774792 0.488273
0.0895857 0.780819 0.492485
0.346105 0.789502 0.49575
0.616312 0.789807 0.523369
0.819257 0.780911 0.593576
0.934798 0.771496 0.614435
0.981964 0.776181 0.702358
0.999588 0.801755 0.794079
0.111894 0.86186 0.629633
0.119417 0.862242 0.630091
0.187228 0.864713 0.632517
0.358679 0.86949 0.637156
0.558877 0.874052 0.63859
0.745937 0.872724 0.666804
0.892866 0.866026 0.723384
0.971023 0.860533 0.742153
0.997452 0.863035 0.807431
0.341558 0.920256 0.749874
0.347524 0.920378 0.750072
0.386053 0.92108 0.751019
0.475303 0.922759 0.753216
0.590875 0.924971 0.758312
0.714321 0.928176 0.760143
0.834211 0.928038 0.782727
0.939483 0.922225 0.82475
0.989517 0.919036 0.837003
0.590234 0.956573 0.840162
0.591913 0.956619 0.840223
0.603372 0.956863 0.84065
0.632288 0.957427 0.841703
0.674327 0.958419 0.843626
0.7449 0.959701 0.848463
0.821897 0.96141 0.850034
0.898817 0.961257 0.865461
0.967224 0.95761 0.894072
0.0144961 0.09691 0.344518
0.0260624 0.104326 0.35053
0.191485 0.130694 0.390387
0.515953 0.0741283 0.469581
0.704906 0.111574 0.506111
0.836072 0.198367 0.54847
0.926101 0.335637 0.615824
0.978271 0.516869 0.702266
0.999573 0.675685 0.791012
0.0139162 0.121675 0.361318
0.0265354 0.124208 0.370901
0.195285 0.15259 0.406744
0.519448 0.103166 0.473594
0.709117 0.133974 0.506661
0.83827 0.215549 0.548531
0.927337 0.347219 0.615167
0.978546 0.521431 0.70219
0.999649 0.677394 0.791028
0.00653086 0.269886 0.415793
0.0118105 0.270146 0.427863
0.196658 0.280247 0.460334
0.532219 0.267811 0.497627
0.724804 0.272358 0.508919
0.85066 0.319951 0.545388
0.934173 0.417212 0.61178
0.980301 0.553231 0.700679
1 0.689006 0.790463
0.00456245 0.493294 0.462501
0.00544747 0.496574 0.468849
0.116258 0.509026 0.493629
0.513939 0.51014 0.515831
0.733211 0.498482 0.495537
0.867216 0.495354 0.53579
0.943542 0.535348 0.606058
0.984573 0.616678 0.694881
1 0.715999 0.787121
0.00880446 0.652979 0.504677
0.0111696 0.655207 0.506477
0.0732128 0.665873 0.516304
0.414984 0.677592 0.525322
0.690639 0.668818 0.560296
0.856428 0.654246 0.560708
0.940871 0.655604 0.625559
0.985168 0.687434 0.707042
0.999908 0.749615 0.790829
0.0366217 0.774594 0.569512
0.041001 0.775601 0.570199
0.0961624 0.781476 0.57525
0.35552 0.790326 0.582132
0.603845 0.795148 0.593271
0.811475 0.783566 0.642161
0.930404 0.77319 0.653407
0.979324 0.778241 0.724819
0.999634 0.80235 0.800793
0.117311 0.862043 0.662867
0.124697 0.862409 0.663233
0.198077 0.864897 0.665721
0.363516 0.86949 0.669779
0.564218 0.873777 0.673884
0.741726 0.874601 0.69369
0.889998 0.867323 0.742443
0.969421 0.861051 0.756207
0.997147 0.863691 0.813199
0.347662 0.92015 0.761486
0.353521 0.920272 0.761685
0.391928 0.920974 0.762875
0.48072 0.922606 0.765057
0.593088 0.92488 0.769863
0.714748 0.928466 0.771984
0.833432 0.92845 0.790753
0.938628 0.922515 0.830579
0.989013 0.919203 0.841077
0.592248 0.956527 0.844038
0.593927 0.956573 0.844114
0.605325 0.956832 0.844572
0.634333 0.957412 0.845624
0.675456 0.958434 0.847532
0.745586 0.959731 0.851591
0.821805 0.961517 0.853162
0.898665 0.96141 0.868132
0.96698 0.957687 0.895811
0.0311742 0.226642 0.557107
0.0516976 0.228519 0.562417
0.19884 0.259052 0.569726
0.443305 0.280797 0.603052
0.696117 0.218784 0.655421
0.836133 0.254795 0.676555
0.923064 0.379004 0.70222
0.974685 0.535576 0.750072
0.999161 0.680766 0.811154
0.0302739 0.241596 0.563378
0.049836 0.243732 0.568658
0.197772 0.273182 0.576196
0.441688 0.292973 0.610391
0.697597 0.236103 0.657588
0.836973 0.270665 0.676783
0.923552 0.388952 0.702037
0.974884 0.540307 0.749889
0.999237 0.682368 0.811078
0.0276493 0.340291 0.589715
0.0357214 0.340551 0.595438
0.183032 0.354757 0.613626
0.438956 0.376471 0.643061
0.699916 0.342306 0.664073
0.839933 0.363165 0.677195
0.926604 0.44947 0.701167
0.976181 0.569253 0.748486
0.999634 0.692958 0.810636
0.0149233 0.515969 0.614038
0.019028 0.517082 0.618753
0.14609 0.521996 0.639292
0.457298 0.532143 0.655253
0.69659 0.521523 0.671244
0.845747 0.520775 0.669215
0.932448 0.553582 0.69398
0.979538 0.62472 0.74374
0.999908 0.71754 0.80763
0.0128328 0.661723 0.636957
0.0187686 0.663005 0.639429
0.0881666 0.67042 0.652216
0.419928 0.678157 0.669963
0.679591 0.676188 0.681315
0.839231 0.668971 0.658595
0.934615 0.667216 0.688838
0.981659 0.695338 0.741421
0.99942 0.754543 0.803906
0.0466316 0.776013 0.664591
0.0535744 0.776913 0.665537
0.111727 0.781949 0.671336
0.362631 0.789944 0.680262
0.609644 0.795087 0.687877
0.803693 0.787747 0.712505
0.921691 0.778653 0.709148
0.97615 0.781048 0.753994
0.999664 0.803937 0.812528
0.135134 0.862577 0.714809
0.146319 0.862943 0.715312
0.218784 0.865415 0.717174
0.376043 0.869291 0.721309
0.57554 0.873396 0.72697
0.739162 0.876875 0.73521
0.88539 0.868772 0.771908
0.966751 0.861891 0.777569
0.995834 0.865034 0.825101
0.359564 0.919936 0.782666
0.365118 0.920043 0.782849
0.402335 0.920699 0.784085
0.491127 0.922301 0.786694
0.597025 0.924758 0.790082
0.720821 0.928176 0.792676
0.832288 0.929259 0.805554
0.937133 0.923125 0.840909
0.988052 0.919539 0.848783
0.596124 0.95642 0.851499
0.597757 0.956451 0.85156
0.609003 0.95671 0.852033
0.637964 0.957305 0.85304
0.677699 0.958343 0.854292
0.746868 0.959609 0.857771
0.823102 0.961547 0.85977
0.898375 0.961639 0.873274
0.966522 0.957778 0.899199
0.078645 0.402808 0.719951
0.0899214 0.405509 0.721462
0.212055 0.420996 0.727001
0.428443 0.446067 0.739834
0.627558 0.463569 0.753338
0.817044 0.411978 0.785214
0.916899 0.457877 0.796323
0.970397 0.571069 0.812604
0.998001 0.692973 0.844083
0.0791028 0.410819 0.721477
0.0903334 0.413504 0.722972
0.211475 0.428351 0.728893
0.429435 0.453391 0.740856
0.626612 0.469551 0.755489
0.817365 0.420081 0.78584
0.916869 0.46479 0.796353
0.970489 0.574258 0.812497
0.998001 0.694392 0.843992
0.0811017 0.462135 0.730602
0.0946517 0.463188 0.732601
0.20972 0.473106 0.740795
0.437629 0.497566 0.747097
0.620584 0.508736 0.768078
0.818341 0.476814 0.788098
0.917235 0.506874 0.795758
0.97081 0.596704 0.811795
0.997925 0.703975 0.843351
0.0610971 0.566903 0.742443
0.0826123 0.567346 0.744549
0.199832 0.56965 0.754604
0.441474 0.581582 0.764218
0.61355 0.590982 0.785107
0.815564 0.575235 0.790036
0.917296 0.588586 0.793332
0.971756 0.646128 0.809522
0.997711 0.725963 0.841581
0.0596017 0.677333 0.750957
0.0670329 0.677699 0.752529
0.15697 0.680232 0.761181
0.43093 0.683436 0.774609
0.635035 0.692454 0.781994
0.808972 0.6851 0.791318
0.917861 0.683818 0.785275
0.974014 0.708965 0.802213
0.997909 0.76054 0.837537
0.0696269 0.782238 0.764324
0.0742351 0.782696 0.765347
0.162829 0.785641 0.770123
0.391745 0.790494 0.779049
0.618982 0.7944 0.789075
0.796338 0.793286 0.797909
0.908461 0.788998 0.779568
0.971679 0.787991 0.798108
0.998535 0.808576 0.835111
0.184726 0.862959 0.782696
0.193652 0.863218 0.783001
0.251804 0.864881 0.785016
0.40354 0.868315 0.789425
0.585092 0.872404 0.795209
0.74699 0.87631 0.801602
0.881193 0.870634 0.820401
0.960464 0.864973 0.815198
0.99382 0.867445 0.845289
0.387518 0.919936 0.817227
0.39263 0.920027 0.817395
0.427375 0.920684 0.818235
0.504326 0.922377 0.820218
0.60737 0.924819 0.823285
0.729961 0.927703 0.828748
0.834363 0.929915 0.834607
0.934752 0.923583 0.860639
0.98613 0.920119 0.863432
0.605066 0.956329 0.864576
0.606668 0.956359 0.864607
0.617716 0.956619 0.864942
0.644617 0.957214 0.865812
0.683055 0.95816 0.867277
0.749584 0.959365 0.870527
0.827741 0.961089 0.874098
0.89778 0.962158 0.882872
0.965621 0.958007 0.906432
0.213519 0.582818 0.833585
0.224308 0.583947 0.834089
0.299535 0.590234 0.836927
0.461051 0.606226 0.838331
0.605341 0.617945 0.848188
0.757137 0.632319 0.856046
0.896162 0.602594 0.873411
0.962936 0.637125 0.87892
0.9935 0.721813 0.887602
0.214374 0.585962 0.834028
0.225116 0.587091 0.834531
0.299794 0.593271 0.837385
0.460517 0.608545 0.838895
0.605707 0.620615 0.848295
0.756649 0.634562 0.856703
0.896178 0.605112 0.873533
0.962921 0.639368 0.878874
0.993484 0.722881 0.887541
0.216449 0.60589 0.83653
0.226123 0.606806 0.836927
0.303212 0.611414 0.839719
0.457389 0.62414 0.842481
0.608118 0.638392 0.849042
0.753979 0.647791 0.86096
0.896239 0.621866 0.874296
0.962905 0.654551 0.878401
0.99353 0.729519 0.887251
0.194125 0.649668 0.84007
0.209186 0.649958 0.840681
0.301869 0.652811 0.844068
0.45922 0.66244 0.848569
0.617914 0.677348 0.85005
0.749645 0.681407 0.867323
0.894972 0.666529 0.873899
0.962615 0.68687 0.876966
0.993683 0.745647 0.88661
0.185855 0.714168 0.844099
0.196506 0.714366 0.844739
0.286458 0.715267 0.848386
0.469215 0.718364 0.854963
0.62324 0.727733 0.859342
0.743145 0.733471 0.873625
0.892393 0.723964 0.874418
0.961105 0.736339 0.874266
0.993408 0.775418 0.884215
0.19086 0.792584 0.847562
0.203204 0.792752 0.848112
0.282612 0.793957 0.851331
0.445579 0.796429 0.856733
0.621836 0.798306 0.863325
0.765454 0.80383 0.86804
0.886244 0.799786 0.874189
0.959396 0.800671 0.867445
0.993973 0.817426 0.878248
0.267628 0.866072 0.853269
0.276677 0.866239 0.853544
0.336156 0.867384 0.855344
0.45745 0.869825 0.859358
0.606409 0.872755 0.865339
0.755093 0.874907 0.871717
0.876112 0.873838 0.877272
0.950942 0.87155 0.864378
0.990768 0.872068 0.875349
0.446586 0.919982 0.864332
0.45127 0.920073 0.864439
0.476524 0.920699 0.865202
0.535302 0.922118 0.867292
0.624186 0.9243 0.870451
0.73669 0.926421 0.87538
0.846326 0.92842 0.880018
0.932342 0.924712 0.892927
0.981735 0.922255 0.888075
0.625025 0.956313 0.88896
0.626596 0.956344 0.889021
0.636286 0.956558 0.889342
0.656977 0.95697 0.889982
0.694347 0.957717 0.891188
0.756298 0.958984 0.893446
0.836225 0.960555 0.897337
0.900389 0.962478 0.901671
0.964477 0.95816 0.918379
0.41059 0.724605 0.905913
0.416083 0.724971 0.906035
0.452613 0.727428 0.906889
0.537194 0.732662 0.908415
0.633387 0.743572 0.909102
0.736812 0.751629 0.915709
0.849241 0.760266 0.920485
0.945495 0.74342 0.929976
0.986877 0.771099 0.931304
0.410681 0.725551 0.905989
0.416159 0.725902 0.906126
0.452644 0.728359 0.906966
0.537545 0.733532 0.908522
0.63328 0.744396 0.909255
0.737026 0.752468 0.915724
0.849073 0.760952 0.920653
0.945464 0.744274 0.929992
0.986847 0.77171 0.931289
0.411292 0.73196 0.906584
0.416724 0.732311 0.906706
0.452934 0.734737 0.907561
0.539895 0.739483 0.909316
0.632547 0.750118 0.910292
0.738537 0.758236 0.91577
0.847929 0.765667 0.921782
0.945266 0.750088 0.930053
0.986709 0.775845 0.931167
0.411139 0.748486 0.908003
0.417868 0.748608 0.908186
0.454108 0.750866 0.909056
0.545495 0.754742 0.911238
0.633707 0.762615 0.912413
0.742687 0.772076 0.915724
0.844907 0.777737 0.924651
0.944762 0.764904 0.930205
0.986526 0.786557 0.930648
0.409369 0.775418 0.909346
0.416022 0.775494 0.909545
0.460655 0.776013 0.910765
0.546853 0.77879 0.912612
0.642969 0.784466 0.914473
0.749844 0.796536 0.914855
0.841688 0.798047 0.927535
0.943389 0.790204 0.929351
0.985885 0.805631 0.929488
0.415534 0.819547 0.910399
0.422736 0.819608 0.910567
0.466178 0.820096 0.911604
0.543557 0.820874 0.913939
0.650568 0.822782 0.916976
0.754467 0.828763 0.919799
0.837995 0.834104 0.929412
0.940459 0.828489 0.928771
0.984512 0.836255 0.927337
0.447471 0.872541 0.910704
0.452216 0.872602 0.910842
0.484169 0.872969 0.911772
0.552316 0.873991 0.913985
0.647395 0.87538 0.917403
0.758892 0.877592 0.921355
0.854795 0.881575 0.923842
0.935637 0.878645 0.927794
0.982635 0.879652 0.92195
0.531456 0.921889 0.913527
0.534585 0.921935 0.913603
0.555886 0.922225 0.914122
0.600229 0.923003 0.915434
0.663508 0.924193 0.917556
0.753658 0.926009 0.921126
0.850462 0.927779 0.925948
0.928512 0.926986 0.929305
0.97554 0.925399 0.920958
0.658839 0.955795 0.919844
0.659876 0.95581 0.919875
0.667079 0.955947 0.920104
0.685847 0.956329 0.920714
0.71902 0.95697 0.92192
0.770169 0.958206 0.923934
0.842008 0.959869 0.927214
0.909453 0.960983 0.931319
0.963699 0.958495 0.938949
0.606256 0.828275 0.95024
0.607996 0.828397 0.950271
0.619944 0.829236 0.950454
0.651011 0.830915 0.950942
0.697551 0.833921 0.951522
0.764416 0.840345 0.951751
0.833753 0.845869 0.95639
0.91136 0.852338 0.958907
0.973739 0.843961 0.963531
0.606363 0.828565 0.950256
0.608087 0.828702 0.950286
0.620127 0.82948 0.950469
0.651179 0.831174 0.950957
0.697673 0.834165 0.951537
0.764416 0.840574 0.951782
0.833799 0.846143 0.95639
0.911315 0.852537 0.958953
0.973724 0.844175 0.963531
0.607431 0.830457 0.950332
0.609201 0.830564 0.950362
0.621363 0.831235 0.950561
0.652415 0.832898 0.951049
0.698573 0.835813 0.95169
0.764401 0.842191 0.95198
0.834134 0.848066 0.956313
0.910948 0.853834 0.959197
0.973663 0.84567 0.963531
0.610925 0.835065 0.950576
0.61268 0.835172 0.950607
0.624704 0.835843 0.95079
0.655283 0.837446 0.951278
0.700984 0.840162 0.952071
0.76437 0.846418 0.952529
0.835004 0.853101 0.956115
0.910002 0.857282 0.959869
0.973495 0.849622 0.963561
0.615625 0.844007 0.950957
0.617792 0.844053 0.951003
0.631251 0.84448 0.951247
0.658381 0.846067 0.951751
0.705486 0.848402 0.952743
0.764706 0.854398 0.95349
0.837324 0.861295 0.955779
0.908232 0.863767 0.961135
0.973144 0.85713 0.963623
0.62063 0.862104 0.951171
0.622293 0.86215 0.951217
0.633661 0.86247 0.951522
0.66302 0.863249 0.952316
0.708873 0.86537 0.953292
0.769985 0.86862 0.95462
0.843717 0.876005 0.954665
0.905364 0.878157 0.9626
0.971878 0.87454 0.962783
0.625055 0.890715 0.951293
0.62678 0.890745 0.951339
0.638911 0.891005 0.951675
0.669444 0.891508 0.952468
0.712749 0.892332 0.953658
0.779538 0.894575 0.955108
0.849012 0.898207 0.956573
0.903151 0.901244 0.962844
0.969451 0.898329 0.962005
0.658259 0.92607 0.9505
0.659434 0.926085 0.95053
0.667185 0.926177 0.950759
0.686763 0.926436 0.951354
0.722789 0.92697 0.952407
0.779873 0.927794 0.954299
0.853452 0.928817 0.957
0.915022 0.931899 0.958495
0.965591 0.930449 0.9608
0.716869 0.95668 0.951049
0.71754 0.956695 0.951064
0.722179 0.956786 0.951232
0.734462 0.957061 0.95169
0.757366 0.957565 0.952544
0.795392 0.958343 0.954147
0.852689 0.95935 0.956405
0.913634 0.960296 0.959319
0.961212 0.960006 0.961822
