luts/RED_FilmBias_Rec2020_N-Log_to_Rec709_BT1886.cube
# Development Color Space = REC709
# Output Gamma Curve = BT1886
# Output Tonemap = MEDIUM_CONTRAST
# Highlight Rolloff = Rolloff 3 - soft
# Resolution = 33 x 33 x 33
LUT_3D_SIZE 5
0 0 0
0.215473 0.0135348 0.0245365
0.678019 0.0798962 0.170779
0.932784 0.299672 0.490013
0.999603 0.672923 0.773983
0.00350958 0.214099 0.0103761
0.279988 0.219364 0.0361639
0.761563 0.213535 0.173037
0.945144 0.3888 0.494499
1 0.686854 0.773571
0.00805676 0.646082 0.255238
0.0662242 0.662898 0.253208
0.716564 0.654261 0.372686
0.952224 0.645487 0.539239
1 0.74725 0.779431
0.109361 0.861814 0.612406
0.183169 0.864698 0.61503
0.562554 0.873228 0.624216
0.894301 0.865446 0.714733
0.997635 0.862867 0.804562
0.589426 0.956573 0.838483
0.602579 0.956847 0.838972
0.673854 0.958419 0.841932
0.822003 0.961349 0.848707
0.967346 0.957565 0.893324
0.004654 0.0147707 0.130068
0.230823 0.0130312 0.204257
0.682155 0.0862745 0.317586
0.929763 0.310506 0.538521
0.999588 0.67364 0.7794
0.00350958 0.237247 0.216342
0.25037 0.248051 0.251621
0.742992 0.240635 0.309987
0.941817 0.400107 0.532006
1 0.687434 0.778912
0.00862135 0.649241 0.355871
0.064332 0.665202 0.359594
0.706386 0.659297 0.446479
0.947707 0.649485 0.570977
1 0.747875 0.782818
0.111894 0.86186 0.629633
0.187228 0.864713 0.632517
0.558877 0.874052 0.63859
0.892866 0.866026 0.723384
0.997452 0.863035 0.807431
0.590234 0.956573 0.840162
0.603372 0.956863 0.84065
0.674327 0.958419 0.843626
0.821897 0.96141 0.850034
0.967224 0.95761 0.894072
0.0311742 0.226642 0.557107
0.19884 0.259052 0.569726
0.696117 0.218784 0.655421
0.923064 0.379004 0.70222
0.999161 0.680766 0.811154
0.0276493 0.340291 0.589715
0.183032 0.354757 0.613626
0.699916 0.342306 0.664073
0.926604 0.44947 0.701167
0.999634 0.692958 0.810636
0.0128328 0.661723 0.636957
0.0881666 0.67042 0.652216
0.679591 0.676188 0.681315
0.934615 0.667216 0.688838
0.99942 0.754543 0.803906
0.135134 0.862577 0.714809
0.218784 0.865415 0.717174
0.57554 0.873396 0.72697
0.88539 0.868772 0.771908
0.995834 0.865034 0.825101
0.596124 0.95642 0.851499
0.609003 0.95671 0.852033
0.677699 0.958343 0.854292
0.823102 0.961547 0.85977
0.966522 0.957778 0.899199
0.213519 0.582818 0.833585
0.299535 0.590234 0.836927
0.605341 0.617945 0.848188
0.896162 0.602594 0.873411
0.9935 0.721813 0.887602
0.216449 0.60589 0.83653
0.303212 0.611414 0.839719
0.608118 0.638392 0.849042
0.896239 0.621866 0.874296
0.99353 0.729519 0.887251
0.185855 0.714168 0.844099
0.286458 0.715267 0.848386
0.62324 0.727733 0.859342
0.892393 0.723964 0.874418
0.993408 0.775418 0.884215
0.267628 0.866072 0.853269
0.336156 0.867384 0.855344
0.606409 0.872755 0.865339
0.876112 0.873838 0.877272
0.990768 0.872068 0.875349
0.625025 0.956313 0.88896
0.636286 0.956558 0.889342
0.694347 0.957717 0.891188
0.836225 0.960555 0.897337
0.964477 0.95816 0.918379
0.606256 0.828275 0.95024
0.619944 0.829236 0.950454
0.697551 0.833921 0.951522
0.833753 0.845869 0.95639
0.973739 0.843961 0.963531
0.607431 0.830457 0.950332
0.621363 0.831235 0.950561
0.698573 0.835813 0.95169
0.834134 0.848066 0.956313
0.973663 0.84567 0.963531
0.615625 0.844007 0.950957
0.631251 0.84448 0.951247
0.705486 0.848402 0.952743
0.837324 0.861295 0.955779
0.973144 0.85713 0.963623
0.625055 0.890715 0.951293
0.638911 0.891005 0.951675
0.712749 0.892332 0.953658
0.849012 0.898207 0.956573
0.969451 0.898329 0.962005
0.716869 0.95668 0.951049
0.722179 0.956786 0.951232
0.757366 0.957565 0.952544
0.852689 0.95935 0.956405
0.961212 0.960006 0.961822
