luts/RED_FilmBiasOffset_Rec2020_N-Log_to_Rec709_BT1886.cube
# Development Color Space = REC709
# Output Gamma Curve = BT1886
# Output Tonemap = MEDIUM_CONTRAST
# Highlight Rolloff = Rolloff 3 - soft
# Resolution = 33 x 33 x 33
LUT_3D_SIZE 9
0 0 0
1.5259e-05 0 0
0.171374 0.0104677 0.0297856
0.4094 0.0394903 0.0906996
0.604837 0.0863355 0.184955
0.763363 0.188113 0.319036
0.869749 0.36611 0.486686
0.929259 0.56376 0.634028
0.961517 0.719326 0.751431
0.00123598 0.013138 0.00205997
0.0111696 0.0170596 0.0059968
0.217075 0.0208743 0.0276951
0.449607 0.052842 0.0896773
0.628351 0.104677 0.18407
0.773297 0.208759 0.319722
0.872816 0.377752 0.488807
0.929931 0.568292 0.635309
0.961715 0.720699 0.751888
0.00350958 0.218769 0.0165408
0.00361639 0.229755 0.0109255
0.2766 0.222171 0.0313115
0.570718 0.206821 0.0959029
0.717342 0.237034 0.202701
0.818128 0.314641 0.345907
0.888273 0.446586 0.505226
0.934264 0.597803 0.641627
0.962951 0.729946 0.755215
0.0037995 0.470008 0.130648
0.0043946 0.477913 0.119066
0.152697 0.490379 0.0967727
0.577371 0.474479 0.176989
0.771405 0.463249 0.24744
0.863798 0.48719 0.388586
0.914015 0.555276 0.537591
0.94519 0.649165 0.660014
0.966125 0.751995 0.761532
0.00903334 0.63827 0.268238
0.0112154 0.642771 0.263569
0.0662699 0.66096 0.241672
0.491859 0.658625 0.263844
0.756497 0.642618 0.356359
0.881804 0.638697 0.445045
0.933135 0.66038 0.572717
0.958404 0.712978 0.684245
0.971603 0.781109 0.776364
0.0482948 0.762356 0.432288
0.0531624 0.764279 0.430381
0.143374 0.773053 0.421378
0.422614 0.781064 0.411475
0.692027 0.776928 0.446952
0.868574 0.76527 0.532967
0.942672 0.76585 0.615381
0.969024 0.786099 0.712703
0.980652 0.823438 0.793835
0.221302 0.852125 0.569177
0.231876 0.85272 0.568597
0.312535 0.856107 0.565164
0.48455 0.861784 0.562997
0.662684 0.865431 0.566445
0.819211 0.862379 0.602518
0.935271 0.852949 0.678965
0.974624 0.856947 0.747494
0.986648 0.871946 0.816266
0.524376 0.912657 0.685649
0.528618 0.91284 0.685527
0.555627 0.914 0.684718
0.614404 0.916518 0.684535
0.705364 0.918563 0.689555
0.806546 0.92018 0.697719
0.900359 0.918669 0.731411
0.971267 0.9131 0.78999
0.990875 0.916548 0.842206
0.72401 0.951247 0.780072
0.725124 0.951278 0.780133
0.732906 0.951522 0.780529
0.753857 0.952087 0.781628
0.785962 0.953109 0.78352
0.838575 0.954162 0.78967
0.895705 0.955352 0.799268
0.948272 0.954559 0.824613
0.989563 0.950637 0.869429
0 0 1.5259e-05
0.00158694 0.00157168 0.014786
0.176608 0.0116884 0.0567483
0.421942 0.0390631 0.121355
0.613779 0.0860304 0.206455
0.768048 0.189761 0.330922
0.871458 0.367239 0.491768
0.929778 0.564263 0.63563
0.9617 0.719463 0.751888
0.00321965 0.0204013 0.0224765
0.00862135 0.0180819 0.0317082
0.221027 0.0229343 0.0564584
0.459983 0.0557259 0.11632
0.636652 0.106142 0.202945
0.777829 0.209995 0.33109
0.874479 0.378729 0.493919
0.930449 0.56878 0.636896
0.961898 0.720836 0.752346
0.00350958 0.222431 0.0583963
0.00355535 0.236255 0.0456245
0.267933 0.229526 0.0602731
0.57435 0.209857 0.117021
0.721599 0.23859 0.221546
0.820554 0.315724 0.355825
0.889464 0.447684 0.508873
0.934752 0.59826 0.642908
0.963134 0.730068 0.755657
0.0037995 0.471473 0.155093
0.00437934 0.479606 0.143618
0.134661 0.495613 0.116823
0.572839 0.477836 0.195193
0.772335 0.463798 0.259983
0.864683 0.487907 0.39707
0.914611 0.555489 0.540642
0.94548 0.649546 0.660914
0.966262 0.752163 0.761822
0.00900282 0.638926 0.280583
0.0111543 0.643381 0.276051
0.0657664 0.66157 0.255909
0.488106 0.660273 0.274144
0.755627 0.643565 0.364416
0.882139 0.638773 0.45034
0.933471 0.660594 0.574685
0.958602 0.713069 0.685008
0.971695 0.781201 0.776608
0.0484321 0.762676 0.436835
0.0532998 0.764569 0.434958
0.143114 0.773281 0.426017
0.418967 0.78172 0.415579
0.690913 0.777691 0.45069
0.868269 0.765606 0.535241
0.942779 0.765957 0.616449
0.969162 0.78613 0.713191
0.980697 0.823453 0.794064
0.221805 0.852232 0.570809
0.23238 0.852827 0.570245
0.312963 0.856199 0.566812
0.484489 0.861906 0.564492
0.661814 0.865644 0.567803
0.818891 0.862638 0.603662
0.93521 0.85304 0.679652
0.974655 0.856992 0.747768
0.986709 0.871962 0.816373
0.524575 0.912688 0.686183
0.528817 0.912871 0.686061
0.555764 0.914046 0.685252
0.614481 0.916548 0.685023
0.705394 0.918593 0.690028
0.806439 0.920241 0.698146
0.900267 0.918761 0.731701
0.971267 0.913115 0.790158
0.99089 0.916564 0.842268
0.724071 0.951247 0.78024
0.72517 0.951293 0.780285
0.732952 0.951537 0.780682
0.753902 0.952087 0.781781
0.785992 0.953109 0.783673
0.83859 0.954162 0.789807
0.895689 0.955367 0.79939
0.948257 0.954574 0.824704
0.989563 0.950652 0.869474
0.00434882 0.018616 0.12369
0.0104829 0.0213016 0.137148
0.222171 0.0117647 0.216602
0.477577 0.0405432 0.260594
0.654917 0.0981308 0.311299
0.79089 0.200183 0.400015
0.880491 0.37583 0.523568
0.933181 0.567956 0.645914
0.962982 0.720485 0.754971
0.00459297 0.0460059 0.156298
0.00671397 0.0438087 0.175692
0.242313 0.0216068 0.235309
0.500786 0.059266 0.263371
0.671214 0.120668 0.310658
0.798138 0.220737 0.401831
0.883131 0.387549 0.524742
0.933822 0.572351 0.646876
0.963165 0.721843 0.755428
0.00350958 0.242313 0.229297
0.00350958 0.249744 0.240436
0.234043 0.248646 0.259861
0.578561 0.226749 0.255299
0.73756 0.249134 0.313787
0.833768 0.325017 0.411292
0.896513 0.45565 0.530739
0.937942 0.601526 0.651331
0.96437 0.730922 0.758709
0.00390631 0.477302 0.277333
0.00425727 0.484947 0.274998
0.088838 0.511727 0.259358
0.557244 0.490867 0.295277
0.77496 0.469596 0.333654
0.869566 0.492439 0.442588
0.918471 0.557366 0.559808
0.947448 0.652171 0.667002
0.967239 0.753246 0.764065
0.00946059 0.642435 0.355276
0.0110781 0.64686 0.352941
0.0631266 0.664591 0.337942
0.460578 0.670008 0.335286
0.752438 0.648539 0.412222
0.88452 0.639933 0.477791
0.935332 0.662333 0.588418
0.959747 0.713878 0.689952
0.972366 0.781964 0.778134
0.0498512 0.764263 0.467369
0.0542458 0.766003 0.466285
0.142947 0.774319 0.458564
0.412055 0.78407 0.448493
0.684825 0.78175 0.475349
0.866514 0.767926 0.550423
0.943633 0.766247 0.624445
0.969802 0.78645 0.717266
0.981003 0.823667 0.795544
0.225895 0.852903 0.581735
0.236042 0.853513 0.581323
0.316075 0.856825 0.578103
0.484291 0.862638 0.574975
0.657618 0.86688 0.577966
0.817685 0.863813 0.612161
0.934722 0.853635 0.684321
0.974929 0.857114 0.749981
0.986999 0.872068 0.817166
0.526131 0.912932 0.689815
0.530282 0.91313 0.689708
0.556649 0.91429 0.688914
0.615061 0.916808 0.688487
0.705486 0.918807 0.693339
0.805676 0.920623 0.701106
0.899855 0.919234 0.733806
0.971206 0.913283 0.791302
0.990982 0.916625 0.842725
0.724437 0.951308 0.781308
0.725567 0.951354 0.781369
0.733318 0.951598 0.781765
0.754238 0.952148 0.782864
0.786145 0.95317 0.784741
0.838605 0.954253 0.790768
0.895582 0.955505 0.800259
0.94818 0.954742 0.82536
0.989563 0.950698 0.869795
0.00975052 0.107378 0.340932
0.016846 0.112871 0.354299
0.172 0.123781 0.405676
0.523766 0.073228 0.464164
0.703593 0.129763 0.480186
0.818967 0.236133 0.515236
0.894896 0.402274 0.580331
0.940002 0.578485 0.668925
0.966201 0.723308 0.762722
0.00801099 0.133242 0.357717
0.0167239 0.133806 0.373404
0.170718 0.146746 0.420768
0.531655 0.0975357 0.469596
0.712398 0.150576 0.482734
0.824201 0.251911 0.516716
0.897078 0.412314 0.581277
0.940719 0.58265 0.66949
0.96643 0.724605 0.763134
0.00505074 0.278386 0.410727
0.00875868 0.277958 0.425498
0.172396 0.281544 0.466087
0.557092 0.256107 0.493553
0.745937 0.271778 0.489265
0.847288 0.347784 0.522454
0.908751 0.469566 0.586694
0.945068 0.607858 0.673793
0.967636 0.733425 0.765896
0.00453193 0.493462 0.449638
0.00526436 0.498421 0.455604
0.0888533 0.514244 0.478141
0.536431 0.506752 0.489982
0.769146 0.488411 0.467277
0.8757 0.503578 0.520363
0.925978 0.566567 0.596307
0.951797 0.658824 0.683085
0.969985 0.755398 0.770947
0.0102541 0.648371 0.48278
0.0169528 0.651514 0.483375
0.0721752 0.666117 0.485298
0.435721 0.678279 0.476707
0.741115 0.658808 0.506416
0.885237 0.645899 0.536599
0.938811 0.666102 0.61828
0.962081 0.716472 0.701442
0.97409 0.783948 0.782223
0.0527962 0.767025 0.534905
0.06009 0.76849 0.53402
0.149248 0.776349 0.528649
0.413535 0.787213 0.517494
0.674861 0.789395 0.52871
0.864134 0.771618 0.587289
0.94522 0.767605 0.642924
0.971466 0.787533 0.726223
0.981796 0.824292 0.799329
0.236316 0.853834 0.609583
0.246967 0.854414 0.609323
0.325307 0.857908 0.607492
0.485115 0.864302 0.602548
0.660716 0.868193 0.606683
0.815 0.866667 0.632059
0.933547 0.855207 0.695888
0.975647 0.857435 0.755611
0.987671 0.872404 0.819623
0.530434 0.913466 0.699474
0.534524 0.913664 0.699367
0.559121 0.914855 0.698772
0.616983 0.917311 0.697887
0.705898 0.919264 0.702495
0.805814 0.921218 0.710201
0.899229 0.92018 0.739544
0.971069 0.91368 0.794308
0.991272 0.916716 0.844144
0.725505 0.951476 0.784192
0.726619 0.951507 0.784237
0.734295 0.951782 0.784619
0.755169 0.952331 0.785702
0.786557 0.953338 0.787549
0.838666 0.954437 0.793347
0.895445 0.95581 0.802686
0.94818 0.954986 0.827207
0.989548 0.95082 0.870634
0.0249332 0.244083 0.530831
0.0419165 0.244617 0.538735
0.187518 0.265431 0.56051
0.45864 0.278553 0.595117
0.721721 0.232578 0.619486
0.843534 0.301885 0.624628
0.910414 0.446265 0.649027
0.949432 0.597696 0.705074
0.971069 0.728923 0.77734
0.0244602 0.258762 0.536767
0.0403449 0.259617 0.544549
0.187243 0.279911 0.566003
0.456916 0.291508 0.600977
0.724559 0.247181 0.62182
0.845823 0.314534 0.625269
0.911788 0.45333 0.649714
0.94992 0.600763 0.705547
0.971237 0.730175 0.777646
0.0258793 0.353262 0.561593
0.03299 0.353414 0.56997
0.173342 0.363882 0.597086
0.453895 0.379126 0.627008
0.738155 0.342626 0.630426
0.858656 0.390707 0.628473
0.919676 0.498939 0.653513
0.952972 0.621118 0.708217
0.972168 0.738521 0.779706
0.0149844 0.520928 0.583703
0.0178988 0.522911 0.589075
0.141772 0.530632 0.612924
0.479713 0.536507 0.629191
0.744396 0.514946 0.629969
0.87538 0.524376 0.623041
0.932097 0.581262 0.655253
0.959304 0.666499 0.713344
0.973831 0.758907 0.784619
0.024094 0.659464 0.595956
0.0287175 0.661524 0.598154
0.0970016 0.672709 0.606821
0.444892 0.682063 0.614435
0.731441 0.669322 0.619989
0.881148 0.659358 0.607416
0.942687 0.675471 0.657099
0.966232 0.723323 0.721706
0.977157 0.787655 0.790158
0.0729839 0.770611 0.613718
0.0859541 0.771878 0.613718
0.174243 0.77879 0.614466
0.421134 0.789883 0.610513
0.67805 0.793149 0.614542
0.860838 0.776867 0.641749
0.946014 0.771542 0.674723
0.973678 0.790143 0.740627
0.983261 0.825742 0.805844
0.260563 0.855711 0.653376
0.270573 0.85626 0.653254
0.345266 0.859525 0.651377
0.492531 0.865965 0.64712
0.666209 0.86981 0.649699
0.815106 0.870008 0.665705
0.932555 0.857435 0.713817
0.976638 0.858289 0.764385
0.988876 0.873121 0.824048
0.538979 0.914351 0.717678
0.542107 0.914549 0.717586
0.564675 0.915694 0.717098
0.62179 0.917906 0.716289
0.707149 0.920073 0.719585
0.809094 0.921859 0.727871
0.898421 0.921981 0.749844
0.970718 0.914473 0.799847
0.991867 0.91693 0.846601
0.727626 0.951736 0.789914
0.728725 0.951766 0.789975
0.736263 0.952041 0.790341
0.757 0.95259 0.791409
0.787411 0.953597 0.79324
0.838911 0.954726 0.798703
0.896193 0.956161 0.808087
0.948196 0.955413 0.830762
0.989532 0.951049 0.872282
0.0937209 0.428702 0.673045
0.110369 0.430472 0.675868
0.231998 0.44239 0.688533
0.457954 0.460212 0.706477
0.671809 0.471763 0.718273
0.851942 0.440131 0.72813
0.926162 0.516579 0.73167
0.960037 0.631632 0.755261
0.97731 0.74258 0.8009
0.0939193 0.4365 0.674662
0.109377 0.438315 0.677485
0.231998 0.449622 0.690318
0.458824 0.468177 0.70724
0.671519 0.477806 0.720317
0.852644 0.446662 0.728832
0.926741 0.520989 0.731991
0.960449 0.63415 0.755489
0.977417 0.743648 0.801114
0.10074 0.484916 0.684352
0.113375 0.485908 0.687617
0.233555 0.494453 0.701198
0.469093 0.511955 0.711818
0.670039 0.517052 0.732357
0.857084 0.490974 0.731792
0.930251 0.549966 0.733074
0.962737 0.65037 0.757076
0.978195 0.750835 0.802533
0.0843977 0.579477 0.695033
0.105821 0.580072 0.697597
0.234714 0.583551 0.711177
0.482475 0.590463 0.725231
0.667613 0.596033 0.74522
0.864454 0.574823 0.733364
0.937133 0.611292 0.734524
0.966766 0.683772 0.760021
0.980301 0.767178 0.805554
0.082475 0.682948 0.701915
0.0902419 0.683589 0.70396
0.210895 0.687358 0.714351
0.483345 0.690501 0.729137
0.702708 0.695003 0.733623
0.865309 0.677455 0.730282
0.943954 0.688136 0.730892
0.972091 0.732662 0.762554
0.982483 0.793133 0.810498
0.139727 0.780514 0.702449
0.155138 0.781415 0.702953
0.249195 0.786786 0.706004
0.462608 0.793286 0.711147
0.683452 0.796902 0.714427
0.856977 0.784817 0.723201
0.945159 0.78233 0.722667
0.976471 0.795743 0.766308
0.986633 0.829709 0.817761
0.322332 0.859297 0.71574
0.331289 0.85977 0.715663
0.384588 0.862928 0.715114
0.518929 0.867674 0.714733
0.669352 0.871962 0.713787
0.822828 0.871855 0.725536
0.931991 0.861082 0.752499
0.977691 0.860563 0.782132
0.99086 0.875029 0.832639
0.55436 0.915785 0.749203
0.55758 0.915923 0.749218
0.579522 0.916823 0.748913
0.633768 0.91899 0.748043
0.711711 0.921538 0.748714
0.815534 0.923186 0.756298
0.900664 0.924071 0.773205
0.970657 0.915511 0.81181
0.992721 0.917601 0.851804
0.732525 0.952132 0.802686
0.733577 0.952178 0.802686
0.741131 0.952468 0.802716
0.760311 0.953063 0.80354
0.789609 0.954086 0.805341
0.839658 0.955306 0.809628
0.899031 0.956466 0.818372
0.948257 0.956344 0.838132
0.989563 0.951583 0.875578
0.294881 0.60531 0.780545
0.305898 0.606027 0.781491
0.378363 0.609995 0.787167
0.529366 0.622415 0.793332
0.672129 0.629145 0.80528
0.815732 0.639719 0.811368
0.931838 0.626032 0.812024
0.97023 0.685405 0.81619
0.984955 0.767849 0.836591
0.295613 0.608087 0.781018
0.306584 0.60882 0.781964
0.379019 0.612589 0.787717
0.529702 0.624689 0.793866
0.672938 0.631739 0.805371
0.815488 0.641917 0.812024
0.931975 0.628397 0.812177
0.970413 0.686885 0.816297
0.985031 0.768536 0.836698
0.300587 0.626184 0.783886
0.311604 0.626963 0.784802
0.38378 0.63003 0.790356
0.532113 0.639689 0.797147
0.678325 0.64863 0.805905
0.813825 0.656291 0.816403
0.933028 0.642145 0.813291
0.971435 0.696605 0.8168
0.985595 0.773175 0.8374
0.297902 0.664973 0.788251
0.312078 0.665293 0.789258
0.397009 0.667521 0.794644
0.540429 0.674617 0.802518
0.690562 0.685649 0.805524
0.812604 0.687587 0.822904
0.935241 0.674754 0.813596
0.97319 0.718441 0.818051
0.986893 0.785245 0.838926
0.297276 0.724254 0.791867
0.31017 0.724559 0.79266
0.396689 0.725673 0.797986
0.551293 0.727581 0.807172
0.69604 0.733562 0.813291
0.812482 0.738216 0.827482
0.937026 0.724544 0.81413
0.975494 0.75494 0.818586
0.988815 0.805097 0.841047
0.333715 0.797467 0.793423
0.34548 0.797742 0.79411
0.414862 0.799298 0.798428
0.546319 0.802762 0.805508
0.704692 0.804547 0.811322
0.837079 0.805219 0.811994
0.936522 0.792721 0.81178
0.978454 0.805905 0.817533
0.99057 0.837186 0.844038
0.427955 0.865721 0.786511
0.435294 0.86595 0.786679
0.481727 0.867491 0.787762
0.573098 0.870909 0.7897
0.692119 0.874449 0.79176
0.827222 0.875074 0.797879
0.929976 0.866346 0.807706
0.977935 0.866377 0.813993
0.993027 0.878737 0.847807
0.59472 0.91754 0.796994
0.597589 0.917662 0.796979
0.616922 0.918456 0.796826
0.65977 0.920302 0.796872
0.726024 0.922972 0.79649
0.817472 0.925307 0.800412
0.910262 0.924453 0.814343
0.970871 0.91751 0.836027
0.993408 0.919402 0.862196
0.744732 0.953079 0.824811
0.745769 0.953124 0.824826
0.752621 0.953384 0.824872
0.767742 0.954055 0.824857
0.795422 0.955169 0.825772
0.842145 0.956436 0.829084
0.904692 0.956924 0.838361
0.95108 0.957198 0.853697
0.98999 0.952255 0.882887
0.54229 0.740093 0.858122
0.546288 0.740353 0.858366
0.573312 0.742092 0.859968
0.639918 0.745892 0.862943
0.723171 0.752697 0.865003
0.812528 0.759258 0.873411
0.905577 0.765637 0.875166
0.973663 0.762127 0.873625
0.991348 0.805508 0.879164
0.542748 0.740887 0.858198
0.546746 0.741146 0.858442
0.573739 0.742885 0.860044
0.640208 0.746639 0.863035
0.723217 0.75346 0.865125
0.812741 0.760082 0.873381
0.905516 0.766278 0.875349
0.973693 0.762737 0.873655
0.991379 0.805905 0.87921
0.545937 0.746365 0.858717
0.549889 0.746609 0.858961
0.57673 0.748333 0.860533
0.642161 0.751781 0.863706
0.723552 0.758618 0.865965
0.814252 0.765698 0.873182
0.905119 0.770672 0.876585
0.973846 0.766995 0.873899
0.991623 0.808667 0.879499
0.553033 0.760418 0.859937
0.557733 0.76051 0.860258
0.584634 0.762112 0.861814
0.647105 0.76492 0.865309
0.724788 0.77171 0.86804
0.81883 0.777935 0.872862
0.904112 0.781872 0.879713
0.974227 0.777844 0.87451
0.992203 0.815991 0.879927
0.556817 0.786679 0.860868
0.562615 0.786755 0.861158
0.591836 0.787137 0.863096
0.652659 0.788602 0.866636
0.733242 0.792218 0.870268
0.82829 0.800214 0.87097
0.902541 0.802808 0.882765
0.974975 0.797238 0.874449
0.993179 0.828962 0.880751
0.561944 0.826444 0.861601
0.566171 0.826596 0.861845
0.595407 0.827314 0.863462
0.658793 0.828748 0.867216
0.744533 0.829389 0.871794
0.835294 0.832837 0.873976
0.902846 0.836149 0.884321
0.975387 0.828931 0.874754
0.994049 0.850538 0.881346
0.598535 0.876722 0.858152
0.60145 0.876783 0.858366
0.621302 0.877211 0.859815
0.670237 0.878386 0.862501
0.743114 0.879988 0.865751
0.838422 0.880812 0.8692
0.918227 0.880629 0.868635
0.974472 0.874128 0.873518
0.995285 0.883986 0.880568
0.664424 0.922057 0.849744
0.6663 0.922133 0.84979
0.679133 0.922683 0.850019
0.711177 0.924041 0.850629
0.757214 0.92549 0.851957
0.830411 0.927062 0.854032
0.913848 0.926085 0.863661
0.969635 0.921187 0.871489
0.994293 0.922606 0.881193
0.768261 0.954467 0.858915
0.768978 0.954498 0.858915
0.773968 0.954757 0.858915
0.787106 0.955413 0.858946
0.811566 0.956436 0.859251
0.85037 0.957412 0.861387
0.90692 0.957961 0.867842
0.957809 0.957275 0.880323
0.990646 0.953719 0.897368
0.729885 0.836225 0.909865
0.731075 0.836332 0.909941
0.739193 0.836957 0.910399
0.759564 0.838529 0.911528
0.795895 0.841031 0.912749
0.848661 0.845533 0.913634
0.902358 0.849638 0.91957
0.95671 0.85417 0.91873
0.993576 0.856611 0.918349
0.729992 0.836484 0.90988
0.731182 0.836576 0.909957
0.739284 0.837217 0.910414
0.75967 0.838773 0.911528
0.795972 0.841276 0.912779
0.848692 0.845731 0.91368
0.902419 0.849867 0.919539
0.95668 0.854368 0.918776
0.993591 0.856764 0.918364
0.730724 0.838285 0.909972
0.731914 0.838376 0.910033
0.739986 0.839002 0.910491
0.760327 0.840543 0.911604
0.796536 0.842985 0.912902
0.848798 0.847166 0.913893
0.902861 0.851499 0.919371
0.956481 0.855802 0.919127
0.993637 0.857893 0.918441
0.732723 0.842985 0.910201
0.733898 0.843076 0.910262
0.741894 0.843702 0.910719
0.762127 0.845197 0.911803
0.798306 0.847028 0.913314
0.849149 0.850904 0.914504
0.904005 0.855772 0.918929
0.955978 0.859586 0.920058
0.993759 0.860853 0.918654
0.735805 0.851621 0.910582
0.737255 0.851637 0.910674
0.746197 0.851911 0.911223
0.766888 0.852888 0.912306
0.801938 0.854215 0.914076
0.850111 0.857969 0.915557
0.906172 0.863813 0.918135
0.955169 0.865965 0.921874
0.993988 0.866468 0.919081
0.740368 0.867872 0.910903
0.741695 0.867903 0.910979
0.750774 0.868025 0.911559
0.773297 0.868421 0.912871
0.805676 0.869825 0.914626
0.854154 0.872724 0.916426
0.91162 0.878996 0.915938
0.954498 0.878538 0.923842
0.994018 0.878874 0.919127
0.747921 0.895186 0.910231
0.749004 0.895216 0.910323
0.756848 0.895491 0.910765
0.776928 0.895766 0.911971
0.810224 0.896162 0.913893
0.861845 0.897093 0.915785
0.916228 0.900618 0.916793
0.954314 0.901396 0.923079
0.994171 0.898482 0.919463
0.768887 0.928115 0.904448
0.769787 0.928145 0.904463
0.776318 0.928298 0.904753
0.790249 0.928725 0.905516
0.816266 0.92961 0.906477
0.859602 0.930648 0.908248
0.918929 0.930556 0.911452
0.963012 0.929702 0.912215
0.993271 0.926757 0.918166
0.812619 0.956909 0.897765
0.813107 0.956924 0.89778
0.816495 0.957046 0.897887
0.825483 0.957366 0.898161
0.841382 0.957885 0.898665
0.869627 0.958816 0.899596
0.913619 0.959487 0.903304
0.96022 0.958679 0.910796
0.990539 0.955825 0.918379
