luts/RED_Achromic_Rec2020_N-Log_to_Rec709_BT1886.cube
# Development Color Space = REC709
# Output Gamma Curve = BT1886
# Output Tonemap = MEDIUM_CONTRAST
# Highlight Rolloff = Rolloff 3 - soft
# Resolution = 33 x 33 x 33
LUT_3D_SIZE 9
0 0 0
0 0 0
0.0885786 0.0885939 0.0885939
0.2383 0.2383 0.238331
0.367178 0.367193 0.367224
0.488151 0.488167 0.488197
0.604547 0.604562 0.604593
0.725765 0.72578 0.725811
0.837613 0.837629 0.837659
0 0 0
0 0 0
0.110918 0.110918 0.110933
0.255818 0.255818 0.255848
0.380102 0.380102 0.380148
0.49514 0.495155 0.495201
0.607919 0.607935 0.60798
0.727611 0.727611 0.727657
0.838254 0.838254 0.8383
0.163287 0.163287 0.163302
0.164157 0.164172 0.164172
0.242329 0.242329 0.242359
0.350195 0.350195 0.350225
0.442649 0.442664 0.442695
0.533181 0.533196 0.533227
0.629923 0.629923 0.629969
0.739101 0.739116 0.739147
0.842756 0.842771 0.842802
0.355016 0.355032 0.355062
0.355261 0.355261 0.355291
0.393988 0.393988 0.394018
0.460655 0.46067 0.4607
0.522423 0.522438 0.522484
0.591302 0.591318 0.591363
0.672068 0.672084 0.672129
0.764492 0.764508 0.764538
0.853437 0.853452 0.853483
0.486259 0.486259 0.486305
0.48658 0.486595 0.486641
0.507118 0.507134 0.507179
0.550317 0.550317 0.550362
0.597055 0.597055 0.597101
0.653941 0.653956 0.654002
0.722255 0.722271 0.722316
0.797543 0.797559 0.797589
0.869627 0.869627 0.869673
0.599985 0.6 0.600031
0.602121 0.602136 0.602167
0.616541 0.616556 0.616587
0.645396 0.645411 0.645441
0.681437 0.681453 0.681483
0.72755 0.727565 0.727596
0.781491 0.781491 0.781537
0.838804 0.838819 0.838849
0.893248 0.893263 0.893278
0.725475 0.72549 0.725521
0.726619 0.726635 0.726665
0.73431 0.734325 0.734356
0.751385 0.7514 0.751446
0.774319 0.774319 0.774365
0.80618 0.80618 0.806226
0.844022 0.844038 0.844068
0.884138 0.884153 0.884184
0.92137 0.92137 0.921401
0.840406 0.840421 0.840452
0.840833 0.840848 0.840879
0.843671 0.843687 0.843717
0.850629 0.850645 0.850675
0.862043 0.862043 0.862074
0.878676 0.878691 0.878721
0.901015 0.90103 0.901061
0.92549 0.925505 0.925521
0.948531 0.948531 0.948562
0.921798 0.921798 0.921828
0.92192 0.921935 0.92195
0.922835 0.92285 0.922866
0.925124 0.925139 0.925155
0.928649 0.928649 0.928679
0.935317 0.935332 0.935347
0.945388 0.945388 0.945418
0.957961 0.957977 0.957992
0.97113 0.97113 0.971145
0 0 0
0 0 0
0.0928359 0.0928359 0.0928511
0.241703 0.241703 0.241718
0.370001 0.370016 0.370047
0.489632 0.489647 0.489693
0.605249 0.605264 0.60531
0.726146 0.726146 0.726192
0.837751 0.837751 0.837781
0 0 0
0 0 0
0.116701 0.116701 0.116716
0.259556 0.259571 0.259586
0.382712 0.382712 0.382742
0.496468 0.496483 0.496529
0.608652 0.608667 0.608713
0.727977 0.727977 0.728023
0.838376 0.838392 0.838422
0.166873 0.166873 0.166888
0.167742 0.167742 0.167758
0.245258 0.245274 0.245289
0.352392 0.352392 0.352422
0.444068 0.444068 0.444114
0.534081 0.534096 0.534127
0.630503 0.630518 0.630564
0.739437 0.739452 0.739483
0.842893 0.842893 0.842924
0.356283 0.356298 0.356329
0.356512 0.356527 0.356558
0.395224 0.395224 0.395254
0.461524 0.46154 0.46157
0.523079 0.523095 0.523125
0.591806 0.591806 0.591852
0.672435 0.67245 0.672496
0.764706 0.764721 0.764767
0.853544 0.853559 0.85359
0.486671 0.486671 0.486717
0.487037 0.487053 0.487083
0.507698 0.507713 0.507744
0.550713 0.550729 0.550759
0.597391 0.597406 0.597452
0.654215 0.654231 0.654276
0.722469 0.722484 0.722515
0.797696 0.797711 0.797742
0.869688 0.869703 0.869734
0.600259 0.600259 0.600305
0.602472 0.602487 0.602518
0.616815 0.616831 0.616876
0.64564 0.645655 0.645685
0.68162 0.681636 0.681666
0.727687 0.727703 0.727733
0.781598 0.781613 0.781643
0.83888 0.83888 0.838926
0.893294 0.893294 0.893324
0.725628 0.725628 0.725673
0.726757 0.726772 0.726818
0.734447 0.734462 0.734493
0.751507 0.751522 0.751553
0.774395 0.774411 0.774456
0.806241 0.806256 0.806287
0.844068 0.844083 0.844114
0.884184 0.884184 0.884215
0.921386 0.921401 0.921431
0.840467 0.840467 0.840513
0.840879 0.840894 0.840925
0.843717 0.843732 0.843763
0.850675 0.85069 0.850721
0.862074 0.862074 0.862119
0.878706 0.878721 0.878752
0.901045 0.901045 0.901076
0.925505 0.925505 0.925536
0.948531 0.948547 0.948562
0.921813 0.921813 0.921843
0.921935 0.92195 0.921965
0.92285 0.922866 0.922881
0.925139 0.925139 0.92517
0.928664 0.928664 0.928695
0.935332 0.935332 0.935363
0.945388 0.945403 0.945418
0.957961 0.957977 0.957992
0.97113 0.97113 0.971145
0.000198367 0.000198367 0.000198367
0.0104219 0.0104219 0.0104219
0.130632 0.130632 0.130648
0.268742 0.268742 0.268757
0.388113 0.388113 0.388144
0.49929 0.499306 0.499352
0.610224 0.610239 0.610269
0.728725 0.72874 0.728771
0.838636 0.838651 0.838682
0.0192721 0.0192721 0.0192721
0.0417029 0.0417029 0.0417029
0.154269 0.154269 0.154284
0.284901 0.284916 0.284932
0.398932 0.398947 0.398978
0.505501 0.505516 0.505547
0.613703 0.613718 0.613764
0.73048 0.730495 0.730526
0.839277 0.839292 0.839323
0.189914 0.189929 0.189929
0.19382 0.19382 0.193835
0.266743 0.266743 0.266773
0.366339 0.366339 0.366369
0.453391 0.453407 0.453452
0.540413 0.540429 0.540475
0.634531 0.634531 0.634577
0.741756 0.741772 0.741802
0.843763 0.843778 0.843809
0.364157 0.364172 0.364202
0.364355 0.36437 0.364401
0.403632 0.403647 0.403677
0.467475 0.467491 0.467521
0.52755 0.527565 0.527596
0.595178 0.595193 0.595239
0.674952 0.674952 0.674998
0.766232 0.766232 0.766278
0.854261 0.854276 0.854307
0.489601 0.489616 0.489647
0.490135 0.490135 0.490181
0.511681 0.511696 0.511727
0.553506 0.553521 0.553552
0.599771 0.599786 0.599832
0.656107 0.656123 0.656153
0.723918 0.723918 0.723964
0.798642 0.798657 0.798688
0.870176 0.870192 0.870222
0.602396 0.602411 0.602441
0.604822 0.604837 0.604868
0.618769 0.618784 0.61883
0.647318 0.647318 0.647364
0.682902 0.682918 0.682963
0.728679 0.728679 0.728725
0.782361 0.782361 0.782406
0.839353 0.839368 0.839399
0.893584 0.893599 0.893614
0.72665 0.72665 0.726696
0.727764 0.727779 0.727825
0.735409 0.735424 0.735454
0.752331 0.752346 0.752377
0.775021 0.775036 0.775082
0.806683 0.806699 0.806745
0.844404 0.844419 0.84445
0.884428 0.884428 0.884459
0.921538 0.921538 0.921569
0.840833 0.840833 0.840879
0.841245 0.84126 0.841291
0.844068 0.844083 0.844114
0.850996 0.851011 0.851041
0.862318 0.862318 0.862364
0.878904 0.87892 0.87895
0.901183 0.901183 0.901213
0.925582 0.925597 0.925612
0.948592 0.948592 0.948623
0.92192 0.92192 0.92195
0.922042 0.922057 0.922087
0.922957 0.922972 0.922988
0.925231 0.925231 0.925261
0.92874 0.92874 0.928771
0.935393 0.935409 0.935424
0.945434 0.945449 0.945464
0.958007 0.958007 0.958022
0.971145 0.971145 0.971176
0.117861 0.117861 0.117861
0.134447 0.134447 0.134447
0.218326 0.218341 0.218357
0.326757 0.326772 0.326787
0.426093 0.426108 0.426139
0.521691 0.521706 0.521752
0.622705 0.622721 0.622766
0.735225 0.735241 0.735271
0.841154 0.841169 0.841199
0.137606 0.137606 0.137621
0.15436 0.15436 0.154376
0.233845 0.233845 0.23386
0.338491 0.338506 0.338537
0.433692 0.433707 0.433738
0.52668 0.526696 0.526741
0.625528 0.625544 0.625574
0.736797 0.736797 0.736843
0.841794 0.84181 0.84184
0.24126 0.241276 0.241291
0.251225 0.25124 0.251255
0.31249 0.31249 0.31252
0.398596 0.398611 0.398642
0.475074 0.47509 0.47512
0.554376 0.554391 0.554437
0.644358 0.644373 0.644404
0.747662 0.747677 0.747707
0.846067 0.846082 0.846113
0.383948 0.383948 0.383978
0.38645 0.38645 0.386496
0.424643 0.424643 0.424689
0.481621 0.481636 0.481666
0.538872 0.538888 0.538918
0.603769 0.603784 0.60383
0.681392 0.681392 0.681437
0.770169 0.770184 0.770214
0.856229 0.856245 0.856275
0.497719 0.497734 0.497765
0.498558 0.498573 0.498619
0.521965 0.521981 0.522026
0.560815 0.56083 0.560861
0.605875 0.60589 0.605936
0.66154 0.661555 0.661585
0.727718 0.727733 0.727779
0.800977 0.800992 0.801022
0.871519 0.871534 0.871565
0.608423 0.608438 0.608484
0.610483 0.610483 0.610529
0.623926 0.623941 0.623972
0.651774 0.651789 0.65182
0.686351 0.686366 0.686397
0.731304 0.731319 0.73135
0.78439 0.784405 0.784436
0.84062 0.840635 0.840665
0.894362 0.894377 0.894408
0.729366 0.729381 0.729412
0.730449 0.730465 0.730495
0.737957 0.737972 0.738018
0.754543 0.754559 0.754604
0.776699 0.776715 0.776761
0.807904 0.807919 0.80795
0.845304 0.845319 0.84535
0.8851 0.8851 0.88513
0.921935 0.921935 0.921965
0.84181 0.841825 0.841856
0.842222 0.842237 0.842268
0.844999 0.844999 0.845045
0.851865 0.851881 0.851911
0.862974 0.862989 0.86302
0.879454 0.879454 0.879484
0.901549 0.901564 0.901595
0.925795 0.925811 0.925841
0.948745 0.948745 0.948775
0.922225 0.922225 0.922255
0.922347 0.922362 0.922377
0.923262 0.923262 0.923293
0.92546 0.925475 0.92549
0.928954 0.928954 0.928985
0.935592 0.935592 0.935622
0.945571 0.945571 0.945602
0.958083 0.958099 0.958114
0.971191 0.971206 0.971222
0.260441 0.260456 0.260471
0.270466 0.270466 0.270497
0.323064 0.323064 0.323095
0.402274 0.402274 0.402319
0.475883 0.475883 0.475929
0.554284 0.554299 0.55433
0.644007 0.644022 0.644053
0.747311 0.747326 0.747356
0.845914 0.84593 0.84596
0.271397 0.271397 0.271427
0.281178 0.281193 0.281209
0.332082 0.332082 0.332113
0.408515 0.40853 0.40856
0.480476 0.480491 0.480522
0.557458 0.557473 0.557519
0.646342 0.646342 0.646387
0.748775 0.748775 0.748821
0.84651 0.84651 0.84654
0.328771 0.328771 0.328801
0.337057 0.337057 0.337087
0.381155 0.381155 0.381186
0.445045 0.44506 0.445106
0.507729 0.507744 0.50779
0.578012 0.578027 0.578073
0.662379 0.662379 0.662425
0.758114 0.758129 0.758175
0.850431 0.850431 0.850477
0.424491 0.424491 0.424536
0.429969 0.429984 0.430014
0.459861 0.459876 0.459907
0.506676 0.506676 0.506722
0.557671 0.557687 0.557717
0.618921 0.618936 0.618967
0.692958 0.692973 0.693004
0.777432 0.777432 0.777478
0.86009 0.86009 0.860121
0.517418 0.517433 0.517479
0.520821 0.520836 0.520867
0.540887 0.540902 0.540948
0.575235 0.57525 0.57528
0.617365 0.61738 0.617426
0.670832 0.670832 0.670878
0.73492 0.734936 0.734966
0.805783 0.805798 0.805829
0.874189 0.874205 0.874235
0.619455 0.619471 0.619501
0.62153 0.621546 0.621592
0.633997 0.634012 0.634058
0.660365 0.66038 0.66041
0.693034 0.693049 0.69308
0.736416 0.736431 0.736477
0.788357 0.788373 0.788403
0.843168 0.843168 0.843214
0.895918 0.895918 0.895949
0.734844 0.734859 0.73489
0.735943 0.735958 0.735988
0.742947 0.742962 0.742992
0.758907 0.758923 0.758953
0.780072 0.780087 0.780118
0.810391 0.810407 0.810437
0.847089 0.847105 0.847135
0.886381 0.886397 0.886427
0.922713 0.922728 0.922759
0.843748 0.843763 0.843793
0.844144 0.84416 0.84419
0.84683 0.846845 0.846876
0.85359 0.85359 0.85362
0.864271 0.864286 0.864317
0.880522 0.880537 0.880568
0.902296 0.902312 0.902342
0.926238 0.926253 0.926268
0.94905 0.94905 0.949081
0.92282 0.922835 0.92285
0.922957 0.922957 0.922988
0.923842 0.923842 0.923873
0.925933 0.925948 0.925963
0.929381 0.929381 0.929412
0.935958 0.935973 0.935988
0.94583 0.94583 0.945861
0.958267 0.958267 0.958282
0.971298 0.971298 0.971313
0.412329 0.412345 0.412375
0.416983 0.416999 0.417029
0.443473 0.443488 0.443519
0.488899 0.488914 0.488945
0.540749 0.540764 0.540795
0.602991 0.603006 0.603052
0.679606 0.679622 0.679652
0.768643 0.768658 0.768688
0.855329 0.855344 0.855375
0.416464 0.41648 0.41651
0.421088 0.421088 0.421134
0.447196 0.447211 0.447257
0.491905 0.49192 0.491966
0.543145 0.54316 0.543191
0.605005 0.60502 0.605066
0.681224 0.681239 0.681285
0.76965 0.769665 0.769696
0.855863 0.855863 0.855894
0.442741 0.442756 0.442786
0.446738 0.446754 0.446784
0.470497 0.470512 0.470542
0.510948 0.510948 0.510994
0.558602 0.558618 0.558663
0.618128 0.618143 0.618189
0.691661 0.691676 0.691707
0.776303 0.776303 0.776349
0.859388 0.859403 0.859434
0.493599 0.493614 0.493645
0.496818 0.496834 0.496864
0.515709 0.515724 0.515755
0.550729 0.550744 0.550774
0.593149 0.593164 0.593194
0.647715 0.64773 0.647776
0.716121 0.716136 0.716167
0.792462 0.792477 0.792508
0.867079 0.867094 0.867124
0.55787 0.55787 0.557916
0.560189 0.560204 0.560235
0.574517 0.574533 0.574563
0.604028 0.604044 0.604074
0.640162 0.640177 0.640223
0.689128 0.689143 0.689174
0.749859 0.749905 0.749935
0.81561 0.815625 0.815656
0.879774 0.879789 0.87982
0.642344 0.642359 0.64239
0.644114 0.644129 0.644175
0.655055 0.65507 0.6551
0.676829 0.676844 0.67689
0.707164 0.707179 0.707225
0.747311 0.747326 0.747356
0.796872 0.796887 0.796918
0.848829 0.848829 0.848859
0.899229 0.899245 0.899275
0.746746 0.746761 0.746807
0.747692 0.747707 0.747738
0.75404 0.75404 0.754086
0.767529 0.767544 0.767575
0.787579 0.787594 0.787625
0.8159 0.815915 0.815946
0.851026 0.851041 0.851072
0.888853 0.888869 0.888899
0.924453 0.924453 0.924483
0.847959 0.847974 0.848005
0.848325 0.848341 0.848371
0.850874 0.850889 0.850919
0.857343 0.857359 0.857389
0.867155 0.86717 0.867201
0.882918 0.882933 0.882963
0.903975 0.903975 0.904005
0.927214 0.92723 0.927245
0.949722 0.949737 0.949752
0.924163 0.924163 0.924193
0.924285 0.924285 0.924315
0.925093 0.925109 0.925124
0.926986 0.926986 0.927016
0.930358 0.930373 0.930388
0.936797 0.936812 0.936828
0.946395 0.94641 0.946426
0.958648 0.958663 0.958679
0.971511 0.971527 0.971542
0.547677 0.547692 0.547738
0.549508 0.549523 0.549569
0.560891 0.560906 0.560952
0.586114 0.58613 0.58616
0.620417 0.620417 0.620462
0.669276 0.669291 0.669337
0.731685 0.731701 0.731731
0.802487 0.802502 0.802533
0.872084 0.872099 0.872129
0.549172 0.549187 0.549218
0.551003 0.551003 0.551049
0.562325 0.562341 0.562387
0.587488 0.587503 0.587549
0.621714 0.621729 0.621759
0.670405 0.67042 0.670466
0.732601 0.732616 0.732647
0.803113 0.803128 0.803159
0.872435 0.87245 0.87248
0.559548 0.559564 0.559609
0.561334 0.561349 0.561395
0.572503 0.572519 0.572564
0.597436 0.597452 0.597482
0.630381 0.630396 0.630442
0.677928 0.677943 0.677974
0.738735 0.738735 0.738781
0.80737 0.807385 0.807416
0.874815 0.87483 0.874861
0.584298 0.584314 0.584344
0.585962 0.585977 0.586007
0.596719 0.596735 0.596765
0.61912 0.61912 0.619165
0.650797 0.650797 0.650843
0.695857 0.695857 0.695903
0.754009 0.754009 0.754055
0.817685 0.8177 0.817731
0.880781 0.880796 0.880827
0.623392 0.623407 0.623438
0.62475 0.624765 0.624796
0.634073 0.634089 0.634134
0.654917 0.654932 0.654963
0.683528 0.683543 0.683589
0.724941 0.724956 0.725002
0.776989 0.777005 0.77705
0.834836 0.834852 0.834882
0.89044 0.89044 0.890471
0.685939 0.685954 0.686
0.687053 0.687068 0.687114
0.69424 0.694255 0.694301
0.711452 0.711467 0.711498
0.735134 0.735149 0.735195
0.769741 0.769757 0.769787
0.813153 0.813153 0.813199
0.860578 0.860594 0.860624
0.906493 0.906508 0.906538
0.769848 0.769863 0.769894
0.77052 0.770535 0.770581
0.774975 0.77499 0.775021
0.78613 0.78613 0.786175
0.803021 0.803037 0.803067
0.82797 0.82797 0.828016
0.859693 0.859709 0.859739
0.894301 0.894316 0.894347
0.927749 0.927764 0.927779
0.857298 0.857313 0.857343
0.857633 0.857649 0.857679
0.859953 0.859968 0.859998
0.865019 0.865019 0.865049
0.873579 0.873579 0.87361
0.888045 0.888045 0.888075
0.907698 0.907698 0.907729
0.929458 0.929458 0.929488
0.951293 0.951293 0.951324
0.926818 0.926833 0.926848
0.926925 0.926925 0.926955
0.927611 0.927611 0.927642
0.929366 0.929366 0.929397
0.932601 0.932601 0.932631
0.93875 0.938766 0.938781
0.947723 0.947723 0.947753
0.959548 0.959564 0.959579
0.97203 0.972045 0.972061
0.677684 0.677699 0.677745
0.678492 0.678492 0.678538
0.684123 0.684138 0.684184
0.697673 0.697688 0.697734
0.719158 0.719173 0.719203
0.751919 0.751934 0.751965
0.796277 0.796277 0.796323
0.846265 0.846281 0.846311
0.897124 0.897139 0.897169
0.678355 0.67837 0.678401
0.679149 0.679164 0.67921
0.684794 0.68481 0.68484
0.698329 0.698344 0.69839
0.719722 0.719722 0.719768
0.752468 0.752483 0.752514
0.796719 0.796735 0.796765
0.846586 0.846601 0.846632
0.897322 0.897322 0.897353
0.682933 0.682933 0.682979
0.683711 0.683726 0.683772
0.689357 0.689372 0.689403
0.702815 0.702815 0.702861
0.723583 0.723583 0.723629
0.756207 0.756222 0.756268
0.799619 0.799619 0.799664
0.848783 0.848798 0.848829
0.898634 0.898634 0.898665
0.69453 0.694545 0.694575
0.695308 0.695323 0.695369
0.700984 0.700999 0.70103
0.714153 0.714168 0.714199
0.733501 0.733516 0.733547
0.765026 0.765042 0.765087
0.80679 0.806806 0.806836
0.854398 0.854414 0.854444
0.902037 0.902037 0.902068
0.716442 0.716457 0.716503
0.717174 0.717189 0.71722
0.721996 0.722011 0.722042
0.733288 0.733303 0.733333
0.752209 0.752224 0.75227
0.780789 0.780804 0.78085
0.81973 0.819745 0.819776
0.863951 0.863966 0.863996
0.908293 0.908293 0.908324
0.753399 0.753399 0.753445
0.754055 0.754055 0.754101
0.758419 0.758434 0.758465
0.76791 0.767926 0.767956
0.783658 0.783673 0.783703
0.808667 0.808682 0.808713
0.842283 0.842298 0.842329
0.880583 0.880598 0.880629
0.918456 0.918456 0.918486
0.808927 0.808927 0.808972
0.809354 0.809369 0.8094
0.812299 0.812314 0.812345
0.819409 0.819425 0.819455
0.831678 0.831678 0.831724
0.849607 0.849607 0.849653
0.875563 0.875563 0.875593
0.905806 0.905821 0.905837
0.934752 0.934752 0.934783
0.874418 0.874434 0.874464
0.874662 0.874662 0.874708
0.876265 0.87628 0.87631
0.880293 0.880293 0.880323
0.887251 0.887266 0.887297
0.898238 0.898253 0.898283
0.914717 0.914733 0.914748
0.934462 0.934478 0.934508
0.95436 0.95436 0.954391
0.932342 0.932342 0.932372
0.932418 0.932433 0.932448
0.933013 0.933028 0.933043
0.9346 0.934615 0.934646
0.937514 0.937514 0.937545
0.942489 0.942489 0.942519
0.950713 0.950713 0.950744
0.961608 0.961624 0.961639
0.97322 0.97322 0.973236
0.803601 0.803616 0.803647
0.803906 0.803922 0.803952
0.806012 0.806027 0.806058
0.811307 0.811322 0.811353
0.821057 0.821073 0.821103
0.837827 0.837842 0.837873
0.862867 0.862882 0.862913
0.893919 0.893919 0.89395
0.926406 0.926406 0.926436
0.803845 0.803861 0.803891
0.80415 0.804166 0.804196
0.806256 0.806271 0.806302
0.811551 0.811551 0.811597
0.821286 0.821302 0.821332
0.838026 0.838026 0.838071
0.86302 0.863035 0.863066
0.894041 0.894041 0.894072
0.926482 0.926482 0.926513
0.805524 0.805539 0.80557
0.805829 0.805844 0.805875
0.807935 0.807935 0.80798
0.813199 0.813214 0.813245
0.822919 0.822934 0.822965
0.839353 0.839368 0.839399
0.864134 0.864149 0.864179
0.894911 0.894926 0.894957
0.927016 0.927031 0.927062
0.809964 0.809979 0.81001
0.810269 0.810285 0.810315
0.812345 0.812345 0.81239
0.817548 0.817563 0.817594
0.827207 0.827222 0.827253
0.842878 0.842878 0.842908
0.867063 0.867063 0.867094
0.897215 0.897215 0.897246
0.928466 0.928466 0.928496
0.818357 0.818372 0.818402
0.818647 0.818662 0.818692
0.820661 0.820676 0.820706
0.825818 0.825833 0.825864
0.834836 0.834852 0.834882
0.8495 0.849515 0.849546
0.872572 0.872572 0.872602
0.901564 0.901564 0.901595
0.931243 0.931243 0.931273
0.83505 0.83505 0.835096
0.835279 0.835294 0.835325
0.836912 0.836912 0.836957
0.841169 0.841184 0.841215
0.848859 0.848859 0.848905
0.862867 0.862867 0.862913
0.883879 0.883879 0.883909
0.910002 0.910018 0.910048
0.93698 0.936996 0.937011
0.863142 0.863142 0.863172
0.86334 0.86334 0.863371
0.864668 0.864683 0.864713
0.868086 0.868101 0.868132
0.874128 0.874144 0.874174
0.88574 0.88574 0.885771
0.902693 0.902708 0.902739
0.924331 0.924331 0.924361
0.946578 0.946593 0.946609
0.902373 0.902373 0.902403
0.902495 0.90251 0.902541
0.90341 0.903426 0.903456
0.905806 0.905806 0.905837
0.909773 0.909773 0.909804
0.916823 0.916838 0.916854
0.928649 0.928664 0.928679
0.943984 0.943999 0.944015
0.96054 0.960555 0.960571
0.942855 0.94287 0.942885
0.942916 0.942916 0.942946
0.943297 0.943297 0.943328
0.94432 0.94432 0.94435
0.946242 0.946242 0.946273
0.950027 0.950027 0.950057
0.956359 0.956359 0.95639
0.965423 0.965423 0.965454
0.975814 0.975814 0.975845
